%
O0( HALF INCH CONTOUR )
( DATE=DD-MM-YY - 09-05-17 TIME=HH:MM - 12:35 )
( MCX FILE - \\KHENSU\HOME03\JTALIK\DESKTOP\GITHUB\ELECTRIC-FEED-SYSTEM\2.2 KN\CAD\V6 MANUFACTURING\FOR MASTERCAM\UPPER BEARING PLATE\20MM NONLOCATING BEARING PLATE.EMCX-9 )
( NC FILE - \\KHENSU\HOME03\JTALIK\DESKTOP\GITHUB\ELECTRIC-FEED-SYSTEM\2.2 KN\CAD\V6 MANUFACTURING\FOR MASTERCAM\UPPER BEARING PLATE\HALF INCH CONTOUR.NC )
( MATERIAL - ALUMINUM INCH - 2024 )
( T239 |  1/2 FLAT ENDMILL | H239 )
N100 G20
N110 G0 G17 G40 G49 G80 G90
N120 T239 M6
N130 G0 G90 G54 X1.9737 Y2.8275 S713 M3
N140 G43 H239 Z2.
N150 M8
N160 Z1.7717
N170 G1 Z1.1746 F6.4
N180 X2.4562
N190 G2 X2.9388 Y2.345 I0. J-.4825
N200 G3 X5.55 Y-.2662 I2.6112 J0.
N210 X8.1612 Y2.345 I0. J2.6112
N220 X5.55 Y4.9562 I-2.6112 J0.
N230 X2.9388 Y2.345 I0. J-2.6112
N240 G2 X2.4562 Y1.8625 I-.4826 J0.
N250 G1 X1.9737
N260 Z1.7717
N270 G0 X2.0738 Y2.8275
N280 G1 Z1.1746
N290 X2.5562
N300 G2 X3.0387 Y2.345 I0. J-.4825
N310 G3 X5.55 Y-.1663 I2.5113 J0.
N320 X8.0613 Y2.345 I0. J2.5113
N330 X5.55 Y4.8563 I-2.5113 J0.
N340 X3.0387 Y2.345 I0. J-2.5113
N350 G2 X2.5562 Y1.8625 I-.4825 J0.
N360 G1 X2.0738
N370 Z1.7717
N380 G0 X1.9737 Y2.8275
N390 G1 Z1.0776
N400 X2.4562
N410 G2 X2.9388 Y2.345 I0. J-.4825
N420 G3 X5.55 Y-.2662 I2.6112 J0.
N430 X8.1612 Y2.345 I0. J2.6112
N440 X5.55 Y4.9562 I-2.6112 J0.
N450 X2.9388 Y2.345 I0. J-2.6112
N460 G2 X2.4562 Y1.8625 I-.4826 J0.
N470 G1 X1.9737
N480 Z1.7717
N490 G0 X2.0738 Y2.8275
N500 G1 Z1.0776
N510 X2.5562
N520 G2 X3.0387 Y2.345 I0. J-.4825
N530 G3 X5.55 Y-.1663 I2.5113 J0.
N540 X8.0613 Y2.345 I0. J2.5113
N550 X5.55 Y4.8563 I-2.5113 J0.
N560 X3.0387 Y2.345 I0. J-2.5113
N570 G2 X2.5562 Y1.8625 I-.4825 J0.
N580 G1 X2.0738
N590 Z1.7717
N600 G0 X1.9737 Y2.8275
N610 G1 Z.9805
N620 X2.4562
N630 G2 X2.9388 Y2.345 I0. J-.4825
N640 G3 X5.55 Y-.2662 I2.6112 J0.
N650 X8.1612 Y2.345 I0. J2.6112
N660 X5.55 Y4.9562 I-2.6112 J0.
N670 X2.9388 Y2.345 I0. J-2.6112
N680 G2 X2.4562 Y1.8625 I-.4826 J0.
N690 G1 X1.9737
N700 Z1.7717
N710 G0 X2.0738 Y2.8275
N720 G1 Z.9805
N730 X2.5562
N740 G2 X3.0387 Y2.345 I0. J-.4825
N750 G3 X5.55 Y-.1663 I2.5113 J0.
N760 X8.0613 Y2.345 I0. J2.5113
N770 X5.55 Y4.8563 I-2.5113 J0.
N780 X3.0387 Y2.345 I0. J-2.5113
N790 G2 X2.5562 Y1.8625 I-.4825 J0.
N800 G1 X2.0738
N810 Z1.7717
N820 G0 X1.9737 Y2.8275
N830 G1 Z.8835
N840 X2.4562
N850 G2 X2.9388 Y2.345 I0. J-.4825
N860 G3 X5.55 Y-.2662 I2.6112 J0.
N870 X8.1612 Y2.345 I0. J2.6112
N880 X5.55 Y4.9562 I-2.6112 J0.
N890 X2.9388 Y2.345 I0. J-2.6112
N900 G2 X2.4562 Y1.8625 I-.4826 J0.
N910 G1 X1.9737
N920 Z1.7717
N930 G0 X2.0738 Y2.8275
N940 G1 Z.8835
N950 X2.5562
N960 G2 X3.0387 Y2.345 I0. J-.4825
N970 G3 X5.55 Y-.1663 I2.5113 J0.
N980 X8.0613 Y2.345 I0. J2.5113
N990 X5.55 Y4.8563 I-2.5113 J0.
N1000 X3.0387 Y2.345 I0. J-2.5113
N1010 G2 X2.5562 Y1.8625 I-.4825 J0.
N1020 G1 X2.0738
N1030 Z1.7717
N1040 G0 X1.9737 Y2.8275
N1050 G1 Z.7864
N1060 X2.4562
N1070 G2 X2.9388 Y2.345 I0. J-.4825
N1080 G3 X5.55 Y-.2662 I2.6112 J0.
N1090 X8.1612 Y2.345 I0. J2.6112
N1100 X5.55 Y4.9562 I-2.6112 J0.
N1110 X2.9388 Y2.345 I0. J-2.6112
N1120 G2 X2.4562 Y1.8625 I-.4826 J0.
N1130 G1 X1.9737
N1140 Z1.7717
N1150 G0 X2.0738 Y2.8275
N1160 G1 Z.7864
N1170 X2.5562
N1180 G2 X3.0387 Y2.345 I0. J-.4825
N1190 G3 X5.55 Y-.1663 I2.5113 J0.
N1200 X8.0613 Y2.345 I0. J2.5113
N1210 X5.55 Y4.8563 I-2.5113 J0.
N1220 X3.0387 Y2.345 I0. J-2.5113
N1230 G2 X2.5562 Y1.8625 I-.4825 J0.
N1240 G1 X2.0738
N1250 Z1.7717
N1260 G0 X1.9737 Y2.8275
N1270 G1 Z.6894
N1280 X2.4562
N1290 G2 X2.9388 Y2.345 I0. J-.4825
N1300 G3 X5.55 Y-.2662 I2.6112 J0.
N1310 X8.1612 Y2.345 I0. J2.6112
N1320 X5.55 Y4.9562 I-2.6112 J0.
N1330 X2.9388 Y2.345 I0. J-2.6112
N1340 G2 X2.4562 Y1.8625 I-.4826 J0.
N1350 G1 X1.9737
N1360 Z1.7717
N1370 G0 X2.0738 Y2.8275
N1380 G1 Z.6894
N1390 X2.5562
N1400 G2 X3.0387 Y2.345 I0. J-.4825
N1410 G3 X5.55 Y-.1663 I2.5113 J0.
N1420 X8.0613 Y2.345 I0. J2.5113
N1430 X5.55 Y4.8563 I-2.5113 J0.
N1440 X3.0387 Y2.345 I0. J-2.5113
N1450 G2 X2.5562 Y1.8625 I-.4825 J0.
N1460 G1 X2.0738
N1470 Z1.7717
N1480 G0 X1.9737 Y2.8275
N1490 G1 Z.5923
N1500 X2.4562
N1510 G2 X2.9388 Y2.345 I0. J-.4825
N1520 G3 X5.55 Y-.2662 I2.6112 J0.
N1530 X8.1612 Y2.345 I0. J2.6112
N1540 X5.55 Y4.9562 I-2.6112 J0.
N1550 X2.9388 Y2.345 I0. J-2.6112
N1560 G2 X2.4562 Y1.8625 I-.4826 J0.
N1570 G1 X1.9737
N1580 Z1.7717
N1590 G0 X2.0738 Y2.8275
N1600 G1 Z.5923
N1610 X2.5562
N1620 G2 X3.0387 Y2.345 I0. J-.4825
N1630 G3 X5.55 Y-.1663 I2.5113 J0.
N1640 X8.0613 Y2.345 I0. J2.5113
N1650 X5.55 Y4.8563 I-2.5113 J0.
N1660 X3.0387 Y2.345 I0. J-2.5113
N1670 G2 X2.5562 Y1.8625 I-.4825 J0.
N1680 G1 X2.0738
N1690 Z1.7717
N1700 G0 X1.9737 Y2.8275
N1710 G1 Z.4953
N1720 X2.4562
N1730 G2 X2.9388 Y2.345 I0. J-.4825
N1740 G3 X5.55 Y-.2662 I2.6112 J0.
N1750 X8.1612 Y2.345 I0. J2.6112
N1760 X5.55 Y4.9562 I-2.6112 J0.
N1770 X2.9388 Y2.345 I0. J-2.6112
N1780 G2 X2.4562 Y1.8625 I-.4826 J0.
N1790 G1 X1.9737
N1800 Z1.7717
N1810 G0 X2.0738 Y2.8275
N1820 G1 Z.4953
N1830 X2.5562
N1840 G2 X3.0387 Y2.345 I0. J-.4825
N1850 G3 X5.55 Y-.1663 I2.5113 J0.
N1860 X8.0613 Y2.345 I0. J2.5113
N1870 X5.55 Y4.8563 I-2.5113 J0.
N1880 X3.0387 Y2.345 I0. J-2.5113
N1890 G2 X2.5562 Y1.8625 I-.4825 J0.
N1900 G1 X2.0738
N1910 Z1.7717
N1920 G0 X1.9737 Y2.8275
N1930 G1 Z.3982
N1940 X2.4562
N1950 G2 X2.9388 Y2.345 I0. J-.4825
N1960 G3 X5.55 Y-.2662 I2.6112 J0.
N1970 X8.1612 Y2.345 I0. J2.6112
N1980 X5.55 Y4.9562 I-2.6112 J0.
N1990 X2.9388 Y2.345 I0. J-2.6112
N2000 G2 X2.4562 Y1.8625 I-.4826 J0.
N2010 G1 X1.9737
N2020 Z1.7717
N2030 G0 X2.0738 Y2.8275
N2040 G1 Z.3982
N2050 X2.5562
N2060 G2 X3.0387 Y2.345 I0. J-.4825
N2070 G3 X5.55 Y-.1663 I2.5113 J0.
N2080 X8.0613 Y2.345 I0. J2.5113
N2090 X5.55 Y4.8563 I-2.5113 J0.
N2100 X3.0387 Y2.345 I0. J-2.5113
N2110 G2 X2.5562 Y1.8625 I-.4825 J0.
N2120 G1 X2.0738
N2130 Z1.7717
N2140 G0 X1.9737 Y2.8275
N2150 G1 Z.3012
N2160 X2.4562
N2170 G2 X2.9388 Y2.345 I0. J-.4825
N2180 G3 X5.55 Y-.2662 I2.6112 J0.
N2190 X8.1612 Y2.345 I0. J2.6112
N2200 X5.55 Y4.9562 I-2.6112 J0.
N2210 X2.9388 Y2.345 I0. J-2.6112
N2220 G2 X2.4562 Y1.8625 I-.4826 J0.
N2230 G1 X1.9737
N2240 Z1.7717
N2250 G0 X2.0738 Y2.8275
N2260 G1 Z.3012
N2270 X2.5562
N2280 G2 X3.0387 Y2.345 I0. J-.4825
N2290 G3 X5.55 Y-.1663 I2.5113 J0.
N2300 X8.0613 Y2.345 I0. J2.5113
N2310 X5.55 Y4.8563 I-2.5113 J0.
N2320 X3.0387 Y2.345 I0. J-2.5113
N2330 G2 X2.5562 Y1.8625 I-.4825 J0.
N2340 G1 X2.0738
N2350 Z1.7717
N2360 G0 X1.9737 Y2.8275
N2370 G1 Z.2041
N2380 X2.4562
N2390 G2 X2.9388 Y2.345 I0. J-.4825
N2400 G3 X5.55 Y-.2662 I2.6112 J0.
N2410 X8.1612 Y2.345 I0. J2.6112
N2420 X5.55 Y4.9562 I-2.6112 J0.
N2430 X2.9388 Y2.345 I0. J-2.6112
N2440 G2 X2.4562 Y1.8625 I-.4826 J0.
N2450 G1 X1.9737
N2460 Z1.7717
N2470 G0 X2.0738 Y2.8275
N2480 G1 Z.2041
N2490 X2.5562
N2500 G2 X3.0387 Y2.345 I0. J-.4825
N2510 G3 X5.55 Y-.1663 I2.5113 J0.
N2520 X8.0613 Y2.345 I0. J2.5113
N2530 X5.55 Y4.8563 I-2.5113 J0.
N2540 X3.0387 Y2.345 I0. J-2.5113
N2550 G2 X2.5562 Y1.8625 I-.4825 J0.
N2560 G1 X2.0738
N2570 Z1.7717
N2580 G0 X1.9737 Y2.8275
N2590 G1 Z.107
N2600 X2.4562
N2610 G2 X2.9388 Y2.345 I0. J-.4825
N2620 G3 X5.55 Y-.2662 I2.6112 J0.
N2630 X8.1612 Y2.345 I0. J2.6112
N2640 X5.55 Y4.9562 I-2.6112 J0.
N2650 X2.9388 Y2.345 I0. J-2.6112
N2660 G2 X2.4562 Y1.8625 I-.4826 J0.
N2670 G1 X1.9737
N2680 Z1.7717
N2690 G0 X2.0738 Y2.8275
N2700 G1 Z.107
N2710 X2.5562
N2720 G2 X3.0387 Y2.345 I0. J-.4825
N2730 G3 X5.55 Y-.1663 I2.5113 J0.
N2740 X8.0613 Y2.345 I0. J2.5113
N2750 X5.55 Y4.8563 I-2.5113 J0.
N2760 X3.0387 Y2.345 I0. J-2.5113
N2770 G2 X2.5562 Y1.8625 I-.4825 J0.
N2780 G1 X2.0738
N2790 Z1.7717
N2800 G0 X1.9737 Y2.8275
N2810 G1 Z.01
N2820 X2.4562
N2830 G2 X2.9388 Y2.345 I0. J-.4825
N2840 G3 X5.55 Y-.2662 I2.6112 J0.
N2850 X8.1612 Y2.345 I0. J2.6112
N2860 X5.55 Y4.9562 I-2.6112 J0.
N2870 X2.9388 Y2.345 I0. J-2.6112
N2880 G2 X2.4562 Y1.8625 I-.4826 J0.
N2890 G1 X1.9737
N2900 Z1.7717
N2910 G0 X2.0738 Y2.8275
N2920 G1 Z.01
N2930 X2.5562
N2940 G2 X3.0387 Y2.345 I0. J-.4825
N2950 G3 X5.55 Y-.1663 I2.5113 J0.
N2960 X8.0613 Y2.345 I0. J2.5113
N2970 X5.55 Y4.8563 I-2.5113 J0.
N2980 X3.0387 Y2.345 I0. J-2.5113
N2990 G2 X2.5562 Y1.8625 I-.4825 J0.
N3000 G1 X2.0738
N3010 Z1.7717
N3020 G0 X1.9737 Y2.8275
N3030 G1 Z0.
N3040 X2.4562
N3050 G2 X2.9388 Y2.345 I0. J-.4825
N3060 G3 X5.55 Y-.2662 I2.6112 J0.
N3070 X8.1612 Y2.345 I0. J2.6112
N3080 X5.55 Y4.9562 I-2.6112 J0.
N3090 X2.9388 Y2.345 I0. J-2.6112
N3100 G2 X2.4562 Y1.8625 I-.4826 J0.
N3110 G1 X1.9737
N3120 Z1.7717
N3130 G0 X2.0738 Y2.8275
N3140 G1 Z0.
N3150 X2.5562
N3160 G2 X3.0387 Y2.345 I0. J-.4825
N3170 G3 X5.55 Y-.1663 I2.5113 J0.
N3180 X8.0613 Y2.345 I0. J2.5113
N3190 X5.55 Y4.8563 I-2.5113 J0.
N3200 X3.0387 Y2.345 I0. J-2.5113
N3210 G2 X2.5562 Y1.8625 I-.4825 J0.
N3220 G1 X2.0738
N3230 Z1.7717
N3240 G0 X2.0938 Y2.8275
N3250 G1 Z0.
N3260 X2.5762
N3270 G2 X3.0587 Y2.345 I0. J-.4825
N3280 G3 X5.55 Y-.1462 I2.4913 J0.
N3290 X8.0412 Y2.345 I0. J2.4912
N3300 X5.55 Y4.8362 I-2.4912 J0.
N3310 X3.0587 Y2.345 I0. J-2.4912
N3320 G2 X2.5762 Y1.8625 I-.4825 J0.
N3330 G1 X2.0938
N3340 Z1.7717
N3350 G0 Z2.
N3360 S1069 M3
N3370 X5.9902 Y2.634 Z2.0217
N3380 Z1.5217
N3390 G1 Z1.3717
N3400 X6.003 Y2.6026 Z1.3699
N3410 X6.0136 Y2.5703 Z1.3681
N3420 X6.0218 Y2.5374 Z1.3664
N3430 X6.0278 Y2.504 Z1.3646
N3440 X6.0313 Y2.4703 Z1.3628
N3450 X6.0325 Y2.4364 Z1.361
N3460 X6.0307 Y2.3943 Z1.3588
N3470 X6.0252 Y2.3526 Z1.3566
N3480 X6.0161 Y2.3115 Z1.3544
N3490 X6.0034 Y2.2714 Z1.3522
N3500 X5.9873 Y2.2325 Z1.35
N3510 X5.9679 Y2.1951 Z1.3478
N3520 X5.9453 Y2.1596 Z1.3456
N3530 X5.9196 Y2.1262 Z1.3434
N3540 X5.8912 Y2.0952 Z1.3411
N3550 X5.8602 Y2.0668 Z1.3389
N3560 X5.8268 Y2.0411 Z1.3367
N3570 X5.7913 Y2.0185 Z1.3345
N3580 X5.7539 Y1.9991 Z1.3323
N3590 X5.715 Y1.983 Z1.3301
N3600 X5.6749 Y1.9703 Z1.3279
N3610 X5.6338 Y1.9612 Z1.3257
N3620 X5.5921 Y1.9557 Z1.3235
N3630 X5.55 Y1.9539 Z1.3213
N3640 X5.5079 Y1.9557 Z1.3191
N3650 X5.4662 Y1.9612 Z1.3169
N3660 X5.4251 Y1.9703 Z1.3147
N3670 X5.385 Y1.983 Z1.3125
N3680 X5.3461 Y1.9991 Z1.3103
N3690 X5.3087 Y2.0185 Z1.3081
N3700 X5.2732 Y2.0411 Z1.3059
N3710 X5.2398 Y2.0668 Z1.3037
N3720 X5.2088 Y2.0952 Z1.3015
N3730 X5.1804 Y2.1262 Z1.2992
N3740 X5.1547 Y2.1596 Z1.297
N3750 X5.1321 Y2.1951 Z1.2948
N3760 X5.1127 Y2.2325 Z1.2926
N3770 X5.0966 Y2.2714 Z1.2904
N3780 X5.0839 Y2.3115 Z1.2882
N3790 X5.0748 Y2.3526 Z1.286
N3800 X5.0693 Y2.3943 Z1.2838
N3810 X5.0675 Y2.4364 Z1.2816
N3820 X5.0693 Y2.4785 Z1.2794
N3830 X5.0748 Y2.5202 Z1.2772
N3840 X5.0839 Y2.5613 Z1.275
N3850 X5.0966 Y2.6014 Z1.2728
N3860 X5.1127 Y2.6403 Z1.2706
N3870 X5.1321 Y2.6777 Z1.2684
N3880 X5.1547 Y2.7132 Z1.2662
N3890 X5.1804 Y2.7466 Z1.264
N3900 X5.2088 Y2.7776 Z1.2618
N3910 X5.2398 Y2.806 Z1.2595
N3920 X5.2732 Y2.8317 Z1.2573
N3930 X5.3087 Y2.8543 Z1.2551
N3940 X5.3461 Y2.8737 Z1.2529
N3950 X5.385 Y2.8898 Z1.2507
N3960 X5.4251 Y2.9025 Z1.2485
N3970 X5.4662 Y2.9116 Z1.2463
N3980 X5.5079 Y2.9171 Z1.2441
N3990 X5.55 Y2.9189 Z1.2419
N4000 X5.5896 Y2.9173 Z1.2398
N4010 X5.6288 Y2.9124 Z1.2377
N4020 X5.6676 Y2.9044 Z1.2357
N4030 X5.7056 Y2.8932 Z1.2336
N4040 X5.7425 Y2.8789 Z1.2315
N4050 X5.7781 Y2.8616 Z1.2294
N4060 X5.8122 Y2.8415 Z1.2273
N4070 X5.8445 Y2.8186 Z1.2253
N4080 X5.8748 Y2.7932 Z1.2232
N4090 X5.903 Y2.7654 Z1.2211
N4100 X5.9288 Y2.7353 Z1.219
N4110 X5.952 Y2.7033 Z1.217
N4120 X5.9725 Y2.6694 Z1.2149
N4130 X5.9902 Y2.634 Z1.2128
N4140 X6.003 Y2.6026 Z1.211
N4150 X6.0136 Y2.5703 Z1.2092
N4160 X6.0218 Y2.5374 Z1.2075
N4170 X6.0278 Y2.504 Z1.2057
N4180 X6.0313 Y2.4703 Z1.2039
N4190 X6.0325 Y2.4364 Z1.2021
N4200 X6.0308 Y2.3952 Z1.1999
N4210 X6.0255 Y2.3543 Z1.1978
N4220 X6.0167 Y2.314 Z1.1956
N4230 X6.0046 Y2.2746 Z1.1935
N4240 X5.9891 Y2.2364 Z1.1913
N4250 X5.9704 Y2.1996 Z1.1891
N4260 X5.9487 Y2.1646 Z1.187
N4270 X5.924 Y2.1315 Z1.1848
N4280 X5.8966 Y2.1007 Z1.1826
N4290 X5.8667 Y2.0723 Z1.1805
N4300 X5.8344 Y2.0466 Z1.1783
N4310 X5.8001 Y2.0238 Z1.1762
N4320 X5.7639 Y2.0039 Z1.174
N4330 X5.5952 Y2.345
N4340 G3 X5.4595 Y2.4807 I-.1357 J0.
N4350 X5.3238 Y2.345 I0. J-.1357
N4360 X5.6405 Y2.0283 I.3167 J0.
N4370 X5.9571 Y2.345 I0. J.3167
N4380 X5.4595 Y2.8426 I-.4976 J0.
N4390 X4.962 Y2.345 I0. J-.4976
N4400 X5.5611 Y1.6711 I.6785 J0.
N4410 X6.224 Y2.345 I-.0111 J.6739
N4420 X5.55 Y3.0189 I-.674 J0.
N4430 X4.8761 Y2.345 I0. J-.6739
N4440 X5.55 Y1.6711 I.6739 J0.
N4450 G1 X5.5611
N4460 Z1.5217
N4470 G0 X5.9902 Y2.634
N4480 G1 Z1.274
N4490 X6.003 Y2.6026 Z1.2722
N4500 X6.0136 Y2.5703 Z1.2704
N4510 X6.0218 Y2.5374 Z1.2687
N4520 X6.0278 Y2.504 Z1.2669
N4530 X6.0313 Y2.4703 Z1.2651
N4540 X6.0325 Y2.4364 Z1.2633
N4550 X6.0307 Y2.3943 Z1.2611
N4560 X6.0252 Y2.3526 Z1.2589
N4570 X6.0161 Y2.3115 Z1.2567
N4580 X6.0034 Y2.2714 Z1.2545
N4590 X5.9873 Y2.2325 Z1.2523
N4600 X5.9679 Y2.1951 Z1.2501
N4610 X5.9453 Y2.1596 Z1.2479
N4620 X5.9196 Y2.1262 Z1.2457
N4630 X5.8912 Y2.0952 Z1.2435
N4640 X5.8602 Y2.0668 Z1.2412
N4650 X5.8268 Y2.0411 Z1.239
N4660 X5.7913 Y2.0185 Z1.2368
N4670 X5.7539 Y1.9991 Z1.2346
N4680 X5.715 Y1.983 Z1.2324
N4690 X5.6749 Y1.9703 Z1.2302
N4700 X5.6338 Y1.9612 Z1.228
N4710 X5.5921 Y1.9557 Z1.2258
N4720 X5.55 Y1.9539 Z1.2236
N4730 X5.5079 Y1.9557 Z1.2214
N4740 X5.4662 Y1.9612 Z1.2192
N4750 X5.4251 Y1.9703 Z1.217
N4760 X5.385 Y1.983 Z1.2148
N4770 X5.3461 Y1.9991 Z1.2126
N4780 X5.3087 Y2.0185 Z1.2104
N4790 X5.2732 Y2.0411 Z1.2082
N4800 X5.2398 Y2.0668 Z1.206
N4810 X5.2088 Y2.0952 Z1.2037
N4820 X5.1804 Y2.1262 Z1.2015
N4830 X5.1547 Y2.1596 Z1.1993
N4840 X5.1321 Y2.1951 Z1.1971
N4850 X5.1127 Y2.2325 Z1.1949
N4860 X5.0966 Y2.2714 Z1.1927
N4870 X5.0839 Y2.3115 Z1.1905
N4880 X5.0748 Y2.3526 Z1.1883
N4890 X5.0693 Y2.3943 Z1.1861
N4900 X5.0675 Y2.4364 Z1.1839
N4910 X5.0693 Y2.4785 Z1.1817
N4920 X5.0748 Y2.5202 Z1.1795
N4930 X5.0839 Y2.5613 Z1.1773
N4940 X5.0966 Y2.6014 Z1.1751
N4950 X5.1127 Y2.6403 Z1.1729
N4960 X5.1321 Y2.6777 Z1.1707
N4970 X5.1547 Y2.7132 Z1.1685
N4980 X5.1804 Y2.7466 Z1.1663
N4990 X5.2088 Y2.7776 Z1.1641
N5000 X5.2398 Y2.806 Z1.1618
N5010 X5.2732 Y2.8317 Z1.1596
N5020 X5.3087 Y2.8543 Z1.1574
N5030 X5.3461 Y2.8737 Z1.1552
N5040 X5.385 Y2.8898 Z1.153
N5050 X5.4251 Y2.9025 Z1.1508
N5060 X5.4662 Y2.9116 Z1.1486
N5070 X5.5079 Y2.9171 Z1.1464
N5080 X5.55 Y2.9189 Z1.1442
N5090 X5.5896 Y2.9173 Z1.1421
N5100 X5.6288 Y2.9124 Z1.14
N5110 X5.6676 Y2.9044 Z1.138
N5120 X5.7056 Y2.8932 Z1.1359
N5130 X5.7425 Y2.8789 Z1.1338
N5140 X5.7781 Y2.8616 Z1.1317
N5150 X5.8122 Y2.8415 Z1.1297
N5160 X5.8445 Y2.8186 Z1.1276
N5170 X5.8748 Y2.7932 Z1.1255
N5180 X5.903 Y2.7654 Z1.1234
N5190 X5.9288 Y2.7353 Z1.1213
N5200 X5.952 Y2.7033 Z1.1193
N5210 X5.9725 Y2.6694 Z1.1172
N5220 X5.9902 Y2.634 Z1.1151
N5230 X6.003 Y2.6026 Z1.1133
N5240 X6.0136 Y2.5703 Z1.1115
N5250 X6.0218 Y2.5374 Z1.1098
N5260 X6.0278 Y2.504 Z1.108
N5270 X6.0313 Y2.4703 Z1.1062
N5280 X6.0325 Y2.4364 Z1.1044
N5290 X6.0308 Y2.3952 Z1.1022
N5300 X6.0255 Y2.3543 Z1.1001
N5310 X6.0167 Y2.314 Z1.0979
N5320 X6.0046 Y2.2746 Z1.0958
N5330 X5.9891 Y2.2364 Z1.0936
N5340 X5.9704 Y2.1996 Z1.0914
N5350 X5.9487 Y2.1646 Z1.0893
N5360 X5.924 Y2.1315 Z1.0871
N5370 X5.8966 Y2.1007 Z1.0849
N5380 X5.8667 Y2.0723 Z1.0828
N5390 X5.8344 Y2.0466 Z1.0806
N5400 X5.8001 Y2.0238 Z1.0785
N5410 X5.7639 Y2.0039 Z1.0763
N5420 X5.5952 Y2.345
N5430 G3 X5.4595 Y2.4807 I-.1357 J0.
N5440 X5.3238 Y2.345 I0. J-.1357
N5450 X5.6405 Y2.0283 I.3167 J0.
N5460 X5.9571 Y2.345 I0. J.3167
N5470 X5.4595 Y2.8426 I-.4976 J0.
N5480 X4.962 Y2.345 I0. J-.4976
N5490 X5.5611 Y1.6711 I.6785 J0.
N5500 X6.224 Y2.345 I-.0111 J.6739
N5510 X5.55 Y3.0189 I-.674 J0.
N5520 X4.8761 Y2.345 I0. J-.6739
N5530 X5.55 Y1.6711 I.6739 J0.
N5540 G1 X5.5611
N5550 Z1.5217
N5560 G0 X5.9902 Y2.634
N5570 G1 Z1.1763
N5580 X6.003 Y2.6026 Z1.1745
N5590 X6.0136 Y2.5703 Z1.1727
N5600 X6.0218 Y2.5374 Z1.1709
N5610 X6.0278 Y2.504 Z1.1692
N5620 X6.0313 Y2.4703 Z1.1674
N5630 X6.0325 Y2.4364 Z1.1656
N5640 X6.0307 Y2.3943 Z1.1634
N5650 X6.0252 Y2.3526 Z1.1612
N5660 X6.0161 Y2.3115 Z1.159
N5670 X6.0034 Y2.2714 Z1.1568
N5680 X5.9873 Y2.2325 Z1.1546
N5690 X5.9679 Y2.1951 Z1.1524
N5700 X5.9453 Y2.1596 Z1.1502
N5710 X5.9196 Y2.1262 Z1.148
N5720 X5.8912 Y2.0952 Z1.1458
N5730 X5.8602 Y2.0668 Z1.1435
N5740 X5.8268 Y2.0411 Z1.1413
N5750 X5.7913 Y2.0185 Z1.1391
N5760 X5.7539 Y1.9991 Z1.1369
N5770 X5.715 Y1.983 Z1.1347
N5780 X5.6749 Y1.9703 Z1.1325
N5790 X5.6338 Y1.9612 Z1.1303
N5800 X5.5921 Y1.9557 Z1.1281
N5810 X5.55 Y1.9539 Z1.1259
N5820 X5.5079 Y1.9557 Z1.1237
N5830 X5.4662 Y1.9612 Z1.1215
N5840 X5.4251 Y1.9703 Z1.1193
N5850 X5.385 Y1.983 Z1.1171
N5860 X5.3461 Y1.9991 Z1.1149
N5870 X5.3087 Y2.0185 Z1.1127
N5880 X5.2732 Y2.0411 Z1.1105
N5890 X5.2398 Y2.0668 Z1.1083
N5900 X5.2088 Y2.0952 Z1.1061
N5910 X5.1804 Y2.1262 Z1.1038
N5920 X5.1547 Y2.1596 Z1.1016
N5930 X5.1321 Y2.1951 Z1.0994
N5940 X5.1127 Y2.2325 Z1.0972
N5950 X5.0966 Y2.2714 Z1.095
N5960 X5.0839 Y2.3115 Z1.0928
N5970 X5.0748 Y2.3526 Z1.0906
N5980 X5.0693 Y2.3943 Z1.0884
N5990 X5.0675 Y2.4364 Z1.0862
N6000 X5.0693 Y2.4785 Z1.084
N6010 X5.0748 Y2.5202 Z1.0818
N6020 X5.0839 Y2.5613 Z1.0796
N6030 X5.0966 Y2.6014 Z1.0774
N6040 X5.1127 Y2.6403 Z1.0752
N6050 X5.1321 Y2.6777 Z1.073
N6060 X5.1547 Y2.7132 Z1.0708
N6070 X5.1804 Y2.7466 Z1.0686
N6080 X5.2088 Y2.7776 Z1.0663
N6090 X5.2398 Y2.806 Z1.0641
N6100 X5.2732 Y2.8317 Z1.0619
N6110 X5.3087 Y2.8543 Z1.0597
N6120 X5.3461 Y2.8737 Z1.0575
N6130 X5.385 Y2.8898 Z1.0553
N6140 X5.4251 Y2.9025 Z1.0531
N6150 X5.4662 Y2.9116 Z1.0509
N6160 X5.5079 Y2.9171 Z1.0487
N6170 X5.55 Y2.9189 Z1.0465
N6180 X5.5896 Y2.9173 Z1.0444
N6190 X5.6288 Y2.9124 Z1.0424
N6200 X5.6676 Y2.9044 Z1.0403
N6210 X5.7056 Y2.8932 Z1.0382
N6220 X5.7425 Y2.8789 Z1.0361
N6230 X5.7781 Y2.8616 Z1.0341
N6240 X5.8122 Y2.8415 Z1.032
N6250 X5.8445 Y2.8186 Z1.0299
N6260 X5.8748 Y2.7932 Z1.0279
N6270 X5.903 Y2.7654 Z1.0258
N6280 X5.9288 Y2.7353 Z1.0237
N6290 X5.952 Y2.7033 Z1.0216
N6300 X5.9725 Y2.6694 Z1.0196
N6310 X5.9902 Y2.634 Z1.0175
N6320 X6.003 Y2.6026 Z1.0157
N6330 X6.0136 Y2.5703 Z1.0139
N6340 X6.0218 Y2.5374 Z1.0122
N6350 X6.0278 Y2.504 Z1.0104
N6360 X6.0313 Y2.4703 Z1.0086
N6370 X6.0325 Y2.4364 Z1.0068
N6380 X6.0308 Y2.3952 Z1.0046
N6390 X6.0255 Y2.3543 Z1.0025
N6400 X6.0167 Y2.314 Z1.0003
N6410 X6.0046 Y2.2746 Z.9982
N6420 X5.9891 Y2.2364 Z.996
N6430 X5.9704 Y2.1996 Z.9938
N6440 X5.9487 Y2.1646 Z.9917
N6450 X5.924 Y2.1315 Z.9895
N6460 X5.8966 Y2.1007 Z.9873
N6470 X5.8667 Y2.0723 Z.9852
N6480 X5.8344 Y2.0466 Z.983
N6490 X5.8001 Y2.0238 Z.9809
N6500 X5.7639 Y2.0039 Z.9787
N6510 X5.5952 Y2.345
N6520 G3 X5.4595 Y2.4807 I-.1357 J0.
N6530 X5.3238 Y2.345 I0. J-.1357
N6540 X5.6405 Y2.0283 I.3167 J0.
N6550 X5.9571 Y2.345 I0. J.3167
N6560 X5.4595 Y2.8426 I-.4976 J0.
N6570 X4.962 Y2.345 I0. J-.4976
N6580 X5.5611 Y1.6711 I.6785 J0.
N6590 X6.224 Y2.345 I-.0111 J.6739
N6600 X5.55 Y3.0189 I-.674 J0.
N6610 X4.8761 Y2.345 I0. J-.6739
N6620 X5.55 Y1.6711 I.6739 J0.
N6630 G1 X5.5611
N6640 Z1.5217
N6650 G0 X5.9902 Y2.634
N6660 G1 Z1.0787
N6670 X6.003 Y2.6026 Z1.0769
N6680 X6.0136 Y2.5703 Z1.0751
N6690 X6.0218 Y2.5374 Z1.0734
N6700 X6.0278 Y2.504 Z1.0716
N6710 X6.0313 Y2.4703 Z1.0698
N6720 X6.0325 Y2.4364 Z1.068
N6730 X6.0307 Y2.3943 Z1.0658
N6740 X6.0252 Y2.3526 Z1.0636
N6750 X6.0161 Y2.3115 Z1.0614
N6760 X6.0034 Y2.2714 Z1.0592
N6770 X5.9873 Y2.2325 Z1.057
N6780 X5.9679 Y2.1951 Z1.0548
N6790 X5.9453 Y2.1596 Z1.0526
N6800 X5.9196 Y2.1262 Z1.0504
N6810 X5.8912 Y2.0952 Z1.0482
N6820 X5.8602 Y2.0668 Z1.0459
N6830 X5.8268 Y2.0411 Z1.0437
N6840 X5.7913 Y2.0185 Z1.0415
N6850 X5.7539 Y1.9991 Z1.0393
N6860 X5.715 Y1.983 Z1.0371
N6870 X5.6749 Y1.9703 Z1.0349
N6880 X5.6338 Y1.9612 Z1.0327
N6890 X5.5921 Y1.9557 Z1.0305
N6900 X5.55 Y1.9539 Z1.0283
N6910 X5.5079 Y1.9557 Z1.0261
N6920 X5.4662 Y1.9612 Z1.0239
N6930 X5.4251 Y1.9703 Z1.0217
N6940 X5.385 Y1.983 Z1.0195
N6950 X5.3461 Y1.9991 Z1.0173
N6960 X5.3087 Y2.0185 Z1.0151
N6970 X5.2732 Y2.0411 Z1.0129
N6980 X5.2398 Y2.0668 Z1.0107
N6990 X5.2088 Y2.0952 Z1.0085
N7000 X5.1804 Y2.1262 Z1.0062
N7010 X5.1547 Y2.1596 Z1.004
N7020 X5.1321 Y2.1951 Z1.0018
N7030 X5.1127 Y2.2325 Z.9996
N7040 X5.0966 Y2.2714 Z.9974
N7050 X5.0839 Y2.3115 Z.9952
N7060 X5.0748 Y2.3526 Z.993
N7070 X5.0693 Y2.3943 Z.9908
N7080 X5.0675 Y2.4364 Z.9886
N7090 X5.0693 Y2.4785 Z.9864
N7100 X5.0748 Y2.5202 Z.9842
N7110 X5.0839 Y2.5613 Z.982
N7120 X5.0966 Y2.6014 Z.9798
N7130 X5.1127 Y2.6403 Z.9776
N7140 X5.1321 Y2.6777 Z.9754
N7150 X5.1547 Y2.7132 Z.9732
N7160 X5.1804 Y2.7466 Z.971
N7170 X5.2088 Y2.7776 Z.9688
N7180 X5.2398 Y2.806 Z.9665
N7190 X5.2732 Y2.8317 Z.9643
N7200 X5.3087 Y2.8543 Z.9621
N7210 X5.3461 Y2.8737 Z.9599
N7220 X5.385 Y2.8898 Z.9577
N7230 X5.4251 Y2.9025 Z.9555
N7240 X5.4662 Y2.9116 Z.9533
N7250 X5.5079 Y2.9171 Z.9511
N7260 X5.55 Y2.9189 Z.9489
N7270 X5.5896 Y2.9173 Z.9468
N7280 X5.6288 Y2.9124 Z.9447
N7290 X5.6676 Y2.9044 Z.9427
N7300 X5.7056 Y2.8932 Z.9406
N7310 X5.7425 Y2.8789 Z.9385
N7320 X5.7781 Y2.8616 Z.9364
N7330 X5.8122 Y2.8415 Z.9344
N7340 X5.8445 Y2.8186 Z.9323
N7350 X5.8748 Y2.7932 Z.9302
N7360 X5.903 Y2.7654 Z.9281
N7370 X5.9288 Y2.7353 Z.926
N7380 X5.952 Y2.7033 Z.924
N7390 X5.9725 Y2.6694 Z.9219
N7400 X5.9902 Y2.634 Z.9198
N7410 X6.003 Y2.6026 Z.918
N7420 X6.0136 Y2.5703 Z.9162
N7430 X6.0218 Y2.5374 Z.9144
N7440 X6.0278 Y2.504 Z.9127
N7450 X6.0313 Y2.4703 Z.9109
N7460 X6.0325 Y2.4364 Z.9091
N7470 X6.0308 Y2.3952 Z.9069
N7480 X6.0255 Y2.3543 Z.9048
N7490 X6.0167 Y2.314 Z.9026
N7500 X6.0046 Y2.2746 Z.9005
N7510 X5.9891 Y2.2364 Z.8983
N7520 X5.9704 Y2.1996 Z.8961
N7530 X5.9487 Y2.1646 Z.894
N7540 X5.924 Y2.1315 Z.8918
N7550 X5.8966 Y2.1007 Z.8896
N7560 X5.8667 Y2.0723 Z.8875
N7570 X5.8344 Y2.0466 Z.8853
N7580 X5.8001 Y2.0238 Z.8832
N7590 X5.7639 Y2.0039 Z.881
N7600 X5.5952 Y2.345
N7610 G3 X5.4595 Y2.4807 I-.1357 J0.
N7620 X5.3238 Y2.345 I0. J-.1357
N7630 X5.6405 Y2.0283 I.3167 J0.
N7640 X5.9571 Y2.345 I0. J.3167
N7650 X5.4595 Y2.8426 I-.4976 J0.
N7660 X4.962 Y2.345 I0. J-.4976
N7670 X5.5611 Y1.6711 I.6785 J0.
N7680 X6.224 Y2.345 I-.0111 J.6739
N7690 X5.55 Y3.0189 I-.674 J0.
N7700 X4.8761 Y2.345 I0. J-.6739
N7710 X5.55 Y1.6711 I.6739 J0.
N7720 G1 X5.5611
N7730 Z1.5217
N7740 G0 X5.9902 Y2.634
N7750 G1 Z.981
N7760 X6.003 Y2.6026 Z.9792
N7770 X6.0136 Y2.5703 Z.9774
N7780 X6.0218 Y2.5374 Z.9757
N7790 X6.0278 Y2.504 Z.9739
N7800 X6.0313 Y2.4703 Z.9721
N7810 X6.0325 Y2.4364 Z.9703
N7820 X6.0307 Y2.3943 Z.9681
N7830 X6.0252 Y2.3526 Z.9659
N7840 X6.0161 Y2.3115 Z.9637
N7850 X6.0034 Y2.2714 Z.9615
N7860 X5.9873 Y2.2325 Z.9593
N7870 X5.9679 Y2.1951 Z.9571
N7880 X5.9453 Y2.1596 Z.9549
N7890 X5.9196 Y2.1262 Z.9527
N7900 X5.8912 Y2.0952 Z.9505
N7910 X5.8602 Y2.0668 Z.9482
N7920 X5.8268 Y2.0411 Z.946
N7930 X5.7913 Y2.0185 Z.9438
N7940 X5.7539 Y1.9991 Z.9416
N7950 X5.715 Y1.983 Z.9394
N7960 X5.6749 Y1.9703 Z.9372
N7970 X5.6338 Y1.9612 Z.935
N7980 X5.5921 Y1.9557 Z.9328
N7990 X5.55 Y1.9539 Z.9306
N8000 X5.5079 Y1.9557 Z.9284
N8010 X5.4662 Y1.9612 Z.9262
N8020 X5.4251 Y1.9703 Z.924
N8030 X5.385 Y1.983 Z.9218
N8040 X5.3461 Y1.9991 Z.9196
N8050 X5.3087 Y2.0185 Z.9174
N8060 X5.2732 Y2.0411 Z.9152
N8070 X5.2398 Y2.0668 Z.913
N8080 X5.2088 Y2.0952 Z.9107
N8090 X5.1804 Y2.1262 Z.9085
N8100 X5.1547 Y2.1596 Z.9063
N8110 X5.1321 Y2.1951 Z.9041
N8120 X5.1127 Y2.2325 Z.9019
N8130 X5.0966 Y2.2714 Z.8997
N8140 X5.0839 Y2.3115 Z.8975
N8150 X5.0748 Y2.3526 Z.8953
N8160 X5.0693 Y2.3943 Z.8931
N8170 X5.0675 Y2.4364 Z.8909
N8180 X5.0693 Y2.4785 Z.8887
N8190 X5.0748 Y2.5202 Z.8865
N8200 X5.0839 Y2.5613 Z.8843
N8210 X5.0966 Y2.6014 Z.8821
N8220 X5.1127 Y2.6403 Z.8799
N8230 X5.1321 Y2.6777 Z.8777
N8240 X5.1547 Y2.7132 Z.8755
N8250 X5.1804 Y2.7466 Z.8733
N8260 X5.2088 Y2.7776 Z.871
N8270 X5.2398 Y2.806 Z.8688
N8280 X5.2732 Y2.8317 Z.8666
N8290 X5.3087 Y2.8543 Z.8644
N8300 X5.3461 Y2.8737 Z.8622
N8310 X5.385 Y2.8898 Z.86
N8320 X5.4251 Y2.9025 Z.8578
N8330 X5.4662 Y2.9116 Z.8556
N8340 X5.5079 Y2.9171 Z.8534
N8350 X5.55 Y2.9189 Z.8512
N8360 X5.5896 Y2.9173 Z.8491
N8370 X5.6288 Y2.9124 Z.8471
N8380 X5.6676 Y2.9044 Z.845
N8390 X5.7056 Y2.8932 Z.8429
N8400 X5.7425 Y2.8789 Z.8408
N8410 X5.7781 Y2.8616 Z.8388
N8420 X5.8122 Y2.8415 Z.8367
N8430 X5.8445 Y2.8186 Z.8346
N8440 X5.8748 Y2.7932 Z.8326
N8450 X5.903 Y2.7654 Z.8305
N8460 X5.9288 Y2.7353 Z.8284
N8470 X5.952 Y2.7033 Z.8263
N8480 X5.9725 Y2.6694 Z.8243
N8490 X5.9902 Y2.634 Z.8222
N8500 X6.003 Y2.6026 Z.8204
N8510 X6.0136 Y2.5703 Z.8186
N8520 X6.0218 Y2.5374 Z.8169
N8530 X6.0278 Y2.504 Z.8151
N8540 X6.0313 Y2.4703 Z.8133
N8550 X6.0325 Y2.4364 Z.8115
N8560 X6.0308 Y2.3952 Z.8093
N8570 X6.0255 Y2.3543 Z.8072
N8580 X6.0167 Y2.314 Z.805
N8590 X6.0046 Y2.2746 Z.8029
N8600 X5.9891 Y2.2364 Z.8007
N8610 X5.9704 Y2.1996 Z.7985
N8620 X5.9487 Y2.1646 Z.7964
N8630 X5.924 Y2.1315 Z.7942
N8640 X5.8966 Y2.1007 Z.792
N8650 X5.8667 Y2.0723 Z.7899
N8660 X5.8344 Y2.0466 Z.7877
N8670 X5.8001 Y2.0238 Z.7856
N8680 X5.7639 Y2.0039 Z.7834
N8690 X5.5952 Y2.345
N8700 G3 X5.4595 Y2.4807 I-.1357 J0.
N8710 X5.3238 Y2.345 I0. J-.1357
N8720 X5.6405 Y2.0283 I.3167 J0.
N8730 X5.9571 Y2.345 I0. J.3167
N8740 X5.4595 Y2.8426 I-.4976 J0.
N8750 X4.962 Y2.345 I0. J-.4976
N8760 X5.5611 Y1.6711 I.6785 J0.
N8770 X6.224 Y2.345 I-.0111 J.6739
N8780 X5.55 Y3.0189 I-.674 J0.
N8790 X4.8761 Y2.345 I0. J-.6739
N8800 X5.55 Y1.6711 I.6739 J0.
N8810 G1 X5.5611
N8820 Z1.5217
N8830 G0 X5.9902 Y2.634
N8840 G1 Z.8834
N8850 X6.003 Y2.6026 Z.8816
N8860 X6.0136 Y2.5703 Z.8798
N8870 X6.0218 Y2.5374 Z.8781
N8880 X6.0278 Y2.504 Z.8763
N8890 X6.0313 Y2.4703 Z.8745
N8900 X6.0325 Y2.4364 Z.8727
N8910 X6.0307 Y2.3943 Z.8705
N8920 X6.0252 Y2.3526 Z.8683
N8930 X6.0161 Y2.3115 Z.8661
N8940 X6.0034 Y2.2714 Z.8639
N8950 X5.9873 Y2.2325 Z.8617
N8960 X5.9679 Y2.1951 Z.8595
N8970 X5.9453 Y2.1596 Z.8573
N8980 X5.9196 Y2.1262 Z.8551
N8990 X5.8912 Y2.0952 Z.8529
N9000 X5.8602 Y2.0668 Z.8506
N9010 X5.8268 Y2.0411 Z.8484
N9020 X5.7913 Y2.0185 Z.8462
N9030 X5.7539 Y1.9991 Z.844
N9040 X5.715 Y1.983 Z.8418
N9050 X5.6749 Y1.9703 Z.8396
N9060 X5.6338 Y1.9612 Z.8374
N9070 X5.5921 Y1.9557 Z.8352
N9080 X5.55 Y1.9539 Z.833
N9090 X5.5079 Y1.9557 Z.8308
N9100 X5.4662 Y1.9612 Z.8286
N9110 X5.4251 Y1.9703 Z.8264
N9120 X5.385 Y1.983 Z.8242
N9130 X5.3461 Y1.9991 Z.822
N9140 X5.3087 Y2.0185 Z.8198
N9150 X5.2732 Y2.0411 Z.8176
N9160 X5.2398 Y2.0668 Z.8154
N9170 X5.2088 Y2.0952 Z.8132
N9180 X5.1804 Y2.1262 Z.8109
N9190 X5.1547 Y2.1596 Z.8087
N9200 X5.1321 Y2.1951 Z.8065
N9210 X5.1127 Y2.2325 Z.8043
N9220 X5.0966 Y2.2714 Z.8021
N9230 X5.0839 Y2.3115 Z.7999
N9240 X5.0748 Y2.3526 Z.7977
N9250 X5.0693 Y2.3943 Z.7955
N9260 X5.0675 Y2.4364 Z.7933
N9270 X5.0693 Y2.4785 Z.7911
N9280 X5.0748 Y2.5202 Z.7889
N9290 X5.0839 Y2.5613 Z.7867
N9300 X5.0966 Y2.6014 Z.7845
N9310 X5.1127 Y2.6403 Z.7823
N9320 X5.1321 Y2.6777 Z.7801
N9330 X5.1547 Y2.7132 Z.7779
N9340 X5.1804 Y2.7466 Z.7757
N9350 X5.2088 Y2.7776 Z.7734
N9360 X5.2398 Y2.806 Z.7712
N9370 X5.2732 Y2.8317 Z.769
N9380 X5.3087 Y2.8543 Z.7668
N9390 X5.3461 Y2.8737 Z.7646
N9400 X5.385 Y2.8898 Z.7624
N9410 X5.4251 Y2.9025 Z.7602
N9420 X5.4662 Y2.9116 Z.758
N9430 X5.5079 Y2.9171 Z.7558
N9440 X5.55 Y2.9189 Z.7536
N9450 X5.5896 Y2.9173 Z.7515
N9460 X5.6288 Y2.9124 Z.7494
N9470 X5.6676 Y2.9044 Z.7474
N9480 X5.7056 Y2.8932 Z.7453
N9490 X5.7425 Y2.8789 Z.7432
N9500 X5.7781 Y2.8616 Z.7411
N9510 X5.8122 Y2.8415 Z.739
N9520 X5.8445 Y2.8186 Z.737
N9530 X5.8748 Y2.7932 Z.7349
N9540 X5.903 Y2.7654 Z.7328
N9550 X5.9288 Y2.7353 Z.7307
N9560 X5.952 Y2.7033 Z.7287
N9570 X5.9725 Y2.6694 Z.7266
N9580 X5.9902 Y2.634 Z.7245
N9590 X6.003 Y2.6026 Z.7227
N9600 X6.0136 Y2.5703 Z.7209
N9610 X6.0218 Y2.5374 Z.7191
N9620 X6.0278 Y2.504 Z.7174
N9630 X6.0313 Y2.4703 Z.7156
N9640 X6.0325 Y2.4364 Z.7138
N9650 X6.0308 Y2.3952 Z.7116
N9660 X6.0255 Y2.3543 Z.7095
N9670 X6.0167 Y2.314 Z.7073
N9680 X6.0046 Y2.2746 Z.7052
N9690 X5.9891 Y2.2364 Z.703
N9700 X5.9704 Y2.1996 Z.7008
N9710 X5.9487 Y2.1646 Z.6987
N9720 X5.924 Y2.1315 Z.6965
N9730 X5.8966 Y2.1007 Z.6943
N9740 X5.8667 Y2.0723 Z.6922
N9750 X5.8344 Y2.0466 Z.69
N9760 X5.8001 Y2.0238 Z.6879
N9770 X5.7639 Y2.0039 Z.6857
N9780 X5.5952 Y2.345
N9790 G3 X5.4595 Y2.4807 I-.1357 J0.
N9800 X5.3238 Y2.345 I0. J-.1357
N9810 X5.6405 Y2.0283 I.3167 J0.
N9820 X5.9571 Y2.345 I0. J.3167
N9830 X5.4595 Y2.8426 I-.4976 J0.
N9840 X4.962 Y2.345 I0. J-.4976
N9850 X5.5611 Y1.6711 I.6785 J0.
N9860 X6.224 Y2.345 I-.0111 J.6739
N9870 X5.55 Y3.0189 I-.674 J0.
N9880 X4.8761 Y2.345 I0. J-.6739
N9890 X5.55 Y1.6711 I.6739 J0.
N9900 G1 X5.5611
N9910 Z1.5217
N9920 G0 X5.9902 Y2.634
N9930 G1 Z.7857
N9940 X6.003 Y2.6026 Z.7839
N9950 X6.0136 Y2.5703 Z.7821
N9960 X6.0218 Y2.5374 Z.7803
N9970 X6.0278 Y2.504 Z.7786
N9980 X6.0313 Y2.4703 Z.7768
N9990 X6.0325 Y2.4364 Z.775
N100 X6.0307 Y2.3943 Z.7728
N110 X6.0252 Y2.3526 Z.7706
N120 X6.0161 Y2.3115 Z.7684
N130 X6.0034 Y2.2714 Z.7662
N140 X5.9873 Y2.2325 Z.764
N150 X5.9679 Y2.1951 Z.7618
N160 X5.9453 Y2.1596 Z.7596
N170 X5.9196 Y2.1262 Z.7574
N180 X5.8912 Y2.0952 Z.7551
N190 X5.8602 Y2.0668 Z.7529
N200 X5.8268 Y2.0411 Z.7507
N210 X5.7913 Y2.0185 Z.7485
N220 X5.7539 Y1.9991 Z.7463
N230 X5.715 Y1.983 Z.7441
N240 X5.6749 Y1.9703 Z.7419
N250 X5.6338 Y1.9612 Z.7397
N260 X5.5921 Y1.9557 Z.7375
N270 X5.55 Y1.9539 Z.7353
N280 X5.5079 Y1.9557 Z.7331
N290 X5.4662 Y1.9612 Z.7309
N300 X5.4251 Y1.9703 Z.7287
N310 X5.385 Y1.983 Z.7265
N320 X5.3461 Y1.9991 Z.7243
N330 X5.3087 Y2.0185 Z.7221
N340 X5.2732 Y2.0411 Z.7199
N350 X5.2398 Y2.0668 Z.7177
N360 X5.2088 Y2.0952 Z.7154
N370 X5.1804 Y2.1262 Z.7132
N380 X5.1547 Y2.1596 Z.711
N390 X5.1321 Y2.1951 Z.7088
N400 X5.1127 Y2.2325 Z.7066
N410 X5.0966 Y2.2714 Z.7044
N420 X5.0839 Y2.3115 Z.7022
N430 X5.0748 Y2.3526 Z.7
N440 X5.0693 Y2.3943 Z.6978
N450 X5.0675 Y2.4364 Z.6956
N460 X5.0693 Y2.4785 Z.6934
N470 X5.0748 Y2.5202 Z.6912
N480 X5.0839 Y2.5613 Z.689
N490 X5.0966 Y2.6014 Z.6868
N500 X5.1127 Y2.6403 Z.6846
N510 X5.1321 Y2.6777 Z.6824
N520 X5.1547 Y2.7132 Z.6802
N530 X5.1804 Y2.7466 Z.678
N540 X5.2088 Y2.7776 Z.6758
N550 X5.2398 Y2.806 Z.6735
N560 X5.2732 Y2.8317 Z.6713
N570 X5.3087 Y2.8543 Z.6691
N580 X5.3461 Y2.8737 Z.6669
N590 X5.385 Y2.8898 Z.6647
N600 X5.4251 Y2.9025 Z.6625
N610 X5.4662 Y2.9116 Z.6603
N620 X5.5079 Y2.9171 Z.6581
N630 X5.55 Y2.9189 Z.6559
N640 X5.5896 Y2.9173 Z.6538
N650 X5.6288 Y2.9124 Z.6518
N660 X5.6676 Y2.9044 Z.6497
N670 X5.7056 Y2.8932 Z.6476
N680 X5.7425 Y2.8789 Z.6455
N690 X5.7781 Y2.8616 Z.6435
N700 X5.8122 Y2.8415 Z.6414
N710 X5.8445 Y2.8186 Z.6393
N720 X5.8748 Y2.7932 Z.6373
N730 X5.903 Y2.7654 Z.6352
N740 X5.9288 Y2.7353 Z.6331
N750 X5.952 Y2.7033 Z.631
N760 X5.9725 Y2.6694 Z.629
N770 X5.9902 Y2.634 Z.6269
N780 X6.003 Y2.6026 Z.6251
N790 X6.0136 Y2.5703 Z.6233
N800 X6.0218 Y2.5374 Z.6216
N810 X6.0278 Y2.504 Z.6198
N820 X6.0313 Y2.4703 Z.618
N830 X6.0325 Y2.4364 Z.6162
N840 X6.0308 Y2.3952 Z.614
N850 X6.0255 Y2.3543 Z.6119
N860 X6.0167 Y2.314 Z.6097
N870 X6.0046 Y2.2746 Z.6076
N880 X5.9891 Y2.2364 Z.6054
N890 X5.9704 Y2.1996 Z.6032
N900 X5.9487 Y2.1646 Z.6011
N910 X5.924 Y2.1315 Z.5989
N920 X5.8966 Y2.1007 Z.5967
N930 X5.8667 Y2.0723 Z.5946
N940 X5.8344 Y2.0466 Z.5924
N950 X5.8001 Y2.0238 Z.5903
N960 X5.7639 Y2.0039 Z.5881
N970 X5.5952 Y2.345
N980 G3 X5.4595 Y2.4807 I-.1357 J0.
N990 X5.3238 Y2.345 I0. J-.1357
N1000 X5.6405 Y2.0283 I.3167 J0.
N1010 X5.9571 Y2.345 I0. J.3167
N1020 X5.4595 Y2.8426 I-.4976 J0.
N1030 X4.962 Y2.345 I0. J-.4976
N1040 X5.5611 Y1.6711 I.6785 J0.
N1050 X6.224 Y2.345 I-.0111 J.6739
N1060 X5.55 Y3.0189 I-.674 J0.
N1070 X4.8761 Y2.345 I0. J-.6739
N1080 X5.55 Y1.6711 I.6739 J0.
N1090 G1 X5.5611
N1100 Z1.5217
N1110 G0 X5.9902 Y2.634
N1120 G1 Z.6881
N1130 X6.003 Y2.6026 Z.6863
N1140 X6.0136 Y2.5703 Z.6845
N1150 X6.0218 Y2.5374 Z.6827
N1160 X6.0278 Y2.504 Z.681
N1170 X6.0313 Y2.4703 Z.6792
N1180 X6.0325 Y2.4364 Z.6774
N1190 X6.0307 Y2.3943 Z.6752
N1200 X6.0252 Y2.3526 Z.673
N1210 X6.0161 Y2.3115 Z.6708
N1220 X6.0034 Y2.2714 Z.6686
N1230 X5.9873 Y2.2325 Z.6664
N1240 X5.9679 Y2.1951 Z.6642
N1250 X5.9453 Y2.1596 Z.662
N1260 X5.9196 Y2.1262 Z.6598
N1270 X5.8912 Y2.0952 Z.6576
N1280 X5.8602 Y2.0668 Z.6553
N1290 X5.8268 Y2.0411 Z.6531
N1300 X5.7913 Y2.0185 Z.6509
N1310 X5.7539 Y1.9991 Z.6487
N1320 X5.715 Y1.983 Z.6465
N1330 X5.6749 Y1.9703 Z.6443
N1340 X5.6338 Y1.9612 Z.6421
N1350 X5.5921 Y1.9557 Z.6399
N1360 X5.55 Y1.9539 Z.6377
N1370 X5.5079 Y1.9557 Z.6355
N1380 X5.4662 Y1.9612 Z.6333
N1390 X5.4251 Y1.9703 Z.6311
N1400 X5.385 Y1.983 Z.6289
N1410 X5.3461 Y1.9991 Z.6267
N1420 X5.3087 Y2.0185 Z.6245
N1430 X5.2732 Y2.0411 Z.6223
N1440 X5.2398 Y2.0668 Z.6201
N1450 X5.2088 Y2.0952 Z.6179
N1460 X5.1804 Y2.1262 Z.6156
N1470 X5.1547 Y2.1596 Z.6134
N1480 X5.1321 Y2.1951 Z.6112
N1490 X5.1127 Y2.2325 Z.609
N1500 X5.0966 Y2.2714 Z.6068
N1510 X5.0839 Y2.3115 Z.6046
N1520 X5.0748 Y2.3526 Z.6024
N1530 X5.0693 Y2.3943 Z.6002
N1540 X5.0675 Y2.4364 Z.598
N1550 X5.0693 Y2.4785 Z.5958
N1560 X5.0748 Y2.5202 Z.5936
N1570 X5.0839 Y2.5613 Z.5914
N1580 X5.0966 Y2.6014 Z.5892
N1590 X5.1127 Y2.6403 Z.587
N1600 X5.1321 Y2.6777 Z.5848
N1610 X5.1547 Y2.7132 Z.5826
N1620 X5.1804 Y2.7466 Z.5804
N1630 X5.2088 Y2.7776 Z.5781
N1640 X5.2398 Y2.806 Z.5759
N1650 X5.2732 Y2.8317 Z.5737
N1660 X5.3087 Y2.8543 Z.5715
N1670 X5.3461 Y2.8737 Z.5693
N1680 X5.385 Y2.8898 Z.5671
N1690 X5.4251 Y2.9025 Z.5649
N1700 X5.4662 Y2.9116 Z.5627
N1710 X5.5079 Y2.9171 Z.5605
N1720 X5.55 Y2.9189 Z.5583
N1730 X5.5896 Y2.9173 Z.5562
N1740 X5.6288 Y2.9124 Z.5541
N1750 X5.6676 Y2.9044 Z.5521
N1760 X5.7056 Y2.8932 Z.55
N1770 X5.7425 Y2.8789 Z.5479
N1780 X5.7781 Y2.8616 Z.5458
N1790 X5.8122 Y2.8415 Z.5437
N1800 X5.8445 Y2.8186 Z.5417
N1810 X5.8748 Y2.7932 Z.5396
N1820 X5.903 Y2.7654 Z.5375
N1830 X5.9288 Y2.7353 Z.5354
N1840 X5.952 Y2.7033 Z.5334
N1850 X5.9725 Y2.6694 Z.5313
N1860 X5.9902 Y2.634 Z.5292
N1870 X6.003 Y2.6026 Z.5274
N1880 X6.0136 Y2.5703 Z.5256
N1890 X6.0218 Y2.5374 Z.5238
N1900 X6.0278 Y2.504 Z.5221
N1910 X6.0313 Y2.4703 Z.5203
N1920 X6.0325 Y2.4364 Z.5185
N1930 X6.0308 Y2.3952 Z.5163
N1940 X6.0255 Y2.3543 Z.5142
N1950 X6.0167 Y2.314 Z.512
N1960 X6.0046 Y2.2746 Z.5099
N1970 X5.9891 Y2.2364 Z.5077
N1980 X5.9704 Y2.1996 Z.5055
N1990 X5.9487 Y2.1646 Z.5034
N2000 X5.924 Y2.1315 Z.5012
N2010 X5.8966 Y2.1007 Z.499
N2020 X5.8667 Y2.0723 Z.4969
N2030 X5.8344 Y2.0466 Z.4947
N2040 X5.8001 Y2.0238 Z.4926
N2050 X5.7639 Y2.0039 Z.4904
N2060 X5.5952 Y2.345
N2070 G3 X5.4595 Y2.4807 I-.1357 J0.
N2080 X5.3238 Y2.345 I0. J-.1357
N2090 X5.6405 Y2.0283 I.3167 J0.
N2100 X5.9571 Y2.345 I0. J.3167
N2110 X5.4595 Y2.8426 I-.4976 J0.
N2120 X4.962 Y2.345 I0. J-.4976
N2130 X5.5611 Y1.6711 I.6785 J0.
N2140 X6.224 Y2.345 I-.0111 J.6739
N2150 X5.55 Y3.0189 I-.674 J0.
N2160 X4.8761 Y2.345 I0. J-.6739
N2170 X5.55 Y1.6711 I.6739 J0.
N2180 G1 X5.5611
N2190 Z1.5217
N2200 G0 X5.9902 Y2.634
N2210 G1 Z.5904
N2220 X6.003 Y2.6026 Z.5886
N2230 X6.0136 Y2.5703 Z.5868
N2240 X6.0218 Y2.5374 Z.5851
N2250 X6.0278 Y2.504 Z.5833
N2260 X6.0313 Y2.4703 Z.5815
N2270 X6.0325 Y2.4364 Z.5797
N2280 X6.0307 Y2.3943 Z.5775
N2290 X6.0252 Y2.3526 Z.5753
N2300 X6.0161 Y2.3115 Z.5731
N2310 X6.0034 Y2.2714 Z.5709
N2320 X5.9873 Y2.2325 Z.5687
N2330 X5.9679 Y2.1951 Z.5665
N2340 X5.9453 Y2.1596 Z.5643
N2350 X5.9196 Y2.1262 Z.5621
N2360 X5.8912 Y2.0952 Z.5598
N2370 X5.8602 Y2.0668 Z.5576
N2380 X5.8268 Y2.0411 Z.5554
N2390 X5.7913 Y2.0185 Z.5532
N2400 X5.7539 Y1.9991 Z.551
N2410 X5.715 Y1.983 Z.5488
N2420 X5.6749 Y1.9703 Z.5466
N2430 X5.6338 Y1.9612 Z.5444
N2440 X5.5921 Y1.9557 Z.5422
N2450 X5.55 Y1.9539 Z.54
N2460 X5.5079 Y1.9557 Z.5378
N2470 X5.4662 Y1.9612 Z.5356
N2480 X5.4251 Y1.9703 Z.5334
N2490 X5.385 Y1.983 Z.5312
N2500 X5.3461 Y1.9991 Z.529
N2510 X5.3087 Y2.0185 Z.5268
N2520 X5.2732 Y2.0411 Z.5246
N2530 X5.2398 Y2.0668 Z.5224
N2540 X5.2088 Y2.0952 Z.5202
N2550 X5.1804 Y2.1262 Z.5179
N2560 X5.1547 Y2.1596 Z.5157
N2570 X5.1321 Y2.1951 Z.5135
N2580 X5.1127 Y2.2325 Z.5113
N2590 X5.0966 Y2.2714 Z.5091
N2600 X5.0839 Y2.3115 Z.5069
N2610 X5.0748 Y2.3526 Z.5047
N2620 X5.0693 Y2.3943 Z.5025
N2630 X5.0675 Y2.4364 Z.5003
N2640 X5.0693 Y2.4785 Z.4981
N2650 X5.0748 Y2.5202 Z.4959
N2660 X5.0839 Y2.5613 Z.4937
N2670 X5.0966 Y2.6014 Z.4915
N2680 X5.1127 Y2.6403 Z.4893
N2690 X5.1321 Y2.6777 Z.4871
N2700 X5.1547 Y2.7132 Z.4849
N2710 X5.1804 Y2.7466 Z.4827
N2720 X5.2088 Y2.7776 Z.4804
N2730 X5.2398 Y2.806 Z.4782
N2740 X5.2732 Y2.8317 Z.476
N2750 X5.3087 Y2.8543 Z.4738
N2760 X5.3461 Y2.8737 Z.4716
N2770 X5.385 Y2.8898 Z.4694
N2780 X5.4251 Y2.9025 Z.4672
N2790 X5.4662 Y2.9116 Z.465
N2800 X5.5079 Y2.9171 Z.4628
N2810 X5.55 Y2.9189 Z.4606
N2820 X5.5896 Y2.9173 Z.4585
N2830 X5.6288 Y2.9124 Z.4565
N2840 X5.6676 Y2.9044 Z.4544
N2850 X5.7056 Y2.8932 Z.4523
N2860 X5.7425 Y2.8789 Z.4502
N2870 X5.7781 Y2.8616 Z.4482
N2880 X5.8122 Y2.8415 Z.4461
N2890 X5.8445 Y2.8186 Z.444
N2900 X5.8748 Y2.7932 Z.442
N2910 X5.903 Y2.7654 Z.4399
N2920 X5.9288 Y2.7353 Z.4378
N2930 X5.952 Y2.7033 Z.4357
N2940 X5.9725 Y2.6694 Z.4337
N2950 X5.9902 Y2.634 Z.4316
N2960 X6.003 Y2.6026 Z.4298
N2970 X6.0136 Y2.5703 Z.428
N2980 X6.0218 Y2.5374 Z.4263
N2990 X6.0278 Y2.504 Z.4245
N3000 X6.0313 Y2.4703 Z.4227
N3010 X6.0325 Y2.4364 Z.4209
N3020 X6.0308 Y2.3952 Z.4187
N3030 X6.0255 Y2.3543 Z.4166
N3040 X6.0167 Y2.314 Z.4144
N3050 X6.0046 Y2.2746 Z.4123
N3060 X5.9891 Y2.2364 Z.4101
N3070 X5.9704 Y2.1996 Z.4079
N3080 X5.9487 Y2.1646 Z.4058
N3090 X5.924 Y2.1315 Z.4036
N3100 X5.8966 Y2.1007 Z.4014
N3110 X5.8667 Y2.0723 Z.3993
N3120 X5.8344 Y2.0466 Z.3971
N3130 X5.8001 Y2.0238 Z.395
N3140 X5.7639 Y2.0039 Z.3928
N3150 X5.5952 Y2.345
N3160 G3 X5.4595 Y2.4807 I-.1357 J0.
N3170 X5.3238 Y2.345 I0. J-.1357
N3180 X5.6405 Y2.0283 I.3167 J0.
N3190 X5.9571 Y2.345 I0. J.3167
N3200 X5.4595 Y2.8426 I-.4976 J0.
N3210 X4.962 Y2.345 I0. J-.4976
N3220 X5.5611 Y1.6711 I.6785 J0.
N3230 X6.224 Y2.345 I-.0111 J.6739
N3240 X5.55 Y3.0189 I-.674 J0.
N3250 X4.8761 Y2.345 I0. J-.6739
N3260 X5.55 Y1.6711 I.6739 J0.
N3270 G1 X5.5611
N3280 Z1.5217
N3290 G0 X5.9902 Y2.634
N3300 G1 Z.4928
N3310 X6.003 Y2.6026 Z.491
N3320 X6.0136 Y2.5703 Z.4892
N3330 X6.0218 Y2.5374 Z.4874
N3340 X6.0278 Y2.504 Z.4857
N3350 X6.0313 Y2.4703 Z.4839
N3360 X6.0325 Y2.4364 Z.4821
N3370 X6.0307 Y2.3943 Z.4799
N3380 X6.0252 Y2.3526 Z.4777
N3390 X6.0161 Y2.3115 Z.4755
N3400 X6.0034 Y2.2714 Z.4733
N3410 X5.9873 Y2.2325 Z.4711
N3420 X5.9679 Y2.1951 Z.4689
N3430 X5.9453 Y2.1596 Z.4667
N3440 X5.9196 Y2.1262 Z.4645
N3450 X5.8912 Y2.0952 Z.4622
N3460 X5.8602 Y2.0668 Z.46
N3470 X5.8268 Y2.0411 Z.4578
N3480 X5.7913 Y2.0185 Z.4556
N3490 X5.7539 Y1.9991 Z.4534
N3500 X5.715 Y1.983 Z.4512
N3510 X5.6749 Y1.9703 Z.449
N3520 X5.6338 Y1.9612 Z.4468
N3530 X5.5921 Y1.9557 Z.4446
N3540 X5.55 Y1.9539 Z.4424
N3550 X5.5079 Y1.9557 Z.4402
N3560 X5.4662 Y1.9612 Z.438
N3570 X5.4251 Y1.9703 Z.4358
N3580 X5.385 Y1.983 Z.4336
N3590 X5.3461 Y1.9991 Z.4314
N3600 X5.3087 Y2.0185 Z.4292
N3610 X5.2732 Y2.0411 Z.427
N3620 X5.2398 Y2.0668 Z.4248
N3630 X5.2088 Y2.0952 Z.4225
N3640 X5.1804 Y2.1262 Z.4203
N3650 X5.1547 Y2.1596 Z.4181
N3660 X5.1321 Y2.1951 Z.4159
N3670 X5.1127 Y2.2325 Z.4137
N3680 X5.0966 Y2.2714 Z.4115
N3690 X5.0839 Y2.3115 Z.4093
N3700 X5.0748 Y2.3526 Z.4071
N3710 X5.0693 Y2.3943 Z.4049
N3720 X5.0675 Y2.4364 Z.4027
N3730 X5.0693 Y2.4785 Z.4005
N3740 X5.0748 Y2.5202 Z.3983
N3750 X5.0839 Y2.5613 Z.3961
N3760 X5.0966 Y2.6014 Z.3939
N3770 X5.1127 Y2.6403 Z.3917
N3780 X5.1321 Y2.6777 Z.3895
N3790 X5.1547 Y2.7132 Z.3873
N3800 X5.1804 Y2.7466 Z.3851
N3810 X5.2088 Y2.7776 Z.3829
N3820 X5.2398 Y2.806 Z.3806
N3830 X5.2732 Y2.8317 Z.3784
N3840 X5.3087 Y2.8543 Z.3762
N3850 X5.3461 Y2.8737 Z.374
N3860 X5.385 Y2.8898 Z.3718
N3870 X5.4251 Y2.9025 Z.3696
N3880 X5.4662 Y2.9116 Z.3674
N3890 X5.5079 Y2.9171 Z.3652
N3900 X5.55 Y2.9189 Z.363
N3910 X5.5896 Y2.9173 Z.3609
N3920 X5.6288 Y2.9124 Z.3588
N3930 X5.6676 Y2.9044 Z.3568
N3940 X5.7056 Y2.8932 Z.3547
N3950 X5.7425 Y2.8789 Z.3526
N3960 X5.7781 Y2.8616 Z.3505
N3970 X5.8122 Y2.8415 Z.3484
N3980 X5.8445 Y2.8186 Z.3464
N3990 X5.8748 Y2.7932 Z.3443
N4000 X5.903 Y2.7654 Z.3422
N4010 X5.9288 Y2.7353 Z.3401
N4020 X5.952 Y2.7033 Z.3381
N4030 X5.9725 Y2.6694 Z.336
N4040 X5.9902 Y2.634 Z.3339
N4050 X6.003 Y2.6026 Z.3321
N4060 X6.0136 Y2.5703 Z.3303
N4070 X6.0218 Y2.5374 Z.3286
N4080 X6.0278 Y2.504 Z.3268
N4090 X6.0313 Y2.4703 Z.325
N4100 X6.0325 Y2.4364 Z.3232
N4110 X6.0308 Y2.3952 Z.321
N4120 X6.0255 Y2.3543 Z.3189
N4130 X6.0167 Y2.314 Z.3167
N4140 X6.0046 Y2.2746 Z.3146
N4150 X5.9891 Y2.2364 Z.3124
N4160 X5.9704 Y2.1996 Z.3102
N4170 X5.9487 Y2.1646 Z.3081
N4180 X5.924 Y2.1315 Z.3059
N4190 X5.8966 Y2.1007 Z.3037
N4200 X5.8667 Y2.0723 Z.3016
N4210 X5.8344 Y2.0466 Z.2994
N4220 X5.8001 Y2.0238 Z.2973
N4230 X5.7639 Y2.0039 Z.2951
N4240 X5.5952 Y2.345
N4250 G3 X5.4595 Y2.4807 I-.1357 J0.
N4260 X5.3238 Y2.345 I0. J-.1357
N4270 X5.6405 Y2.0283 I.3167 J0.
N4280 X5.9571 Y2.345 I0. J.3167
N4290 X5.4595 Y2.8426 I-.4976 J0.
N4300 X4.962 Y2.345 I0. J-.4976
N4310 X5.5611 Y1.6711 I.6785 J0.
N4320 X6.224 Y2.345 I-.0111 J.6739
N4330 X5.55 Y3.0189 I-.674 J0.
N4340 X4.8761 Y2.345 I0. J-.6739
N4350 X5.55 Y1.6711 I.6739 J0.
N4360 G1 X5.5611
N4370 Z1.5217
N4380 G0 X5.9902 Y2.634
N4390 G1 Z.3951
N4400 X6.003 Y2.6026 Z.3933
N4410 X6.0136 Y2.5703 Z.3915
N4420 X6.0218 Y2.5374 Z.3898
N4430 X6.0278 Y2.504 Z.388
N4440 X6.0313 Y2.4703 Z.3862
N4450 X6.0325 Y2.4364 Z.3844
N4460 X6.0307 Y2.3943 Z.3822
N4470 X6.0252 Y2.3526 Z.38
N4480 X6.0161 Y2.3115 Z.3778
N4490 X6.0034 Y2.2714 Z.3756
N4500 X5.9873 Y2.2325 Z.3734
N4510 X5.9679 Y2.1951 Z.3712
N4520 X5.9453 Y2.1596 Z.369
N4530 X5.9196 Y2.1262 Z.3668
N4540 X5.8912 Y2.0952 Z.3646
N4550 X5.8602 Y2.0668 Z.3623
N4560 X5.8268 Y2.0411 Z.3601
N4570 X5.7913 Y2.0185 Z.3579
N4580 X5.7539 Y1.9991 Z.3557
N4590 X5.715 Y1.983 Z.3535
N4600 X5.6749 Y1.9703 Z.3513
N4610 X5.6338 Y1.9612 Z.3491
N4620 X5.5921 Y1.9557 Z.3469
N4630 X5.55 Y1.9539 Z.3447
N4640 X5.5079 Y1.9557 Z.3425
N4650 X5.4662 Y1.9612 Z.3403
N4660 X5.4251 Y1.9703 Z.3381
N4670 X5.385 Y1.983 Z.3359
N4680 X5.3461 Y1.9991 Z.3337
N4690 X5.3087 Y2.0185 Z.3315
N4700 X5.2732 Y2.0411 Z.3293
N4710 X5.2398 Y2.0668 Z.3271
N4720 X5.2088 Y2.0952 Z.3248
N4730 X5.1804 Y2.1262 Z.3226
N4740 X5.1547 Y2.1596 Z.3204
N4750 X5.1321 Y2.1951 Z.3182
N4760 X5.1127 Y2.2325 Z.316
N4770 X5.0966 Y2.2714 Z.3138
N4780 X5.0839 Y2.3115 Z.3116
N4790 X5.0748 Y2.3526 Z.3094
N4800 X5.0693 Y2.3943 Z.3072
N4810 X5.0675 Y2.4364 Z.305
N4820 X5.0693 Y2.4785 Z.3028
N4830 X5.0748 Y2.5202 Z.3006
N4840 X5.0839 Y2.5613 Z.2984
N4850 X5.0966 Y2.6014 Z.2962
N4860 X5.1127 Y2.6403 Z.294
N4870 X5.1321 Y2.6777 Z.2918
N4880 X5.1547 Y2.7132 Z.2896
N4890 X5.1804 Y2.7466 Z.2874
N4900 X5.2088 Y2.7776 Z.2852
N4910 X5.2398 Y2.806 Z.2829
N4920 X5.2732 Y2.8317 Z.2807
N4930 X5.3087 Y2.8543 Z.2785
N4940 X5.3461 Y2.8737 Z.2763
N4950 X5.385 Y2.8898 Z.2741
N4960 X5.4251 Y2.9025 Z.2719
N4970 X5.4662 Y2.9116 Z.2697
N4980 X5.5079 Y2.9171 Z.2675
N4990 X5.55 Y2.9189 Z.2653
N5000 X5.5896 Y2.9173 Z.2632
N5010 X5.6288 Y2.9124 Z.2612
N5020 X5.6676 Y2.9044 Z.2591
N5030 X5.7056 Y2.8932 Z.257
N5040 X5.7425 Y2.8789 Z.2549
N5050 X5.7781 Y2.8616 Z.2529
N5060 X5.8122 Y2.8415 Z.2508
N5070 X5.8445 Y2.8186 Z.2487
N5080 X5.8748 Y2.7932 Z.2467
N5090 X5.903 Y2.7654 Z.2446
N5100 X5.9288 Y2.7353 Z.2425
N5110 X5.952 Y2.7033 Z.2404
N5120 X5.9725 Y2.6694 Z.2384
N5130 X5.9902 Y2.634 Z.2363
N5140 X6.003 Y2.6026 Z.2345
N5150 X6.0136 Y2.5703 Z.2327
N5160 X6.0218 Y2.5374 Z.2309
N5170 X6.0278 Y2.504 Z.2292
N5180 X6.0313 Y2.4703 Z.2274
N5190 X6.0325 Y2.4364 Z.2256
N5200 X6.0308 Y2.3952 Z.2234
N5210 X6.0255 Y2.3543 Z.2213
N5220 X6.0167 Y2.314 Z.2191
N5230 X6.0046 Y2.2746 Z.217
N5240 X5.9891 Y2.2364 Z.2148
N5250 X5.9704 Y2.1996 Z.2126
N5260 X5.9487 Y2.1646 Z.2105
N5270 X5.924 Y2.1315 Z.2083
N5280 X5.8966 Y2.1007 Z.2061
N5290 X5.8667 Y2.0723 Z.204
N5300 X5.8344 Y2.0466 Z.2018
N5310 X5.8001 Y2.0238 Z.1997
N5320 X5.7639 Y2.0039 Z.1975
N5330 X5.5952 Y2.345
N5340 G3 X5.4595 Y2.4807 I-.1357 J0.
N5350 X5.3238 Y2.345 I0. J-.1357
N5360 X5.6405 Y2.0283 I.3167 J0.
N5370 X5.9571 Y2.345 I0. J.3167
N5380 X5.4595 Y2.8426 I-.4976 J0.
N5390 X4.962 Y2.345 I0. J-.4976
N5400 X5.5611 Y1.6711 I.6785 J0.
N5410 X6.224 Y2.345 I-.0111 J.6739
N5420 X5.55 Y3.0189 I-.674 J0.
N5430 X4.8761 Y2.345 I0. J-.6739
N5440 X5.55 Y1.6711 I.6739 J0.
N5450 G1 X5.5611
N5460 Z1.5217
N5470 G0 X5.9902 Y2.634
N5480 G1 Z.3751
N5490 X6.003 Y2.6026 Z.3733
N5500 X6.0136 Y2.5703 Z.3715
N5510 X6.0218 Y2.5374 Z.3698
N5520 X6.0278 Y2.504 Z.368
N5530 X6.0313 Y2.4703 Z.3662
N5540 X6.0325 Y2.4364 Z.3644
N5550 X6.0307 Y2.3943 Z.3622
N5560 X6.0252 Y2.3526 Z.36
N5570 X6.0161 Y2.3115 Z.3578
N5580 X6.0034 Y2.2714 Z.3556
N5590 X5.9873 Y2.2325 Z.3534
N5600 X5.9679 Y2.1951 Z.3512
N5610 X5.9453 Y2.1596 Z.349
N5620 X5.9196 Y2.1262 Z.3468
N5630 X5.8912 Y2.0952 Z.3446
N5640 X5.8602 Y2.0668 Z.3423
N5650 X5.8268 Y2.0411 Z.3401
N5660 X5.7913 Y2.0185 Z.3379
N5670 X5.7539 Y1.9991 Z.3357
N5680 X5.715 Y1.983 Z.3335
N5690 X5.6749 Y1.9703 Z.3313
N5700 X5.6338 Y1.9612 Z.3291
N5710 X5.5921 Y1.9557 Z.3269
N5720 X5.55 Y1.9539 Z.3247
N5730 X5.5079 Y1.9557 Z.3225
N5740 X5.4662 Y1.9612 Z.3203
N5750 X5.4251 Y1.9703 Z.3181
N5760 X5.385 Y1.983 Z.3159
N5770 X5.3461 Y1.9991 Z.3137
N5780 X5.3087 Y2.0185 Z.3115
N5790 X5.2732 Y2.0411 Z.3093
N5800 X5.2398 Y2.0668 Z.3071
N5810 X5.2088 Y2.0952 Z.3048
N5820 X5.1804 Y2.1262 Z.3026
N5830 X5.1547 Y2.1596 Z.3004
N5840 X5.1321 Y2.1951 Z.2982
N5850 X5.1127 Y2.2325 Z.296
N5860 X5.0966 Y2.2714 Z.2938
N5870 X5.0839 Y2.3115 Z.2916
N5880 X5.0748 Y2.3526 Z.2894
N5890 X5.0693 Y2.3943 Z.2872
N5900 X5.0675 Y2.4364 Z.285
N5910 X5.0693 Y2.4785 Z.2828
N5920 X5.0748 Y2.5202 Z.2806
N5930 X5.0839 Y2.5613 Z.2784
N5940 X5.0966 Y2.6014 Z.2762
N5950 X5.1127 Y2.6403 Z.274
N5960 X5.1321 Y2.6777 Z.2718
N5970 X5.1547 Y2.7132 Z.2696
N5980 X5.1804 Y2.7466 Z.2674
N5990 X5.2088 Y2.7776 Z.2652
N6000 X5.2398 Y2.806 Z.2629
N6010 X5.2732 Y2.8317 Z.2607
N6020 X5.3087 Y2.8543 Z.2585
N6030 X5.3461 Y2.8737 Z.2563
N6040 X5.385 Y2.8898 Z.2541
N6050 X5.4251 Y2.9025 Z.2519
N6060 X5.4662 Y2.9116 Z.2497
N6070 X5.5079 Y2.9171 Z.2475
N6080 X5.55 Y2.9189 Z.2453
N6090 X5.5896 Y2.9173 Z.2432
N6100 X5.6288 Y2.9124 Z.2412
N6110 X5.6676 Y2.9044 Z.2391
N6120 X5.7056 Y2.8932 Z.237
N6130 X5.7425 Y2.8789 Z.2349
N6140 X5.7781 Y2.8616 Z.2329
N6150 X5.8122 Y2.8415 Z.2308
N6160 X5.8445 Y2.8186 Z.2287
N6170 X5.8748 Y2.7932 Z.2267
N6180 X5.903 Y2.7654 Z.2246
N6190 X5.9288 Y2.7353 Z.2225
N6200 X5.952 Y2.7033 Z.2204
N6210 X5.9725 Y2.6694 Z.2184
N6220 X5.9902 Y2.634 Z.2163
N6230 X6.003 Y2.6026 Z.2145
N6240 X6.0136 Y2.5703 Z.2127
N6250 X6.0218 Y2.5374 Z.211
N6260 X6.0278 Y2.504 Z.2092
N6270 X6.0313 Y2.4703 Z.2074
N6280 X6.0325 Y2.4364 Z.2056
N6290 X6.0308 Y2.3952 Z.2034
N6300 X6.0255 Y2.3543 Z.2013
N6310 X6.0167 Y2.314 Z.1991
N6320 X6.0046 Y2.2746 Z.197
N6330 X5.9891 Y2.2364 Z.1948
N6340 X5.9704 Y2.1996 Z.1926
N6350 X5.9487 Y2.1646 Z.1905
N6360 X5.924 Y2.1315 Z.1883
N6370 X5.8966 Y2.1007 Z.1861
N6380 X5.8667 Y2.0723 Z.184
N6390 X5.8344 Y2.0466 Z.1818
N6400 X5.8001 Y2.0238 Z.1797
N6410 X5.7639 Y2.0039 Z.1775
N6420 X5.5952 Y2.345
N6430 G3 X5.4595 Y2.4807 I-.1357 J0.
N6440 X5.3238 Y2.345 I0. J-.1357
N6450 X5.6405 Y2.0283 I.3167 J0.
N6460 X5.9571 Y2.345 I0. J.3167
N6470 X5.4595 Y2.8426 I-.4976 J0.
N6480 X4.962 Y2.345 I0. J-.4976
N6490 X5.5611 Y1.6711 I.6785 J0.
N6500 X6.224 Y2.345 I-.0111 J.6739
N6510 X5.55 Y3.0189 I-.674 J0.
N6520 X4.8761 Y2.345 I0. J-.6739
N6530 X5.55 Y1.6711 I.6739 J0.
N6540 G1 X5.5611
N6550 Z1.5217
N6560 G0 X5.9902 Y2.634
N6570 G1 Z.3551
N6580 X6.003 Y2.6026 Z.3533
N6590 X6.0136 Y2.5703 Z.3515
N6600 X6.0218 Y2.5374 Z.3498
N6610 X6.0278 Y2.504 Z.348
N6620 X6.0313 Y2.4703 Z.3462
N6630 X6.0325 Y2.4364 Z.3444
N6640 X6.0307 Y2.3943 Z.3422
N6650 X6.0252 Y2.3526 Z.34
N6660 X6.0161 Y2.3115 Z.3378
N6670 X6.0034 Y2.2714 Z.3356
N6680 X5.9873 Y2.2325 Z.3334
N6690 X5.9679 Y2.1951 Z.3312
N6700 X5.9453 Y2.1596 Z.329
N6710 X5.9196 Y2.1262 Z.3268
N6720 X5.8912 Y2.0952 Z.3246
N6730 X5.8602 Y2.0668 Z.3223
N6740 X5.8268 Y2.0411 Z.3201
N6750 X5.7913 Y2.0185 Z.3179
N6760 X5.7539 Y1.9991 Z.3157
N6770 X5.715 Y1.983 Z.3135
N6780 X5.6749 Y1.9703 Z.3113
N6790 X5.6338 Y1.9612 Z.3091
N6800 X5.5921 Y1.9557 Z.3069
N6810 X5.55 Y1.9539 Z.3047
N6820 X5.5079 Y1.9557 Z.3025
N6830 X5.4662 Y1.9612 Z.3003
N6840 X5.4251 Y1.9703 Z.2981
N6850 X5.385 Y1.983 Z.2959
N6860 X5.3461 Y1.9991 Z.2937
N6870 X5.3087 Y2.0185 Z.2915
N6880 X5.2732 Y2.0411 Z.2893
N6890 X5.2398 Y2.0668 Z.2871
N6900 X5.2088 Y2.0952 Z.2849
N6910 X5.1804 Y2.1262 Z.2826
N6920 X5.1547 Y2.1596 Z.2804
N6930 X5.1321 Y2.1951 Z.2782
N6940 X5.1127 Y2.2325 Z.276
N6950 X5.0966 Y2.2714 Z.2738
N6960 X5.0839 Y2.3115 Z.2716
N6970 X5.0748 Y2.3526 Z.2694
N6980 X5.0693 Y2.3943 Z.2672
N6990 X5.0675 Y2.4364 Z.265
N7000 X5.0693 Y2.4785 Z.2628
N7010 X5.0748 Y2.5202 Z.2606
N7020 X5.0839 Y2.5613 Z.2584
N7030 X5.0966 Y2.6014 Z.2562
N7040 X5.1127 Y2.6403 Z.254
N7050 X5.1321 Y2.6777 Z.2518
N7060 X5.1547 Y2.7132 Z.2496
N7070 X5.1804 Y2.7466 Z.2474
N7080 X5.2088 Y2.7776 Z.2452
N7090 X5.2398 Y2.806 Z.2429
N7100 X5.2732 Y2.8317 Z.2407
N7110 X5.3087 Y2.8543 Z.2385
N7120 X5.3461 Y2.8737 Z.2363
N7130 X5.385 Y2.8898 Z.2341
N7140 X5.4251 Y2.9025 Z.2319
N7150 X5.4662 Y2.9116 Z.2297
N7160 X5.5079 Y2.9171 Z.2275
N7170 X5.55 Y2.9189 Z.2253
N7180 X5.5896 Y2.9173 Z.2232
N7190 X5.6288 Y2.9124 Z.2212
N7200 X5.6676 Y2.9044 Z.2191
N7210 X5.7056 Y2.8932 Z.217
N7220 X5.7425 Y2.8789 Z.2149
N7230 X5.7781 Y2.8616 Z.2129
N7240 X5.8122 Y2.8415 Z.2108
N7250 X5.8445 Y2.8186 Z.2087
N7260 X5.8748 Y2.7932 Z.2067
N7270 X5.903 Y2.7654 Z.2046
N7280 X5.9288 Y2.7353 Z.2025
N7290 X5.952 Y2.7033 Z.2004
N7300 X5.9725 Y2.6694 Z.1984
N7310 X5.9902 Y2.634 Z.1963
N7320 X6.003 Y2.6026 Z.1945
N7330 X6.0136 Y2.5703 Z.1927
N7340 X6.0218 Y2.5374 Z.191
N7350 X6.0278 Y2.504 Z.1892
N7360 X6.0313 Y2.4703 Z.1874
N7370 X6.0325 Y2.4364 Z.1856
N7380 X6.0308 Y2.3952 Z.1834
N7390 X6.0255 Y2.3543 Z.1813
N7400 X6.0167 Y2.314 Z.1791
N7410 X6.0046 Y2.2746 Z.177
N7420 X5.9891 Y2.2364 Z.1748
N7430 X5.9704 Y2.1996 Z.1726
N7440 X5.9487 Y2.1646 Z.1705
N7450 X5.924 Y2.1315 Z.1683
N7460 X5.8966 Y2.1007 Z.1661
N7470 X5.8667 Y2.0723 Z.164
N7480 X5.8344 Y2.0466 Z.1618
N7490 X5.8001 Y2.0238 Z.1597
N7500 X5.7639 Y2.0039 Z.1575
N7510 X5.5952 Y2.345
N7520 G3 X5.4595 Y2.4807 I-.1357 J0.
N7530 X5.3238 Y2.345 I0. J-.1357
N7540 X5.6405 Y2.0283 I.3167 J0.
N7550 X5.9571 Y2.345 I0. J.3167
N7560 X5.4595 Y2.8426 I-.4976 J0.
N7570 X4.962 Y2.345 I0. J-.4976
N7580 X5.5611 Y1.6711 I.6785 J0.
N7590 X6.224 Y2.345 I-.0111 J.6739
N7600 X5.55 Y3.0189 I-.674 J0.
N7610 X4.8761 Y2.345 I0. J-.6739
N7620 X5.55 Y1.6711 I.6739 J0.
N7630 G1 X5.5611
N7640 Z1.5217
N7650 G0 X5.2689 Y1.8625
N7660 G1 Z.1575
N7670 X5.7514
N7680 G3 X6.2339 Y2.345 I0. J.4825
N7690 X5.55 Y3.0289 I-.6839 J0.
N7700 X4.8661 Y2.345 I0. J-.6839
N7710 X5.55 Y1.6611 I.6839 J0.
N7720 X6.2339 Y2.345 I0. J.6839
N7730 X5.7514 Y2.8275 I-.4825 J0.
N7740 G1 X5.2689
N7750 Z1.5217
N7760 G0 Z2.0217
N7770 M5
N7780 G91 G28 Z0. M9
N7790 G28 X0. Y0.
N7800 M30
%
