%
O0( POCKET OPERATION )
( DATE=DD-MM-YY - 05-05-17 TIME=HH:MM - 11:51 )
( MCX FILE - \\KHENSU\HOME03\JTALIK\DESKTOP\GITHUB\ELECTRIC-FEED-SYSTEM\2.2 KN\CAD\V6 MANUFACTURING\FOR MASTERCAM\UPPER BEARING PLATE\20MM NONLOCATING BEARING PLATE.EMCX-9 )
( NC FILE - \\KHENSU\HOME03\JTALIK\DESKTOP\GITHUB\ELECTRIC-FEED-SYSTEM\2.2 KN\CAD\V6 MANUFACTURING\FOR MASTERCAM\UPPER BEARING PLATE\POCKET OPERATION.NC )
( MATERIAL - ALUMINUM INCH - 2024 )
( T241 |  3/4 FLAT ENDMILL | H241 )
N100 G20
N110 G0 G17 G40 G49 G80 G90
N120 T241 M6
N130 G0 G90 G54 X-.8151 Y4.8106 S713 M3
N140 G43 H241 Z2.
N150 M8
N160 Z.2
N170 G1 Z-.1228 F6.4
N180 X5.7331
N190 G0 Z.1272
N200 X-.8151 Y4.2967
N210 Z.0772
N220 G1 Z-.1228
N230 X5.7331
N240 G0 Z.1272
N250 X-.8151 Y3.7828
N260 Z.0772
N270 G1 Z-.1228
N280 X5.7331
N290 G0 Z.1272
N300 X-.8151 Y3.2689
N310 Z.0772
N320 G1 Z-.1228
N330 X5.7331
N340 G0 Z.1272
N350 X-.8151 Y2.755
N360 Z.0772
N370 G1 Z-.1228
N380 X5.7331
N390 G0 Z.1272
N400 X-.8151 Y2.241
N410 Z.0772
N420 G1 Z-.1228
N430 X5.7331
N440 G0 Z.1272
N450 X-.8151 Y1.7271
N460 Z.0772
N470 G1 Z-.1228
N480 X5.7331
N490 G0 Z.1272
N500 X-.8151 Y1.2132
N510 Z.0772
N520 G1 Z-.1228
N530 X5.7331
N540 G0 Z.1272
N550 X-.8151 Y.6993
N560 Z.0772
N570 G1 Z-.1228
N580 X5.7331
N590 Y.1853
N600 X-.8151
N610 G0 Z.1272
N620 Y4.8106
N630 Z.0772
N640 G1 Z-.2456
N650 X5.7331
N660 G0 Z.0044
N670 X-.8151 Y4.2967
N680 Z-.0456
N690 G1 Z-.2456
N700 X5.7331
N710 G0 Z.0044
N720 X-.8151 Y3.7828
N730 Z-.0456
N740 G1 Z-.2456
N750 X5.7331
N760 G0 Z.0044
N770 X-.8151 Y3.2689
N780 Z-.0456
N790 G1 Z-.2456
N800 X5.7331
N810 G0 Z.0044
N820 X-.8151 Y2.755
N830 Z-.0456
N840 G1 Z-.2456
N850 X5.7331
N860 G0 Z.0044
N870 X-.8151 Y2.241
N880 Z-.0456
N890 G1 Z-.2456
N900 X5.7331
N910 G0 Z.0044
N920 X-.8151 Y1.7271
N930 Z-.0456
N940 G1 Z-.2456
N950 X5.7331
N960 G0 Z.0044
N970 X-.8151 Y1.2132
N980 Z-.0456
N990 G1 Z-.2456
N1000 X5.7331
N1010 G0 Z.0044
N1020 X-.8151 Y.6993
N1030 Z-.0456
N1040 G1 Z-.2456
N1050 X5.7331
N1060 Y.1853
N1070 X-.8151
N1080 G0 Z.0044
N1090 Y4.8106
N1100 Z-.0456
N1110 G1 Z-.3684
N1120 X5.7331
N1130 G0 Z-.1184
N1140 X-.8151 Y4.2967
N1150 Z-.1684
N1160 G1 Z-.3684
N1170 X5.7331
N1180 G0 Z-.1184
N1190 X-.8151 Y3.7828
N1200 Z-.1684
N1210 G1 Z-.3684
N1220 X5.7331
N1230 G0 Z-.1184
N1240 X-.8151 Y3.2689
N1250 Z-.1684
N1260 G1 Z-.3684
N1270 X5.7331
N1280 G0 Z-.1184
N1290 X-.8151 Y2.755
N1300 Z-.1684
N1310 G1 Z-.3684
N1320 X5.7331
N1330 G0 Z-.1184
N1340 X-.8151 Y2.241
N1350 Z-.1684
N1360 G1 Z-.3684
N1370 X5.7331
N1380 G0 Z-.1184
N1390 X-.8151 Y1.7271
N1400 Z-.1684
N1410 G1 Z-.3684
N1420 X5.7331
N1430 G0 Z-.1184
N1440 X-.8151 Y1.2132
N1450 Z-.1684
N1460 G1 Z-.3684
N1470 X5.7331
N1480 G0 Z-.1184
N1490 X-.8151 Y.6993
N1500 Z-.1684
N1510 G1 Z-.3684
N1520 X5.7331
N1530 Y.1853
N1540 X-.8151
N1550 G0 Z-.1184
N1560 Y4.8106
N1570 Z-.1684
N1580 G1 Z-.4913
N1590 X5.7331
N1600 G0 Z-.2413
N1610 X-.8151 Y4.2967
N1620 Z-.2913
N1630 G1 Z-.4913
N1640 X5.7331
N1650 G0 Z-.2413
N1660 X-.8151 Y3.7828
N1670 Z-.2913
N1680 G1 Z-.4913
N1690 X5.7331
N1700 G0 Z-.2413
N1710 X-.8151 Y3.2689
N1720 Z-.2913
N1730 G1 Z-.4913
N1740 X5.7331
N1750 G0 Z-.2413
N1760 X-.8151 Y2.755
N1770 Z-.2913
N1780 G1 Z-.4913
N1790 X5.7331
N1800 G0 Z-.2413
N1810 X-.8151 Y2.241
N1820 Z-.2913
N1830 G1 Z-.4913
N1840 X5.7331
N1850 G0 Z-.2413
N1860 X-.8151 Y1.7271
N1870 Z-.2913
N1880 G1 Z-.4913
N1890 X5.7331
N1900 G0 Z-.2413
N1910 X-.8151 Y1.2132
N1920 Z-.2913
N1930 G1 Z-.4913
N1940 X5.7331
N1950 G0 Z-.2413
N1960 X-.8151 Y.6993
N1970 Z-.2913
N1980 G1 Z-.4913
N1990 X5.7331
N2000 Y.1853
N2010 X-.8151
N2020 G0 Z-.2413
N2030 Y4.8106
N2040 Z-.2913
N2050 G1 Z-.5113
N2060 X5.7331
N2070 G0 Z-.2613
N2080 X-.8151 Y4.2967
N2090 Z-.3113
N2100 G1 Z-.5113
N2110 X5.7331
N2120 G0 Z-.2613
N2130 X-.8151 Y3.7828
N2140 Z-.3113
N2150 G1 Z-.5113
N2160 X5.7331
N2170 G0 Z-.2613
N2180 X-.8151 Y3.2689
N2190 Z-.3113
N2200 G1 Z-.5113
N2210 X5.7331
N2220 G0 Z-.2613
N2230 X-.8151 Y2.755
N2240 Z-.3113
N2250 G1 Z-.5113
N2260 X5.7331
N2270 G0 Z-.2613
N2280 X-.8151 Y2.241
N2290 Z-.3113
N2300 G1 Z-.5113
N2310 X5.7331
N2320 G0 Z-.2613
N2330 X-.8151 Y1.7271
N2340 Z-.3113
N2350 G1 Z-.5113
N2360 X5.7331
N2370 G0 Z-.2613
N2380 X-.8151 Y1.2132
N2390 Z-.3113
N2400 G1 Z-.5113
N2410 X5.7331
N2420 G0 Z-.2613
N2430 X-.8151 Y.6993
N2440 Z-.3113
N2450 G1 Z-.5113
N2460 X5.7331
N2470 Y.1853
N2480 X-.8151
N2490 G0 Z-.2613
N2500 Y4.8106
N2510 Z-.3113
N2520 G1 Z-.5313
N2530 X5.7331
N2540 G0 Z-.2813
N2550 X-.8151 Y4.2967
N2560 Z-.3313
N2570 G1 Z-.5313
N2580 X5.7331
N2590 G0 Z-.2813
N2600 X-.8151 Y3.7828
N2610 Z-.3313
N2620 G1 Z-.5313
N2630 X5.7331
N2640 G0 Z-.2813
N2650 X-.8151 Y3.2689
N2660 Z-.3313
N2670 G1 Z-.5313
N2680 X5.7331
N2690 G0 Z-.2813
N2700 X-.8151 Y2.755
N2710 Z-.3313
N2720 G1 Z-.5313
N2730 X5.7331
N2740 G0 Z-.2813
N2750 X-.8151 Y2.241
N2760 Z-.3313
N2770 G1 Z-.5313
N2780 X5.7331
N2790 G0 Z-.2813
N2800 X-.8151 Y1.7271
N2810 Z-.3313
N2820 G1 Z-.5313
N2830 X5.7331
N2840 G0 Z-.2813
N2850 X-.8151 Y1.2132
N2860 Z-.3313
N2870 G1 Z-.5313
N2880 X5.7331
N2890 G0 Z-.2813
N2900 X-.8151 Y.6993
N2910 Z-.3313
N2920 G1 Z-.5313
N2930 X5.7331
N2940 Y.1853
N2950 X-.8151
N2960 G0 Z-.2813
N2970 Y4.8106
N2980 Z-.3313
N2990 G1 Z-.5513
N3000 X5.7331
N3010 G0 Z-.3013
N3020 X-.8151 Y4.2967
N3030 Z-.3513
N3040 G1 Z-.5513
N3050 X5.7331
N3060 G0 Z-.3013
N3070 X-.8151 Y3.7828
N3080 Z-.3513
N3090 G1 Z-.5513
N3100 X5.7331
N3110 G0 Z-.3013
N3120 X-.8151 Y3.2689
N3130 Z-.3513
N3140 G1 Z-.5513
N3150 X5.7331
N3160 G0 Z-.3013
N3170 X-.8151 Y2.755
N3180 Z-.3513
N3190 G1 Z-.5513
N3200 X5.7331
N3210 G0 Z-.3013
N3220 X-.8151 Y2.241
N3230 Z-.3513
N3240 G1 Z-.5513
N3250 X5.7331
N3260 G0 Z-.3013
N3270 X-.8151 Y1.7271
N3280 Z-.3513
N3290 G1 Z-.5513
N3300 X5.7331
N3310 G0 Z-.3013
N3320 X-.8151 Y1.2132
N3330 Z-.3513
N3340 G1 Z-.5513
N3350 X5.7331
N3360 G0 Z-.3013
N3370 X-.8151 Y.6993
N3380 Z-.3513
N3390 G1 Z-.5513
N3400 X5.7331
N3410 Y.1853
N3420 X-.8151
N3430 G0 Z1.4487
N3440 M5
N3450 G91 G28 Z0. M9
N3460 G28 X0. Y0.
N3470 M30
%
