%
O0( MOTOR MOUNT_V6_TORQUE ARM REV 2 )
( DATE=DD-MM-YY - 04-05-17 TIME=HH:MM - 15:33 )
( MCX FILE - \\KHENSU\HOME03\JTALIK\DESKTOP\GITHUB\ELECTRIC-FEED-SYSTEM\2.2 KN\CAD\V6 MANUFACTURING\FOR MASTERCAM\MOTOR MOUNT TORQUE ARM\MOTOR MOUNT_V6_TORQUE ARM.EMCX-9 )
( NC FILE - \\KHENSU\HOME03\JTALIK\DESKTOP\GITHUB\ELECTRIC-FEED-SYSTEM\2.2 KN\CAD\V6 MANUFACTURING\FOR MASTERCAM\MOTOR MOUNT TORQUE ARM\MOTOR MOUNT_V6_TORQUE ARM REV 2.NC )
( MATERIAL - ALUMINUM INCH - 2024 )
( T241 |  3/4 FLAT ENDMILL | H241 )
( T290 | 1/2 FLAT ENDMILL | H290 )
N100 G20
N110 G0 G17 G40 G49 G80 G90
N120 T241 M6
N130 G0 G90 G54 X-.8151 Y3.7477 S713 M3
N140 G43 H241 Z2.
N150 M8
N160 Z.2
N170 G1 Z-.0867 F6.4
N180 X5.9186
N190 Y3.2388
N200 X-.4446
N210 Y2.7299
N220 X5.9186
N230 Y2.221
N240 X-.4446
N250 Y1.7121
N260 X5.9186
N270 Y1.2032
N280 X-.4446
N290 Y.6943
N300 X5.9186
N310 Y.1853
N320 X-.8151
N330 G0 Z1.
N340 Y3.7477
N350 Z.2
N360 G1 Z-.1733
N370 X5.9186
N380 Y3.2388
N390 X-.4446
N400 Y2.7299
N410 X5.9186
N420 Y2.221
N430 X-.4446
N440 Y1.7121
N450 X5.9186
N460 Y1.2032
N470 X-.4446
N480 Y.6943
N490 X5.9186
N500 Y.1853
N510 X-.8151
N520 G0 Z1.
N530 Y3.7477
N540 Z.2
N550 G1 Z-.26
N560 X5.9186
N570 Y3.2388
N580 X-.4446
N590 Y2.7299
N600 X5.9186
N610 Y2.221
N620 X-.4446
N630 Y1.7121
N640 X5.9186
N650 Y1.2032
N660 X-.4446
N670 Y.6943
N680 X5.9186
N690 Y.1853
N700 X-.8151
N710 G0 Z1.
N720 Y3.7477
N730 Z.2
N740 G1 Z-.27
N750 X5.9186
N760 Y3.2388
N770 X-.4446
N780 Y2.7299
N790 X5.9186
N800 Y2.221
N810 X-.4446
N820 Y1.7121
N830 X5.9186
N840 Y1.2032
N850 X-.4446
N860 Y.6943
N870 X5.9186
N880 Y.1853
N890 X-.8151
N900 G0 Z2.
N910 M5
N920 G91 G28 Z0. M9
N930 M01
(FLIP THE PART)
(RE-ZER0)
(RESET THE TOOL HIEGHT)
N940 T290 M6
N950 G0 G90 G54 X-.55 Y3.8079 S1069 M3
N960 G43 H290 Z2.
N970 M8
N980 Z.2
N990 G1 Z-.02 F6.4
N1000 X5.774
N1010 Y3.4731
N1020 X-.3
N1030 Y3.1383
N1040 X5.774
N1050 Y2.8035
N1060 X-.3
N1070 Y2.4687
N1080 X5.774
N1090 Y2.1339
N1100 X-.3
N1110 Y1.7991
N1120 X5.774
N1130 Y1.4643
N1140 X-.3
N1150 Y1.1295
N1160 X5.774
N1170 Y.7947
N1180 X-.3
N1190 Y.4599
N1200 X5.774
N1210 Y.1251
N1220 X-.55
N1230 G0 Z2.
N1240 X-.5 Y3.4291
N1250 Z.2
N1260 G1 Z-.0912
N1270 Y2.9291
N1280 G3 X0. Y2.4291 I.5 J0.
N1290 X.3101 Y2.614 I0. J.3525
N1300 G2 X2.0472 Y3.6495 I1.7371 J-.9392
N1310 X3.9811 Y2.0748 I0. J-1.9747
N1320 G1 X5.3386
N1330 G2 X5.7386 Y1.6748 I0. J-.4
N1340 G1 Y1.2811
N1350 G2 X5.3386 Y.8811 I-.4 J0.
N1360 G1 X3.9738
N1370 G3 X3.9182 Y.8397 I.1801 J-.2998
N1380 X3.7989 Y.7109 I.8424 J-.8994
N1390 X3.6195 Y.4796 I9.0781 J-7.2273
N1400 G2 X2.0474 Y-.3 I-1.5721 J1.1952
N1410 X.6119 Y.3184 I0. J1.9748
N1420 G1 X.5153 Y.4258
N1430 G3 X0. Y.6449 I-.5153 J-.4964
N1440 X-.5 Y.1449 I0. J-.5
N1450 G1 Y-.3551
N1460 Z.1088
N1470 G0 Z1.
N1480 Y3.3291
N1490 Z.2
N1500 G1 Z-.0912
N1510 Y2.8291
N1520 G3 X0. Y2.3291 I.5 J0.
N1530 X.398 Y2.5664 I0. J.4525
N1540 G2 X2.0472 Y3.5496 I1.6492 J-.8916
N1550 X3.887 Y2.0354 I0. J-1.8748
N1560 G3 X3.9606 Y1.9748 I.0736 J.0144
N1570 G1 X5.3386
N1580 G2 X5.6386 Y1.6748 I0. J-.3
N1590 G1 Y1.2811
N1600 G2 X5.3386 Y.9811 I-.3 J0.
N1610 G1 X3.9671
N1620 X3.9578 Y.9807
N1630 G3 X3.9254 Y.9687 I.0149 J-.0899
N1640 X3.8502 Y.9131 I.2285 J-.3874
N1650 X3.7208 Y.7733 I.9104 J-.9728
N1660 X3.5398 Y.54 I9.1562 J-7.2897
N1670 G2 X2.0474 Y-.2 I-1.4924 J1.1348
N1680 X.6854 Y.3862 I0. J1.8748
N1690 G1 X.5885 Y.4939
N1700 G3 X0. Y.7449 I-.5885 J-.5645
N1710 X-.5 Y.2449 I0. J-.5
N1720 G1 Y-.2551
N1730 Z.1088
N1740 G0 Z1.
N1750 Y3.4291
N1760 Z.1088
N1770 G1 Z-.1825
N1780 Y2.9291
N1790 G3 X0. Y2.4291 I.5 J0.
N1800 X.3101 Y2.614 I0. J.3525
N1810 G2 X2.0472 Y3.6495 I1.7371 J-.9392
N1820 X3.9811 Y2.0748 I0. J-1.9747
N1830 G1 X5.3386
N1840 G2 X5.7386 Y1.6748 I0. J-.4
N1850 G1 Y1.2811
N1860 G2 X5.3386 Y.8811 I-.4 J0.
N1870 G1 X3.9738
N1880 G3 X3.9182 Y.8397 I.1801 J-.2998
N1890 X3.7989 Y.7109 I.8424 J-.8994
N1900 X3.6195 Y.4796 I9.0781 J-7.2273
N1910 G2 X2.0474 Y-.3 I-1.5721 J1.1952
N1920 X.6119 Y.3184 I0. J1.9748
N1930 G1 X.5153 Y.4258
N1940 G3 X0. Y.6449 I-.5153 J-.4964
N1950 X-.5 Y.1449 I0. J-.5
N1960 G1 Y-.3551
N1970 Z.0175
N1980 G0 Z1.
N1990 Y3.3291
N2000 Z.1088
N2010 G1 Z-.1825
N2020 Y2.8291
N2030 G3 X0. Y2.3291 I.5 J0.
N2040 X.398 Y2.5664 I0. J.4525
N2050 G2 X2.0472 Y3.5496 I1.6492 J-.8916
N2060 X3.887 Y2.0354 I0. J-1.8748
N2070 G3 X3.9606 Y1.9748 I.0736 J.0144
N2080 G1 X5.3386
N2090 G2 X5.6386 Y1.6748 I0. J-.3
N2100 G1 Y1.2811
N2110 G2 X5.3386 Y.9811 I-.3 J0.
N2120 G1 X3.9671
N2130 X3.9578 Y.9807
N2140 G3 X3.9254 Y.9687 I.0149 J-.0899
N2150 X3.8502 Y.9131 I.2285 J-.3874
N2160 X3.7208 Y.7733 I.9104 J-.9728
N2170 X3.5398 Y.54 I9.1562 J-7.2897
N2180 G2 X2.0474 Y-.2 I-1.4924 J1.1348
N2190 X.6854 Y.3862 I0. J1.8748
N2200 G1 X.5885 Y.4939
N2210 G3 X0. Y.7449 I-.5885 J-.5645
N2220 X-.5 Y.2449 I0. J-.5
N2230 G1 Y-.2551
N2240 Z.0175
N2250 G0 Z1.
N2260 Y3.4291
N2270 Z.0175
N2280 G1 Z-.2737
N2290 Y2.9291
N2300 G3 X0. Y2.4291 I.5 J0.
N2310 X.3101 Y2.614 I0. J.3525
N2320 G2 X2.0472 Y3.6495 I1.7371 J-.9392
N2330 X3.9811 Y2.0748 I0. J-1.9747
N2340 G1 X5.3386
N2350 G2 X5.7386 Y1.6748 I0. J-.4
N2360 G1 Y1.2811
N2370 G2 X5.3386 Y.8811 I-.4 J0.
N2380 G1 X3.9738
N2390 G3 X3.9182 Y.8397 I.1801 J-.2998
N2400 X3.7989 Y.7109 I.8424 J-.8994
N2410 X3.6195 Y.4796 I9.0781 J-7.2273
N2420 G2 X2.0474 Y-.3 I-1.5721 J1.1952
N2430 X.6119 Y.3184 I0. J1.9748
N2440 G1 X.5153 Y.4258
N2450 G3 X0. Y.6449 I-.5153 J-.4964
N2460 X-.5 Y.1449 I0. J-.5
N2470 G1 Y-.3551
N2480 Z-.0737
N2490 G0 Z1.
N2500 Y3.3291
N2510 Z.0175
N2520 G1 Z-.2737
N2530 Y2.8291
N2540 G3 X0. Y2.3291 I.5 J0.
N2550 X.398 Y2.5664 I0. J.4525
N2560 G2 X2.0472 Y3.5496 I1.6492 J-.8916
N2570 X3.887 Y2.0354 I0. J-1.8748
N2580 G3 X3.9606 Y1.9748 I.0736 J.0144
N2590 G1 X5.3386
N2600 G2 X5.6386 Y1.6748 I0. J-.3
N2610 G1 Y1.2811
N2620 G2 X5.3386 Y.9811 I-.3 J0.
N2630 G1 X3.9671
N2640 X3.9578 Y.9807
N2650 G3 X3.9254 Y.9687 I.0149 J-.0899
N2660 X3.8502 Y.9131 I.2285 J-.3874
N2670 X3.7208 Y.7733 I.9104 J-.9728
N2680 X3.5398 Y.54 I9.1562 J-7.2897
N2690 G2 X2.0474 Y-.2 I-1.4924 J1.1348
N2700 X.6854 Y.3862 I0. J1.8748
N2710 G1 X.5885 Y.4939
N2720 G3 X0. Y.7449 I-.5885 J-.5645
N2730 X-.5 Y.2449 I0. J-.5
N2740 G1 Y-.2551
N2750 Z-.0737
N2760 G0 Z1.
N2770 Y3.4291
N2780 Z-.0737
N2790 G1 Z-.365
N2800 Y2.9291
N2810 G3 X0. Y2.4291 I.5 J0.
N2820 X.3101 Y2.614 I0. J.3525
N2830 G2 X2.0472 Y3.6495 I1.7371 J-.9392
N2840 X3.9811 Y2.0748 I0. J-1.9747
N2850 G1 X5.3386
N2860 G2 X5.7386 Y1.6748 I0. J-.4
N2870 G1 Y1.2811
N2880 G2 X5.3386 Y.8811 I-.4 J0.
N2890 G1 X3.9738
N2900 G3 X3.9182 Y.8397 I.1801 J-.2998
N2910 X3.7989 Y.7109 I.8424 J-.8994
N2920 X3.6195 Y.4796 I9.0781 J-7.2273
N2930 G2 X2.0474 Y-.3 I-1.5721 J1.1952
N2940 X.6119 Y.3184 I0. J1.9748
N2950 G1 X.5153 Y.4258
N2960 G3 X0. Y.6449 I-.5153 J-.4964
N2970 X-.5 Y.1449 I0. J-.5
N2980 G1 Y-.3551
N2990 Z-.165
N3000 G0 Z1.
N3010 Y3.3291
N3020 Z-.0737
N3030 G1 Z-.365
N3040 Y2.8291
N3050 G3 X0. Y2.3291 I.5 J0.
N3060 X.398 Y2.5664 I0. J.4525
N3070 G2 X2.0472 Y3.5496 I1.6492 J-.8916
N3080 X3.887 Y2.0354 I0. J-1.8748
N3090 G3 X3.9606 Y1.9748 I.0736 J.0144
N3100 G1 X5.3386
N3110 G2 X5.6386 Y1.6748 I0. J-.3
N3120 G1 Y1.2811
N3130 G2 X5.3386 Y.9811 I-.3 J0.
N3140 G1 X3.9671
N3150 X3.9578 Y.9807
N3160 G3 X3.9254 Y.9687 I.0149 J-.0899
N3170 X3.8502 Y.9131 I.2285 J-.3874
N3180 X3.7208 Y.7733 I.9104 J-.9728
N3190 X3.5398 Y.54 I9.1562 J-7.2897
N3200 G2 X2.0474 Y-.2 I-1.4924 J1.1348
N3210 X.6854 Y.3862 I0. J1.8748
N3220 G1 X.5885 Y.4939
N3230 G3 X0. Y.7449 I-.5885 J-.5645
N3240 X-.5 Y.2449 I0. J-.5
N3250 G1 Y-.2551
N3260 Z-.165
N3270 G0 Z1.
N3280 Y3.4291
N3290 Z-.165
N3300 G1 Z-.4562
N3310 Y2.9291
N3320 G3 X0. Y2.4291 I.5 J0.
N3330 X.3101 Y2.614 I0. J.3525
N3340 G2 X2.0472 Y3.6495 I1.7371 J-.9392
N3350 X3.9811 Y2.0748 I0. J-1.9747
N3360 G1 X5.3386
N3370 G2 X5.7386 Y1.6748 I0. J-.4
N3380 G1 Y1.2811
N3390 G2 X5.3386 Y.8811 I-.4 J0.
N3400 G1 X3.9738
N3410 G3 X3.9182 Y.8397 I.1801 J-.2998
N3420 X3.7989 Y.7109 I.8424 J-.8994
N3430 X3.6195 Y.4796 I9.0781 J-7.2273
N3440 G2 X2.0474 Y-.3 I-1.5721 J1.1952
N3450 X.6119 Y.3184 I0. J1.9748
N3460 G1 X.5153 Y.4258
N3470 G3 X0. Y.6449 I-.5153 J-.4964
N3480 X-.5 Y.1449 I0. J-.5
N3490 G1 Y-.3551
N3500 Z-.2562
N3510 G0 Z1.
N3520 Y3.3291
N3530 Z-.165
N3540 G1 Z-.4562
N3550 Y2.8291
N3560 G3 X0. Y2.3291 I.5 J0.
N3570 X.398 Y2.5664 I0. J.4525
N3580 G2 X2.0472 Y3.5496 I1.6492 J-.8916
N3590 X3.887 Y2.0354 I0. J-1.8748
N3600 G3 X3.9606 Y1.9748 I.0736 J.0144
N3610 G1 X5.3386
N3620 G2 X5.6386 Y1.6748 I0. J-.3
N3630 G1 Y1.2811
N3640 G2 X5.3386 Y.9811 I-.3 J0.
N3650 G1 X3.9671
N3660 X3.9578 Y.9807
N3670 G3 X3.9254 Y.9687 I.0149 J-.0899
N3680 X3.8502 Y.9131 I.2285 J-.3874
N3690 X3.7208 Y.7733 I.9104 J-.9728
N3700 X3.5398 Y.54 I9.1562 J-7.2897
N3710 G2 X2.0474 Y-.2 I-1.4924 J1.1348
N3720 X.6854 Y.3862 I0. J1.8748
N3730 G1 X.5885 Y.4939
N3740 G3 X0. Y.7449 I-.5885 J-.5645
N3750 X-.5 Y.2449 I0. J-.5
N3760 G1 Y-.2551
N3770 Z-.2562
N3780 G0 Z1.
N3790 Y3.4291
N3800 Z-.2562
N3810 G1 Z-.5475
N3820 Y2.9291
N3830 G3 X0. Y2.4291 I.5 J0.
N3840 X.3101 Y2.614 I0. J.3525
N3850 G2 X2.0472 Y3.6495 I1.7371 J-.9392
N3860 X3.9811 Y2.0748 I0. J-1.9747
N3870 G1 X5.3386
N3880 G2 X5.7386 Y1.6748 I0. J-.4
N3890 G1 Y1.2811
N3900 G2 X5.3386 Y.8811 I-.4 J0.
N3910 G1 X3.9738
N3920 G3 X3.9182 Y.8397 I.1801 J-.2998
N3930 X3.7989 Y.7109 I.8424 J-.8994
N3940 X3.6195 Y.4796 I9.0781 J-7.2273
N3950 G2 X2.0474 Y-.3 I-1.5721 J1.1952
N3960 X.6119 Y.3184 I0. J1.9748
N3970 G1 X.5153 Y.4258
N3980 G3 X0. Y.6449 I-.5153 J-.4964
N3990 X-.5 Y.1449 I0. J-.5
N4000 G1 Y-.3551
N4010 Z-.3475
N4020 G0 Z1.
N4030 Y3.3291
N4040 Z-.2562
N4050 G1 Z-.5475
N4060 Y2.8291
N4070 G3 X0. Y2.3291 I.5 J0.
N4080 X.398 Y2.5664 I0. J.4525
N4090 G2 X2.0472 Y3.5496 I1.6492 J-.8916
N4100 X3.887 Y2.0354 I0. J-1.8748
N4110 G3 X3.9606 Y1.9748 I.0736 J.0144
N4120 G1 X5.3386
N4130 G2 X5.6386 Y1.6748 I0. J-.3
N4140 G1 Y1.2811
N4150 G2 X5.3386 Y.9811 I-.3 J0.
N4160 G1 X3.9671
N4170 X3.9578 Y.9807
N4180 G3 X3.9254 Y.9687 I.0149 J-.0899
N4190 X3.8502 Y.9131 I.2285 J-.3874
N4200 X3.7208 Y.7733 I.9104 J-.9728
N4210 X3.5398 Y.54 I9.1562 J-7.2897
N4220 G2 X2.0474 Y-.2 I-1.4924 J1.1348
N4230 X.6854 Y.3862 I0. J1.8748
N4240 G1 X.5885 Y.4939
N4250 G3 X0. Y.7449 I-.5885 J-.5645
N4260 X-.5 Y.2449 I0. J-.5
N4270 G1 Y-.2551
N4280 Z-.3475
N4290 G0 Z1.
N4300 Y3.4291
N4310 Z-.3475
N4320 G1 Z-.6388
N4330 Y2.9291
N4340 G3 X0. Y2.4291 I.5 J0.
N4350 X.3101 Y2.614 I0. J.3525
N4360 G2 X2.0472 Y3.6495 I1.7371 J-.9392
N4370 X3.9811 Y2.0748 I0. J-1.9747
N4380 G1 X5.3386
N4390 G2 X5.7386 Y1.6748 I0. J-.4
N4400 G1 Y1.2811
N4410 G2 X5.3386 Y.8811 I-.4 J0.
N4420 G1 X3.9738
N4430 G3 X3.9182 Y.8397 I.1801 J-.2998
N4440 X3.7989 Y.7109 I.8424 J-.8994
N4450 X3.6195 Y.4796 I9.0781 J-7.2273
N4460 G2 X2.0474 Y-.3 I-1.5721 J1.1952
N4470 X.6119 Y.3184 I0. J1.9748
N4480 G1 X.5153 Y.4258
N4490 G3 X0. Y.6449 I-.5153 J-.4964
N4500 X-.5 Y.1449 I0. J-.5
N4510 G1 Y-.3551
N4520 Z-.4387
N4530 G0 Z1.
N4540 Y3.3291
N4550 Z-.3475
N4560 G1 Z-.6388
N4570 Y2.8291
N4580 G3 X0. Y2.3291 I.5 J0.
N4590 X.398 Y2.5664 I0. J.4525
N4600 G2 X2.0472 Y3.5496 I1.6492 J-.8916
N4610 X3.887 Y2.0354 I0. J-1.8748
N4620 G3 X3.9606 Y1.9748 I.0736 J.0144
N4630 G1 X5.3386
N4640 G2 X5.6386 Y1.6748 I0. J-.3
N4650 G1 Y1.2811
N4660 G2 X5.3386 Y.9811 I-.3 J0.
N4670 G1 X3.9671
N4680 X3.9578 Y.9807
N4690 G3 X3.9254 Y.9687 I.0149 J-.0899
N4700 X3.8502 Y.9131 I.2285 J-.3874
N4710 X3.7208 Y.7733 I.9104 J-.9728
N4720 X3.5398 Y.54 I9.1562 J-7.2897
N4730 G2 X2.0474 Y-.2 I-1.4924 J1.1348
N4740 X.6854 Y.3862 I0. J1.8748
N4750 G1 X.5885 Y.4939
N4760 G3 X0. Y.7449 I-.5885 J-.5645
N4770 X-.5 Y.2449 I0. J-.5
N4780 G1 Y-.2551
N4790 Z-.4387
N4800 G0 Z1.
N4810 Y3.4291
N4820 Z-.4387
N4830 G1 Z-.73
N4840 Y2.9291
N4850 G3 X0. Y2.4291 I.5 J0.
N4860 X.3101 Y2.614 I0. J.3525
N4870 G2 X2.0472 Y3.6495 I1.7371 J-.9392
N4880 X3.9811 Y2.0748 I0. J-1.9747
N4890 G1 X5.3386
N4900 G2 X5.7386 Y1.6748 I0. J-.4
N4910 G1 Y1.2811
N4920 G2 X5.3386 Y.8811 I-.4 J0.
N4930 G1 X3.9738
N4940 G3 X3.9182 Y.8397 I.1801 J-.2998
N4950 X3.7989 Y.7109 I.8424 J-.8994
N4960 X3.6195 Y.4796 I9.0781 J-7.2273
N4970 G2 X2.0474 Y-.3 I-1.5721 J1.1952
N4980 X.6119 Y.3184 I0. J1.9748
N4990 G1 X.5153 Y.4258
N5000 G3 X0. Y.6449 I-.5153 J-.4964
N5010 X-.5 Y.1449 I0. J-.5
N5020 G1 Y-.3551
N5030 Z-.53
N5040 G0 Z1.
N5050 Y3.3291
N5060 Z-.4387
N5070 G1 Z-.73
N5080 Y2.8291
N5090 G3 X0. Y2.3291 I.5 J0.
N5100 X.398 Y2.5664 I0. J.4525
N5110 G2 X2.0472 Y3.5496 I1.6492 J-.8916
N5120 X3.887 Y2.0354 I0. J-1.8748
N5130 G3 X3.9606 Y1.9748 I.0736 J.0144
N5140 G1 X5.3386
N5150 G2 X5.6386 Y1.6748 I0. J-.3
N5160 G1 Y1.2811
N5170 G2 X5.3386 Y.9811 I-.3 J0.
N5180 G1 X3.9671
N5190 X3.9578 Y.9807
N5200 G3 X3.9254 Y.9687 I.0149 J-.0899
N5210 X3.8502 Y.9131 I.2285 J-.3874
N5220 X3.7208 Y.7733 I.9104 J-.9728
N5230 X3.5398 Y.54 I9.1562 J-7.2897
N5240 G2 X2.0474 Y-.2 I-1.4924 J1.1348
N5250 X.6854 Y.3862 I0. J1.8748
N5260 G1 X.5885 Y.4939
N5270 G3 X0. Y.7449 I-.5885 J-.5645
N5280 X-.5 Y.2449 I0. J-.5
N5290 G1 Y-.2551
N5300 Z-.53
N5310 G0 Z1.
N5320 Y3.2791
N5330 Z-.4387
N5340 G1 Z-.73
N5350 Y2.7791
N5360 G3 X0. Y2.2791 I.5 J0.
N5370 X.442 Y2.5426 I0. J.5025
N5380 G2 X2.0472 Y3.4996 I1.6052 J-.8678
N5390 X3.838 Y2.0258 I0. J-1.8248
N5400 G3 X3.9606 Y1.9248 I.1226 J.024
N5410 G1 X5.3386
N5420 G2 X5.5886 Y1.6748 I0. J-.25
N5430 G1 Y1.2811
N5440 G2 X5.3386 Y1.0311 I-.25 J0.
N5450 G1 X3.966
N5460 X3.953 Y1.0305
N5470 G3 X3.8998 Y1.0116 I.0197 J-.1397
N5480 X3.8163 Y.9497 I.2541 J-.4303
N5490 X3.6817 Y.8045 I.9443 J-1.0094
N5500 X3.5 Y.5702 I9.1953 J-7.3209
N5510 G2 X2.0474 Y-.1501 I-1.4526 J1.1046
N5520 X.7222 Y.4202 I0. J1.8249
N5530 G1 X.6251 Y.528
N5540 G3 X0. Y.7949 I-.6251 J-.5986
N5550 X-.5 Y.2949 I0. J-.5
N5560 G1 Y-.2051
N5570 Z-.53
N5580 G0 Z2.
N5590 X2.3893 Y1.3832
N5600 Z.2
N5610 G1 Z.1
N5620 X2.3592 Y1.3786 Z.0984
N5630 X2.3289 Y1.3758 Z.0968
N5640 X2.2984 Y1.3749 Z.0952
N5650 X2.2571 Y1.3766 Z.093
N5660 X2.2161 Y1.3817 Z.0909
N5670 X2.1756 Y1.3902 Z.0887
N5680 X2.136 Y1.402 Z.0865
N5690 X2.0975 Y1.417 Z.0844
N5700 X2.0604 Y1.4351 Z.0822
N5710 X2.0249 Y1.4563 Z.0801
N5720 X1.9913 Y1.4803 Z.0779
N5730 X1.9597 Y1.507 Z.0757
N5740 X1.9305 Y1.5362 Z.0736
N5750 X1.9038 Y1.5678 Z.0714
N5760 X1.8798 Y1.6014 Z.0692
N5770 X1.8586 Y1.6369 Z.0671
N5780 X1.8405 Y1.674 Z.0649
N5790 X1.8255 Y1.7125 Z.0628
N5800 X1.8137 Y1.7521 Z.0606
N5810 X1.8052 Y1.7926 Z.0584
N5820 X1.8001 Y1.8336 Z.0563
N5830 X1.7984 Y1.8749 Z.0541
N5840 X1.8001 Y1.9162 Z.0519
N5850 X1.8052 Y1.9572 Z.0498
N5860 X1.8137 Y1.9977 Z.0476
N5870 X1.8255 Y2.0373 Z.0454
N5880 X1.8405 Y2.0758 Z.0433
N5890 X1.8586 Y2.1129 Z.0411
N5900 X1.8798 Y2.1484 Z.0389
N5910 X1.9038 Y2.182 Z.0368
N5920 X1.9305 Y2.2136 Z.0346
N5930 X1.9597 Y2.2428 Z.0324
N5940 X1.9913 Y2.2695 Z.0302
N5950 X2.0249 Y2.2935 Z.0281
N5960 X2.0604 Y2.3147 Z.0259
N5970 X2.0975 Y2.3328 Z.0237
N5980 X2.136 Y2.3478 Z.0216
N5990 X2.1756 Y2.3596 Z.0194
N6000 X2.2161 Y2.3681 Z.0172
N6010 X2.2571 Y2.3732 Z.0151
N6020 X2.2984 Y2.3749 Z.0129
N6030 X2.3397 Y2.3732 Z.0107
N6040 X2.3807 Y2.3681 Z.0086
N6050 X2.4212 Y2.3596 Z.0064
N6060 X2.4608 Y2.3478 Z.0042
N6070 X2.4993 Y2.3328 Z.0021
N6080 X2.5364 Y2.3147 Z-.0001
N6090 X2.5719 Y2.2935 Z-.0022
N6100 X2.6055 Y2.2695 Z-.0044
N6110 X2.6371 Y2.2428 Z-.0066
N6120 X2.6663 Y2.2136 Z-.0087
N6130 X2.693 Y2.182 Z-.0109
N6140 X2.717 Y2.1484 Z-.0131
N6150 X2.7382 Y2.1129 Z-.0152
N6160 X2.7563 Y2.0758 Z-.0174
N6170 X2.7713 Y2.0373 Z-.0195
N6180 X2.7831 Y1.9977 Z-.0217
N6190 X2.7916 Y1.9572 Z-.0239
N6200 X2.7967 Y1.9162 Z-.026
N6210 X2.7984 Y1.8749 Z-.0282
N6220 X2.7966 Y1.8316 Z-.0305
N6230 X2.7909 Y1.7886 Z-.0328
N6240 X2.7816 Y1.7462 Z-.035
N6250 X2.7686 Y1.7049 Z-.0373
N6260 X2.7521 Y1.6647 Z-.0396
N6270 X2.7322 Y1.6262 Z-.0418
N6280 X2.709 Y1.5896 Z-.0441
N6290 X2.6828 Y1.5551 Z-.0464
N6300 X2.6536 Y1.523 Z-.0487
N6310 X2.6218 Y1.4935 Z-.0509
N6320 X2.5875 Y1.4669 Z-.0532
N6330 X2.5511 Y1.4434 Z-.0555
N6340 X2.5128 Y1.4231 Z-.0578
N6350 X2.4728 Y1.4063 Z-.0601
N6360 X2.4316 Y1.3929 Z-.0623
N6370 X2.3893 Y1.3832 Z-.0646
N6380 X2.3592 Y1.3786 Z-.0662
N6390 X2.3289 Y1.3758 Z-.0678
N6400 X2.2984 Y1.3749 Z-.0694
N6410 X2.2568 Y1.3766 Z-.0716
N6420 X2.2155 Y1.3818 Z-.0738
N6430 X2.1748 Y1.3904 Z-.0759
N6440 X2.1349 Y1.4023 Z-.0781
N6450 X2.0962 Y1.4176 Z-.0803
N6460 X2.0589 Y1.436 Z-.0825
N6470 X2.0232 Y1.4574 Z-.0847
N6480 X1.9895 Y1.4817 Z-.0868
N6490 X1.9578 Y1.5088 Z-.089
N6500 X1.9286 Y1.5384 Z-.0912
N6510 X2.0785 Y1.6748
N6520 G3 X1.9848 Y1.7685 I-.0937 J0.
N6530 X1.891 Y1.6748 I0. J-.0937
N6540 X2.1098 Y1.456 I.2188 J0.
N6550 X2.3285 Y1.6748 I0. J.2188
N6560 X1.9848 Y2.0185 I-.3437 J0.
N6570 X1.641 Y1.6748 I0. J-.3437
N6580 X2.1098 Y1.206 I.4688 J0.
N6590 X2.5785 Y1.6748 I0. J.4688
N6600 X1.9848 Y2.2685 I-.5937 J0.
N6610 X1.391 Y1.6748 I0. J-.5937
N6620 X2.1098 Y.956 I.7188 J0.
N6630 X2.8285 Y1.6748 I0. J.7188
N6640 X1.9848 Y2.5185 I-.8437 J0.
N6650 X1.141 Y1.6748 I0. J-.8437
N6660 X1.3586 Y1.063 I.9688 J0.
N6670 X2.0472 Y.7537 I.6886 J.6118
N6680 X2.9683 Y1.6748 I0. J.9211
N6690 X2.7677 Y2.2487 I-.9211 J0.
N6700 X2.0472 Y2.5959 I-.7205 J-.5739
N6710 X1.1268 Y1.7096 I0. J-.9211
N6720 G1 Y1.64
N6730 G3 X1.3586 Y1.063 I.9204 J.0348
N6740 G1 Z.1088
N6750 G0 Z1.
N6760 X2.3893 Y1.3832
N6770 Z.1088
N6780 G1 Z.0088
N6790 X2.3592 Y1.3786 Z.0072
N6800 X2.3289 Y1.3758 Z.0056
N6810 X2.2984 Y1.3749 Z.004
N6820 X2.2571 Y1.3766 Z.0018
N6830 X2.2161 Y1.3817 Z-.0003
N6840 X2.1756 Y1.3902 Z-.0025
N6850 X2.136 Y1.402 Z-.0047
N6860 X2.0975 Y1.417 Z-.0068
N6870 X2.0604 Y1.4351 Z-.009
N6880 X2.0249 Y1.4563 Z-.0112
N6890 X1.9913 Y1.4803 Z-.0133
N6900 X1.9597 Y1.507 Z-.0155
N6910 X1.9305 Y1.5362 Z-.0177
N6920 X1.9038 Y1.5678 Z-.0199
N6930 X1.8798 Y1.6014 Z-.022
N6940 X1.8586 Y1.6369 Z-.0242
N6950 X1.8405 Y1.674 Z-.0264
N6960 X1.8255 Y1.7125 Z-.0285
N6970 X1.8137 Y1.7521 Z-.0307
N6980 X1.8052 Y1.7926 Z-.0329
N6990 X1.8001 Y1.8336 Z-.035
N7000 X1.7984 Y1.8749 Z-.0372
N7010 X1.8001 Y1.9162 Z-.0394
N7020 X1.8052 Y1.9572 Z-.0415
N7030 X1.8137 Y1.9977 Z-.0437
N7040 X1.8255 Y2.0373 Z-.0459
N7050 X1.8405 Y2.0758 Z-.048
N7060 X1.8586 Y2.1129 Z-.0502
N7070 X1.8798 Y2.1484 Z-.0523
N7080 X1.9038 Y2.182 Z-.0545
N7090 X1.9305 Y2.2136 Z-.0567
N7100 X1.9597 Y2.2428 Z-.0588
N7110 X1.9913 Y2.2695 Z-.061
N7120 X2.0249 Y2.2935 Z-.0632
N7130 X2.0604 Y2.3147 Z-.0653
N7140 X2.0975 Y2.3328 Z-.0675
N7150 X2.136 Y2.3478 Z-.0696
N7160 X2.1756 Y2.3596 Z-.0718
N7170 X2.2161 Y2.3681 Z-.074
N7180 X2.2571 Y2.3732 Z-.0761
N7190 X2.2984 Y2.3749 Z-.0783
N7200 X2.3397 Y2.3732 Z-.0805
N7210 X2.3807 Y2.3681 Z-.0826
N7220 X2.4212 Y2.3596 Z-.0848
N7230 X2.4608 Y2.3478 Z-.087
N7240 X2.4993 Y2.3328 Z-.0891
N7250 X2.5364 Y2.3147 Z-.0913
N7260 X2.5719 Y2.2935 Z-.0935
N7270 X2.6055 Y2.2695 Z-.0956
N7280 X2.6371 Y2.2428 Z-.0978
N7290 X2.6663 Y2.2136 Z-.1
N7300 X2.693 Y2.182 Z-.1022
N7310 X2.717 Y2.1484 Z-.1043
N7320 X2.7382 Y2.1129 Z-.1065
N7330 X2.7563 Y2.0758 Z-.1087
N7340 X2.7713 Y2.0373 Z-.1108
N7350 X2.7831 Y1.9977 Z-.113
N7360 X2.7916 Y1.9572 Z-.1152
N7370 X2.7967 Y1.9162 Z-.1173
N7380 X2.7984 Y1.8749 Z-.1195
N7390 X2.7966 Y1.8316 Z-.1218
N7400 X2.7909 Y1.7886 Z-.124
N7410 X2.7816 Y1.7462 Z-.1263
N7420 X2.7686 Y1.7049 Z-.1286
N7430 X2.7521 Y1.6647 Z-.1309
N7440 X2.7322 Y1.6262 Z-.1331
N7450 X2.709 Y1.5896 Z-.1354
N7460 X2.6828 Y1.5551 Z-.1377
N7470 X2.6536 Y1.523 Z-.14
N7480 X2.6218 Y1.4935 Z-.1423
N7490 X2.5875 Y1.4669 Z-.1445
N7500 X2.5511 Y1.4434 Z-.1468
N7510 X2.5128 Y1.4231 Z-.1491
N7520 X2.4728 Y1.4063 Z-.1514
N7530 X2.4316 Y1.3929 Z-.1536
N7540 X2.3893 Y1.3832 Z-.1559
N7550 X2.3592 Y1.3786 Z-.1575
N7560 X2.3289 Y1.3758 Z-.1591
N7570 X2.2984 Y1.3749 Z-.1607
N7580 X2.2568 Y1.3766 Z-.1629
N7590 X2.2155 Y1.3818 Z-.1651
N7600 X2.1748 Y1.3904 Z-.1672
N7610 X2.1349 Y1.4023 Z-.1694
N7620 X2.0962 Y1.4176 Z-.1716
N7630 X2.0589 Y1.436 Z-.1738
N7640 X2.0232 Y1.4574 Z-.176
N7650 X1.9895 Y1.4817 Z-.1781
N7660 X1.9578 Y1.5088 Z-.1803
N7670 X1.9286 Y1.5384 Z-.1825
N7680 X2.0785 Y1.6748
N7690 G3 X1.9848 Y1.7685 I-.0937 J0.
N7700 X1.891 Y1.6748 I0. J-.0937
N7710 X2.1098 Y1.456 I.2188 J0.
N7720 X2.3285 Y1.6748 I0. J.2188
N7730 X1.9848 Y2.0185 I-.3437 J0.
N7740 X1.641 Y1.6748 I0. J-.3437
N7750 X2.1098 Y1.206 I.4688 J0.
N7760 X2.5785 Y1.6748 I0. J.4688
N7770 X1.9848 Y2.2685 I-.5937 J0.
N7780 X1.391 Y1.6748 I0. J-.5937
N7790 X2.1098 Y.956 I.7188 J0.
N7800 X2.8285 Y1.6748 I0. J.7188
N7810 X1.9848 Y2.5185 I-.8437 J0.
N7820 X1.141 Y1.6748 I0. J-.8437
N7830 X1.3586 Y1.063 I.9688 J0.
N7840 X2.0472 Y.7537 I.6886 J.6118
N7850 X2.9683 Y1.6748 I0. J.9211
N7860 X2.7677 Y2.2487 I-.9211 J0.
N7870 X2.0472 Y2.5959 I-.7205 J-.5739
N7880 X1.1268 Y1.7096 I0. J-.9211
N7890 G1 Y1.64
N7900 G3 X1.3586 Y1.063 I.9204 J.0348
N7910 G1 Z.0175
N7920 G0 Z1.
N7930 X2.3893 Y1.3832
N7940 Z.0175
N7950 G1 Z-.0825
N7960 X2.3592 Y1.3786 Z-.0841
N7970 X2.3289 Y1.3758 Z-.0857
N7980 X2.2984 Y1.3749 Z-.0873
N7990 X2.2571 Y1.3766 Z-.0895
N8000 X2.2161 Y1.3817 Z-.0916
N8010 X2.1756 Y1.3902 Z-.0938
N8020 X2.136 Y1.402 Z-.096
N8030 X2.0975 Y1.417 Z-.0981
N8040 X2.0604 Y1.4351 Z-.1003
N8050 X2.0249 Y1.4563 Z-.1024
N8060 X1.9913 Y1.4803 Z-.1046
N8070 X1.9597 Y1.507 Z-.1068
N8080 X1.9305 Y1.5362 Z-.1089
N8090 X1.9038 Y1.5678 Z-.1111
N8100 X1.8798 Y1.6014 Z-.1133
N8110 X1.8586 Y1.6369 Z-.1154
N8120 X1.8405 Y1.674 Z-.1176
N8130 X1.8255 Y1.7125 Z-.1197
N8140 X1.8137 Y1.7521 Z-.1219
N8150 X1.8052 Y1.7926 Z-.1241
N8160 X1.8001 Y1.8336 Z-.1262
N8170 X1.7984 Y1.8749 Z-.1284
N8180 X1.8001 Y1.9162 Z-.1306
N8190 X1.8052 Y1.9572 Z-.1327
N8200 X1.8137 Y1.9977 Z-.1349
N8210 X1.8255 Y2.0373 Z-.1371
N8220 X1.8405 Y2.0758 Z-.1392
N8230 X1.8586 Y2.1129 Z-.1414
N8240 X1.8798 Y2.1484 Z-.1436
N8250 X1.9038 Y2.182 Z-.1457
N8260 X1.9305 Y2.2136 Z-.1479
N8270 X1.9597 Y2.2428 Z-.1501
N8280 X1.9913 Y2.2695 Z-.1523
N8290 X2.0249 Y2.2935 Z-.1544
N8300 X2.0604 Y2.3147 Z-.1566
N8310 X2.0975 Y2.3328 Z-.1588
N8320 X2.136 Y2.3478 Z-.1609
N8330 X2.1756 Y2.3596 Z-.1631
N8340 X2.2161 Y2.3681 Z-.1653
N8350 X2.2571 Y2.3732 Z-.1674
N8360 X2.2984 Y2.3749 Z-.1696
N8370 X2.3397 Y2.3732 Z-.1718
N8380 X2.3807 Y2.3681 Z-.1739
N8390 X2.4212 Y2.3596 Z-.1761
N8400 X2.4608 Y2.3478 Z-.1783
N8410 X2.4993 Y2.3328 Z-.1804
N8420 X2.5364 Y2.3147 Z-.1826
N8430 X2.5719 Y2.2935 Z-.1847
N8440 X2.6055 Y2.2695 Z-.1869
N8450 X2.6371 Y2.2428 Z-.1891
N8460 X2.6663 Y2.2136 Z-.1912
N8470 X2.693 Y2.182 Z-.1934
N8480 X2.717 Y2.1484 Z-.1956
N8490 X2.7382 Y2.1129 Z-.1977
N8500 X2.7563 Y2.0758 Z-.1999
N8510 X2.7713 Y2.0373 Z-.202
N8520 X2.7831 Y1.9977 Z-.2042
N8530 X2.7916 Y1.9572 Z-.2064
N8540 X2.7967 Y1.9162 Z-.2085
N8550 X2.7984 Y1.8749 Z-.2107
N8560 X2.7966 Y1.8316 Z-.213
N8570 X2.7909 Y1.7886 Z-.2153
N8580 X2.7816 Y1.7462 Z-.2175
N8590 X2.7686 Y1.7049 Z-.2198
N8600 X2.7521 Y1.6647 Z-.2221
N8610 X2.7322 Y1.6262 Z-.2243
N8620 X2.709 Y1.5896 Z-.2266
N8630 X2.6828 Y1.5551 Z-.2289
N8640 X2.6536 Y1.523 Z-.2312
N8650 X2.6218 Y1.4935 Z-.2334
N8660 X2.5875 Y1.4669 Z-.2357
N8670 X2.5511 Y1.4434 Z-.238
N8680 X2.5128 Y1.4231 Z-.2403
N8690 X2.4728 Y1.4063 Z-.2425
N8700 X2.4316 Y1.3929 Z-.2448
N8710 X2.3893 Y1.3832 Z-.2471
N8720 X2.3592 Y1.3786 Z-.2487
N8730 X2.3289 Y1.3758 Z-.2503
N8740 X2.2984 Y1.3749 Z-.2519
N8750 X2.2568 Y1.3766 Z-.2541
N8760 X2.2155 Y1.3818 Z-.2563
N8770 X2.1748 Y1.3904 Z-.2584
N8780 X2.1349 Y1.4023 Z-.2606
N8790 X2.0962 Y1.4176 Z-.2628
N8800 X2.0589 Y1.436 Z-.265
N8810 X2.0232 Y1.4574 Z-.2672
N8820 X1.9895 Y1.4817 Z-.2693
N8830 X1.9578 Y1.5088 Z-.2715
N8840 X1.9286 Y1.5384 Z-.2737
N8850 X2.0785 Y1.6748
N8860 G3 X1.9848 Y1.7685 I-.0937 J0.
N8870 X1.891 Y1.6748 I0. J-.0937
N8880 X2.1098 Y1.456 I.2188 J0.
N8890 X2.3285 Y1.6748 I0. J.2188
N8900 X1.9848 Y2.0185 I-.3437 J0.
N8910 X1.641 Y1.6748 I0. J-.3437
N8920 X2.1098 Y1.206 I.4688 J0.
N8930 X2.5785 Y1.6748 I0. J.4688
N8940 X1.9848 Y2.2685 I-.5937 J0.
N8950 X1.391 Y1.6748 I0. J-.5937
N8960 X2.1098 Y.956 I.7188 J0.
N8970 X2.8285 Y1.6748 I0. J.7188
N8980 X1.9848 Y2.5185 I-.8437 J0.
N8990 X1.141 Y1.6748 I0. J-.8437
N9000 X1.3586 Y1.063 I.9688 J0.
N9010 X2.0472 Y.7537 I.6886 J.6118
N9020 X2.9683 Y1.6748 I0. J.9211
N9030 X2.7677 Y2.2487 I-.9211 J0.
N9040 X2.0472 Y2.5959 I-.7205 J-.5739
N9050 X1.1268 Y1.7096 I0. J-.9211
N9060 G1 Y1.64
N9070 G3 X1.3586 Y1.063 I.9204 J.0348
N9080 G1 Z-.0737
N9090 G0 Z1.
N9100 X2.3893 Y1.3832
N9110 Z-.0737
N9120 G1 Z-.1737
N9130 X2.3592 Y1.3786 Z-.1753
N9140 X2.3289 Y1.3758 Z-.1769
N9150 X2.2984 Y1.3749 Z-.1785
N9160 X2.2571 Y1.3766 Z-.1807
N9170 X2.2161 Y1.3817 Z-.1828
N9180 X2.1756 Y1.3902 Z-.185
N9190 X2.136 Y1.402 Z-.1872
N9200 X2.0975 Y1.417 Z-.1893
N9210 X2.0604 Y1.4351 Z-.1915
N9220 X2.0249 Y1.4563 Z-.1937
N9230 X1.9913 Y1.4803 Z-.1958
N9240 X1.9597 Y1.507 Z-.198
N9250 X1.9305 Y1.5362 Z-.2002
N9260 X1.9038 Y1.5678 Z-.2024
N9270 X1.8798 Y1.6014 Z-.2045
N9280 X1.8586 Y1.6369 Z-.2067
N9290 X1.8405 Y1.674 Z-.2089
N9300 X1.8255 Y1.7125 Z-.211
N9310 X1.8137 Y1.7521 Z-.2132
N9320 X1.8052 Y1.7926 Z-.2154
N9330 X1.8001 Y1.8336 Z-.2175
N9340 X1.7984 Y1.8749 Z-.2197
N9350 X1.8001 Y1.9162 Z-.2219
N9360 X1.8052 Y1.9572 Z-.224
N9370 X1.8137 Y1.9977 Z-.2262
N9380 X1.8255 Y2.0373 Z-.2284
N9390 X1.8405 Y2.0758 Z-.2305
N9400 X1.8586 Y2.1129 Z-.2327
N9410 X1.8798 Y2.1484 Z-.2348
N9420 X1.9038 Y2.182 Z-.237
N9430 X1.9305 Y2.2136 Z-.2392
N9440 X1.9597 Y2.2428 Z-.2413
N9450 X1.9913 Y2.2695 Z-.2435
N9460 X2.0249 Y2.2935 Z-.2457
N9470 X2.0604 Y2.3147 Z-.2478
N9480 X2.0975 Y2.3328 Z-.25
N9490 X2.136 Y2.3478 Z-.2521
N9500 X2.1756 Y2.3596 Z-.2543
N9510 X2.2161 Y2.3681 Z-.2565
N9520 X2.2571 Y2.3732 Z-.2586
N9530 X2.2984 Y2.3749 Z-.2608
N9540 X2.3397 Y2.3732 Z-.263
N9550 X2.3807 Y2.3681 Z-.2651
N9560 X2.4212 Y2.3596 Z-.2673
N9570 X2.4608 Y2.3478 Z-.2695
N9580 X2.4993 Y2.3328 Z-.2716
N9590 X2.5364 Y2.3147 Z-.2738
N9600 X2.5719 Y2.2935 Z-.276
N9610 X2.6055 Y2.2695 Z-.2781
N9620 X2.6371 Y2.2428 Z-.2803
N9630 X2.6663 Y2.2136 Z-.2825
N9640 X2.693 Y2.182 Z-.2847
N9650 X2.717 Y2.1484 Z-.2868
N9660 X2.7382 Y2.1129 Z-.289
N9670 X2.7563 Y2.0758 Z-.2912
N9680 X2.7713 Y2.0373 Z-.2933
N9690 X2.7831 Y1.9977 Z-.2955
N9700 X2.7916 Y1.9572 Z-.2977
N9710 X2.7967 Y1.9162 Z-.2998
N9720 X2.7984 Y1.8749 Z-.302
N9730 X2.7966 Y1.8316 Z-.3043
N9740 X2.7909 Y1.7886 Z-.3065
N9750 X2.7816 Y1.7462 Z-.3088
N9760 X2.7686 Y1.7049 Z-.3111
N9770 X2.7521 Y1.6647 Z-.3134
N9780 X2.7322 Y1.6262 Z-.3156
N9790 X2.709 Y1.5896 Z-.3179
N9800 X2.6828 Y1.5551 Z-.3202
N9810 X2.6536 Y1.523 Z-.3225
N9820 X2.6218 Y1.4935 Z-.3247
N9830 X2.5875 Y1.4669 Z-.327
N9840 X2.5511 Y1.4434 Z-.3293
N9850 X2.5128 Y1.4231 Z-.3316
N9860 X2.4728 Y1.4063 Z-.3338
N9870 X2.4316 Y1.3929 Z-.3361
N9880 X2.3893 Y1.3832 Z-.3384
N9890 X2.3592 Y1.3786 Z-.34
N9900 X2.3289 Y1.3758 Z-.3416
N9910 X2.2984 Y1.3749 Z-.3432
N9920 X2.2568 Y1.3766 Z-.3454
N9930 X2.2155 Y1.3818 Z-.3476
N9940 X2.1748 Y1.3904 Z-.3497
N9950 X2.1349 Y1.4023 Z-.3519
N9960 X2.0962 Y1.4176 Z-.3541
N9970 X2.0589 Y1.436 Z-.3563
N9980 X2.0232 Y1.4574 Z-.3585
N9990 X1.9895 Y1.4817 Z-.3606
N100 X1.9578 Y1.5088 Z-.3628
N110 X1.9286 Y1.5384 Z-.365
N120 X2.0785 Y1.6748
N130 G3 X1.9848 Y1.7685 I-.0937 J0.
N140 X1.891 Y1.6748 I0. J-.0937
N150 X2.1098 Y1.456 I.2188 J0.
N160 X2.3285 Y1.6748 I0. J.2188
N170 X1.9848 Y2.0185 I-.3437 J0.
N180 X1.641 Y1.6748 I0. J-.3437
N190 X2.1098 Y1.206 I.4688 J0.
N200 X2.5785 Y1.6748 I0. J.4688
N210 X1.9848 Y2.2685 I-.5937 J0.
N220 X1.391 Y1.6748 I0. J-.5937
N230 X2.1098 Y.956 I.7188 J0.
N240 X2.8285 Y1.6748 I0. J.7188
N250 X1.9848 Y2.5185 I-.8437 J0.
N260 X1.141 Y1.6748 I0. J-.8437
N270 X1.3586 Y1.063 I.9688 J0.
N280 X2.0472 Y.7537 I.6886 J.6118
N290 X2.9683 Y1.6748 I0. J.9211
N300 X2.7677 Y2.2487 I-.9211 J0.
N310 X2.0472 Y2.5959 I-.7205 J-.5739
N320 X1.1268 Y1.7096 I0. J-.9211
N330 G1 Y1.64
N340 G3 X1.3586 Y1.063 I.9204 J.0348
N350 G1 Z-.165
N360 G0 Z1.
N370 X2.3893 Y1.3832
N380 Z-.165
N390 G1 Z-.265
N400 X2.3592 Y1.3786 Z-.2666
N410 X2.3289 Y1.3758 Z-.2682
N420 X2.2984 Y1.3749 Z-.2698
N430 X2.2571 Y1.3766 Z-.272
N440 X2.2161 Y1.3817 Z-.2741
N450 X2.1756 Y1.3902 Z-.2763
N460 X2.136 Y1.402 Z-.2785
N470 X2.0975 Y1.417 Z-.2806
N480 X2.0604 Y1.4351 Z-.2828
N490 X2.0249 Y1.4563 Z-.2849
N500 X1.9913 Y1.4803 Z-.2871
N510 X1.9597 Y1.507 Z-.2893
N520 X1.9305 Y1.5362 Z-.2914
N530 X1.9038 Y1.5678 Z-.2936
N540 X1.8798 Y1.6014 Z-.2958
N550 X1.8586 Y1.6369 Z-.2979
N560 X1.8405 Y1.674 Z-.3001
N570 X1.8255 Y1.7125 Z-.3022
N580 X1.8137 Y1.7521 Z-.3044
N590 X1.8052 Y1.7926 Z-.3066
N600 X1.8001 Y1.8336 Z-.3087
N610 X1.7984 Y1.8749 Z-.3109
N620 X1.8001 Y1.9162 Z-.3131
N630 X1.8052 Y1.9572 Z-.3152
N640 X1.8137 Y1.9977 Z-.3174
N650 X1.8255 Y2.0373 Z-.3196
N660 X1.8405 Y2.0758 Z-.3217
N670 X1.8586 Y2.1129 Z-.3239
N680 X1.8798 Y2.1484 Z-.3261
N690 X1.9038 Y2.182 Z-.3282
N700 X1.9305 Y2.2136 Z-.3304
N710 X1.9597 Y2.2428 Z-.3326
N720 X1.9913 Y2.2695 Z-.3348
N730 X2.0249 Y2.2935 Z-.3369
N740 X2.0604 Y2.3147 Z-.3391
N750 X2.0975 Y2.3328 Z-.3413
N760 X2.136 Y2.3478 Z-.3434
N770 X2.1756 Y2.3596 Z-.3456
N780 X2.2161 Y2.3681 Z-.3478
N790 X2.2571 Y2.3732 Z-.3499
N800 X2.2984 Y2.3749 Z-.3521
N810 X2.3397 Y2.3732 Z-.3543
N820 X2.3807 Y2.3681 Z-.3564
N830 X2.4212 Y2.3596 Z-.3586
N840 X2.4608 Y2.3478 Z-.3608
N850 X2.4993 Y2.3328 Z-.3629
N860 X2.5364 Y2.3147 Z-.3651
N870 X2.5719 Y2.2935 Z-.3672
N880 X2.6055 Y2.2695 Z-.3694
N890 X2.6371 Y2.2428 Z-.3716
N900 X2.6663 Y2.2136 Z-.3737
N910 X2.693 Y2.182 Z-.3759
N920 X2.717 Y2.1484 Z-.3781
N930 X2.7382 Y2.1129 Z-.3802
N940 X2.7563 Y2.0758 Z-.3824
N950 X2.7713 Y2.0373 Z-.3845
N960 X2.7831 Y1.9977 Z-.3867
N970 X2.7916 Y1.9572 Z-.3889
N980 X2.7967 Y1.9162 Z-.391
N990 X2.7984 Y1.8749 Z-.3932
N1000 X2.7966 Y1.8316 Z-.3955
N1010 X2.7909 Y1.7886 Z-.3977
N1020 X2.7816 Y1.7462 Z-.4
N1030 X2.7686 Y1.7049 Z-.4023
N1040 X2.7521 Y1.6647 Z-.4046
N1050 X2.7322 Y1.6262 Z-.4068
N1060 X2.709 Y1.5896 Z-.4091
N1070 X2.6828 Y1.5551 Z-.4114
N1080 X2.6536 Y1.523 Z-.4137
N1090 X2.6218 Y1.4935 Z-.4159
N1100 X2.5875 Y1.4669 Z-.4182
N1110 X2.5511 Y1.4434 Z-.4205
N1120 X2.5128 Y1.4231 Z-.4228
N1130 X2.4728 Y1.4063 Z-.425
N1140 X2.4316 Y1.3929 Z-.4273
N1150 X2.3893 Y1.3832 Z-.4296
N1160 X2.3592 Y1.3786 Z-.4312
N1170 X2.3289 Y1.3758 Z-.4328
N1180 X2.2984 Y1.3749 Z-.4344
N1190 X2.2568 Y1.3766 Z-.4366
N1200 X2.2155 Y1.3818 Z-.4388
N1210 X2.1748 Y1.3904 Z-.4409
N1220 X2.1349 Y1.4023 Z-.4431
N1230 X2.0962 Y1.4176 Z-.4453
N1240 X2.0589 Y1.436 Z-.4475
N1250 X2.0232 Y1.4574 Z-.4497
N1260 X1.9895 Y1.4817 Z-.4518
N1270 X1.9578 Y1.5088 Z-.454
N1280 X1.9286 Y1.5384 Z-.4562
N1290 X2.0785 Y1.6748
N1300 G3 X1.9848 Y1.7685 I-.0937 J0.
N1310 X1.891 Y1.6748 I0. J-.0937
N1320 X2.1098 Y1.456 I.2188 J0.
N1330 X2.3285 Y1.6748 I0. J.2188
N1340 X1.9848 Y2.0185 I-.3437 J0.
N1350 X1.641 Y1.6748 I0. J-.3437
N1360 X2.1098 Y1.206 I.4688 J0.
N1370 X2.5785 Y1.6748 I0. J.4688
N1380 X1.9848 Y2.2685 I-.5937 J0.
N1390 X1.391 Y1.6748 I0. J-.5937
N1400 X2.1098 Y.956 I.7188 J0.
N1410 X2.8285 Y1.6748 I0. J.7188
N1420 X1.9848 Y2.5185 I-.8437 J0.
N1430 X1.141 Y1.6748 I0. J-.8437
N1440 X1.3586 Y1.063 I.9688 J0.
N1450 X2.0472 Y.7537 I.6886 J.6118
N1460 X2.9683 Y1.6748 I0. J.9211
N1470 X2.7677 Y2.2487 I-.9211 J0.
N1480 X2.0472 Y2.5959 I-.7205 J-.5739
N1490 X1.1268 Y1.7096 I0. J-.9211
N1500 G1 Y1.64
N1510 G3 X1.3586 Y1.063 I.9204 J.0348
N1520 G1 Z-.2562
N1530 G0 Z1.
N1540 X2.3893 Y1.3832
N1550 Z-.2562
N1560 G1 Z-.3563
N1570 X2.3592 Y1.3786 Z-.3579
N1580 X2.3289 Y1.3758 Z-.3595
N1590 X2.2984 Y1.3749 Z-.3611
N1600 X2.2571 Y1.3766 Z-.3633
N1610 X2.2161 Y1.3817 Z-.3654
N1620 X2.1756 Y1.3902 Z-.3676
N1630 X2.136 Y1.402 Z-.3698
N1640 X2.0975 Y1.417 Z-.3719
N1650 X2.0604 Y1.4351 Z-.3741
N1660 X2.0249 Y1.4563 Z-.3762
N1670 X1.9913 Y1.4803 Z-.3784
N1680 X1.9597 Y1.507 Z-.3806
N1690 X1.9305 Y1.5362 Z-.3827
N1700 X1.9038 Y1.5678 Z-.3849
N1710 X1.8798 Y1.6014 Z-.3871
N1720 X1.8586 Y1.6369 Z-.3892
N1730 X1.8405 Y1.674 Z-.3914
N1740 X1.8255 Y1.7125 Z-.3935
N1750 X1.8137 Y1.7521 Z-.3957
N1760 X1.8052 Y1.7926 Z-.3979
N1770 X1.8001 Y1.8336 Z-.4
N1780 X1.7984 Y1.8749 Z-.4022
N1790 X1.8001 Y1.9162 Z-.4044
N1800 X1.8052 Y1.9572 Z-.4065
N1810 X1.8137 Y1.9977 Z-.4087
N1820 X1.8255 Y2.0373 Z-.4109
N1830 X1.8405 Y2.0758 Z-.413
N1840 X1.8586 Y2.1129 Z-.4152
N1850 X1.8798 Y2.1484 Z-.4174
N1860 X1.9038 Y2.182 Z-.4195
N1870 X1.9305 Y2.2136 Z-.4217
N1880 X1.9597 Y2.2428 Z-.4239
N1890 X1.9913 Y2.2695 Z-.4261
N1900 X2.0249 Y2.2935 Z-.4282
N1910 X2.0604 Y2.3147 Z-.4304
N1920 X2.0975 Y2.3328 Z-.4326
N1930 X2.136 Y2.3478 Z-.4347
N1940 X2.1756 Y2.3596 Z-.4369
N1950 X2.2161 Y2.3681 Z-.4391
N1960 X2.2571 Y2.3732 Z-.4412
N1970 X2.2984 Y2.3749 Z-.4434
N1980 X2.3397 Y2.3732 Z-.4456
N1990 X2.3807 Y2.3681 Z-.4477
N2000 X2.4212 Y2.3596 Z-.4499
N2010 X2.4608 Y2.3478 Z-.4521
N2020 X2.4993 Y2.3328 Z-.4542
N2030 X2.5364 Y2.3147 Z-.4564
N2040 X2.5719 Y2.2935 Z-.4585
N2050 X2.6055 Y2.2695 Z-.4607
N2060 X2.6371 Y2.2428 Z-.4629
N2070 X2.6663 Y2.2136 Z-.465
N2080 X2.693 Y2.182 Z-.4672
N2090 X2.717 Y2.1484 Z-.4694
N2100 X2.7382 Y2.1129 Z-.4715
N2110 X2.7563 Y2.0758 Z-.4737
N2120 X2.7713 Y2.0373 Z-.4758
N2130 X2.7831 Y1.9977 Z-.478
N2140 X2.7916 Y1.9572 Z-.4802
N2150 X2.7967 Y1.9162 Z-.4823
N2160 X2.7984 Y1.8749 Z-.4845
N2170 X2.7966 Y1.8316 Z-.4868
N2180 X2.7909 Y1.7886 Z-.489
N2190 X2.7816 Y1.7462 Z-.4913
N2200 X2.7686 Y1.7049 Z-.4936
N2210 X2.7521 Y1.6647 Z-.4959
N2220 X2.7322 Y1.6262 Z-.4981
N2230 X2.709 Y1.5896 Z-.5004
N2240 X2.6828 Y1.5551 Z-.5027
N2250 X2.6536 Y1.523 Z-.505
N2260 X2.6218 Y1.4935 Z-.5072
N2270 X2.5875 Y1.4669 Z-.5095
N2280 X2.5511 Y1.4434 Z-.5118
N2290 X2.5128 Y1.4231 Z-.5141
N2300 X2.4728 Y1.4063 Z-.5163
N2310 X2.4316 Y1.3929 Z-.5186
N2320 X2.3893 Y1.3832 Z-.5209
N2330 X2.3592 Y1.3786 Z-.5225
N2340 X2.3289 Y1.3758 Z-.5241
N2350 X2.2984 Y1.3749 Z-.5257
N2360 X2.2568 Y1.3766 Z-.5279
N2370 X2.2155 Y1.3818 Z-.5301
N2380 X2.1748 Y1.3904 Z-.5322
N2390 X2.1349 Y1.4023 Z-.5344
N2400 X2.0962 Y1.4176 Z-.5366
N2410 X2.0589 Y1.436 Z-.5388
N2420 X2.0232 Y1.4574 Z-.541
N2430 X1.9895 Y1.4817 Z-.5431
N2440 X1.9578 Y1.5088 Z-.5453
N2450 X1.9286 Y1.5384 Z-.5475
N2460 X2.0785 Y1.6748
N2470 G3 X1.9848 Y1.7685 I-.0937 J0.
N2480 X1.891 Y1.6748 I0. J-.0937
N2490 X2.1098 Y1.456 I.2188 J0.
N2500 X2.3285 Y1.6748 I0. J.2188
N2510 X1.9848 Y2.0185 I-.3437 J0.
N2520 X1.641 Y1.6748 I0. J-.3437
N2530 X2.1098 Y1.206 I.4688 J0.
N2540 X2.5785 Y1.6748 I0. J.4688
N2550 X1.9848 Y2.2685 I-.5937 J0.
N2560 X1.391 Y1.6748 I0. J-.5937
N2570 X2.1098 Y.956 I.7188 J0.
N2580 X2.8285 Y1.6748 I0. J.7188
N2590 X1.9848 Y2.5185 I-.8437 J0.
N2600 X1.141 Y1.6748 I0. J-.8437
N2610 X1.3586 Y1.063 I.9688 J0.
N2620 X2.0472 Y.7537 I.6886 J.6118
N2630 X2.9683 Y1.6748 I0. J.9211
N2640 X2.7677 Y2.2487 I-.9211 J0.
N2650 X2.0472 Y2.5959 I-.7205 J-.5739
N2660 X1.1268 Y1.7096 I0. J-.9211
N2670 G1 Y1.64
N2680 G3 X1.3586 Y1.063 I.9204 J.0348
N2690 G1 Z-.3475
N2700 G0 Z1.
N2710 X2.3893 Y1.3832
N2720 Z-.3475
N2730 G1 Z-.4475
N2740 X2.3592 Y1.3786 Z-.4491
N2750 X2.3289 Y1.3758 Z-.4507
N2760 X2.2984 Y1.3749 Z-.4523
N2770 X2.2571 Y1.3766 Z-.4545
N2780 X2.2161 Y1.3817 Z-.4566
N2790 X2.1756 Y1.3902 Z-.4588
N2800 X2.136 Y1.402 Z-.461
N2810 X2.0975 Y1.417 Z-.4631
N2820 X2.0604 Y1.4351 Z-.4653
N2830 X2.0249 Y1.4563 Z-.4674
N2840 X1.9913 Y1.4803 Z-.4696
N2850 X1.9597 Y1.507 Z-.4718
N2860 X1.9305 Y1.5362 Z-.4739
N2870 X1.9038 Y1.5678 Z-.4761
N2880 X1.8798 Y1.6014 Z-.4783
N2890 X1.8586 Y1.6369 Z-.4804
N2900 X1.8405 Y1.674 Z-.4826
N2910 X1.8255 Y1.7125 Z-.4847
N2920 X1.8137 Y1.7521 Z-.4869
N2930 X1.8052 Y1.7926 Z-.4891
N2940 X1.8001 Y1.8336 Z-.4912
N2950 X1.7984 Y1.8749 Z-.4934
N2960 X1.8001 Y1.9162 Z-.4956
N2970 X1.8052 Y1.9572 Z-.4977
N2980 X1.8137 Y1.9977 Z-.4999
N2990 X1.8255 Y2.0373 Z-.5021
N3000 X1.8405 Y2.0758 Z-.5042
N3010 X1.8586 Y2.1129 Z-.5064
N3020 X1.8798 Y2.1484 Z-.5086
N3030 X1.9038 Y2.182 Z-.5107
N3040 X1.9305 Y2.2136 Z-.5129
N3050 X1.9597 Y2.2428 Z-.5151
N3060 X1.9913 Y2.2695 Z-.5173
N3070 X2.0249 Y2.2935 Z-.5194
N3080 X2.0604 Y2.3147 Z-.5216
N3090 X2.0975 Y2.3328 Z-.5238
N3100 X2.136 Y2.3478 Z-.5259
N3110 X2.1756 Y2.3596 Z-.5281
N3120 X2.2161 Y2.3681 Z-.5303
N3130 X2.2571 Y2.3732 Z-.5324
N3140 X2.2984 Y2.3749 Z-.5346
N3150 X2.3397 Y2.3732 Z-.5368
N3160 X2.3807 Y2.3681 Z-.5389
N3170 X2.4212 Y2.3596 Z-.5411
N3180 X2.4608 Y2.3478 Z-.5433
N3190 X2.4993 Y2.3328 Z-.5454
N3200 X2.5364 Y2.3147 Z-.5476
N3210 X2.5719 Y2.2935 Z-.5497
N3220 X2.6055 Y2.2695 Z-.5519
N3230 X2.6371 Y2.2428 Z-.5541
N3240 X2.6663 Y2.2136 Z-.5562
N3250 X2.693 Y2.182 Z-.5584
N3260 X2.717 Y2.1484 Z-.5606
N3270 X2.7382 Y2.1129 Z-.5627
N3280 X2.7563 Y2.0758 Z-.5649
N3290 X2.7713 Y2.0373 Z-.567
N3300 X2.7831 Y1.9977 Z-.5692
N3310 X2.7916 Y1.9572 Z-.5714
N3320 X2.7967 Y1.9162 Z-.5735
N3330 X2.7984 Y1.8749 Z-.5757
N3340 X2.7966 Y1.8316 Z-.578
N3350 X2.7909 Y1.7886 Z-.5802
N3360 X2.7816 Y1.7462 Z-.5825
N3370 X2.7686 Y1.7049 Z-.5848
N3380 X2.7521 Y1.6647 Z-.5871
N3390 X2.7322 Y1.6262 Z-.5894
N3400 X2.709 Y1.5896 Z-.5916
N3410 X2.6828 Y1.5551 Z-.5939
N3420 X2.6536 Y1.523 Z-.5962
N3430 X2.6218 Y1.4935 Z-.5984
N3440 X2.5875 Y1.4669 Z-.6007
N3450 X2.5511 Y1.4434 Z-.603
N3460 X2.5128 Y1.4231 Z-.6053
N3470 X2.4728 Y1.4063 Z-.6076
N3480 X2.4316 Y1.3929 Z-.6098
N3490 X2.3893 Y1.3832 Z-.6121
N3500 X2.3592 Y1.3786 Z-.6137
N3510 X2.3289 Y1.3758 Z-.6153
N3520 X2.2984 Y1.3749 Z-.6169
N3530 X2.2568 Y1.3766 Z-.6191
N3540 X2.2155 Y1.3818 Z-.6213
N3550 X2.1748 Y1.3904 Z-.6235
N3560 X2.1349 Y1.4023 Z-.6257
N3570 X2.0962 Y1.4176 Z-.6279
N3580 X2.0589 Y1.436 Z-.63
N3590 X2.0232 Y1.4574 Z-.6322
N3600 X1.9895 Y1.4817 Z-.6344
N3610 X1.9578 Y1.5088 Z-.6366
N3620 X1.9286 Y1.5384 Z-.6388
N3630 X2.0785 Y1.6748
N3640 G3 X1.9848 Y1.7685 I-.0937 J0.
N3650 X1.891 Y1.6748 I0. J-.0937
N3660 X2.1098 Y1.456 I.2188 J0.
N3670 X2.3285 Y1.6748 I0. J.2188
N3680 X1.9848 Y2.0185 I-.3437 J0.
N3690 X1.641 Y1.6748 I0. J-.3437
N3700 X2.1098 Y1.206 I.4688 J0.
N3710 X2.5785 Y1.6748 I0. J.4688
N3720 X1.9848 Y2.2685 I-.5937 J0.
N3730 X1.391 Y1.6748 I0. J-.5937
N3740 X2.1098 Y.956 I.7188 J0.
N3750 X2.8285 Y1.6748 I0. J.7188
N3760 X1.9848 Y2.5185 I-.8437 J0.
N3770 X1.141 Y1.6748 I0. J-.8437
N3780 X1.3586 Y1.063 I.9688 J0.
N3790 X2.0472 Y.7537 I.6886 J.6118
N3800 X2.9683 Y1.6748 I0. J.9211
N3810 X2.7677 Y2.2487 I-.9211 J0.
N3820 X2.0472 Y2.5959 I-.7205 J-.5739
N3830 X1.1268 Y1.7096 I0. J-.9211
N3840 G1 Y1.64
N3850 G3 X1.3586 Y1.063 I.9204 J.0348
N3860 G1 Z-.4387
N3870 G0 Z1.
N3880 X2.3893 Y1.3832
N3890 Z-.4387
N3900 G1 Z-.5387
N3910 X2.3592 Y1.3786 Z-.5403
N3920 X2.3289 Y1.3758 Z-.5419
N3930 X2.2984 Y1.3749 Z-.5435
N3940 X2.2571 Y1.3766 Z-.5457
N3950 X2.2161 Y1.3817 Z-.5478
N3960 X2.1756 Y1.3902 Z-.55
N3970 X2.136 Y1.402 Z-.5522
N3980 X2.0975 Y1.417 Z-.5543
N3990 X2.0604 Y1.4351 Z-.5565
N4000 X2.0249 Y1.4563 Z-.5587
N4010 X1.9913 Y1.4803 Z-.5608
N4020 X1.9597 Y1.507 Z-.563
N4030 X1.9305 Y1.5362 Z-.5652
N4040 X1.9038 Y1.5678 Z-.5674
N4050 X1.8798 Y1.6014 Z-.5695
N4060 X1.8586 Y1.6369 Z-.5717
N4070 X1.8405 Y1.674 Z-.5739
N4080 X1.8255 Y1.7125 Z-.576
N4090 X1.8137 Y1.7521 Z-.5782
N4100 X1.8052 Y1.7926 Z-.5804
N4110 X1.8001 Y1.8336 Z-.5825
N4120 X1.7984 Y1.8749 Z-.5847
N4130 X1.8001 Y1.9162 Z-.5869
N4140 X1.8052 Y1.9572 Z-.589
N4150 X1.8137 Y1.9977 Z-.5912
N4160 X1.8255 Y2.0373 Z-.5934
N4170 X1.8405 Y2.0758 Z-.5955
N4180 X1.8586 Y2.1129 Z-.5977
N4190 X1.8798 Y2.1484 Z-.5998
N4200 X1.9038 Y2.182 Z-.602
N4210 X1.9305 Y2.2136 Z-.6042
N4220 X1.9597 Y2.2428 Z-.6063
N4230 X1.9913 Y2.2695 Z-.6085
N4240 X2.0249 Y2.2935 Z-.6107
N4250 X2.0604 Y2.3147 Z-.6128
N4260 X2.0975 Y2.3328 Z-.615
N4270 X2.136 Y2.3478 Z-.6171
N4280 X2.1756 Y2.3596 Z-.6193
N4290 X2.2161 Y2.3681 Z-.6215
N4300 X2.2571 Y2.3732 Z-.6236
N4310 X2.2984 Y2.3749 Z-.6258
N4320 X2.3397 Y2.3732 Z-.628
N4330 X2.3807 Y2.3681 Z-.6301
N4340 X2.4212 Y2.3596 Z-.6323
N4350 X2.4608 Y2.3478 Z-.6345
N4360 X2.4993 Y2.3328 Z-.6366
N4370 X2.5364 Y2.3147 Z-.6388
N4380 X2.5719 Y2.2935 Z-.641
N4390 X2.6055 Y2.2695 Z-.6431
N4400 X2.6371 Y2.2428 Z-.6453
N4410 X2.6663 Y2.2136 Z-.6475
N4420 X2.693 Y2.182 Z-.6497
N4430 X2.717 Y2.1484 Z-.6518
N4440 X2.7382 Y2.1129 Z-.654
N4450 X2.7563 Y2.0758 Z-.6562
N4460 X2.7713 Y2.0373 Z-.6583
N4470 X2.7831 Y1.9977 Z-.6605
N4480 X2.7916 Y1.9572 Z-.6627
N4490 X2.7967 Y1.9162 Z-.6648
N4500 X2.7984 Y1.8749 Z-.667
N4510 X2.7966 Y1.8316 Z-.6693
N4520 X2.7909 Y1.7886 Z-.6716
N4530 X2.7816 Y1.7462 Z-.6738
N4540 X2.7686 Y1.7049 Z-.6761
N4550 X2.7521 Y1.6647 Z-.6784
N4560 X2.7322 Y1.6262 Z-.6806
N4570 X2.709 Y1.5896 Z-.6829
N4580 X2.6828 Y1.5551 Z-.6852
N4590 X2.6536 Y1.523 Z-.6875
N4600 X2.6218 Y1.4935 Z-.6898
N4610 X2.5875 Y1.4669 Z-.692
N4620 X2.5511 Y1.4434 Z-.6943
N4630 X2.5128 Y1.4231 Z-.6966
N4640 X2.4728 Y1.4063 Z-.6988
N4650 X2.4316 Y1.3929 Z-.7011
N4660 X2.3893 Y1.3832 Z-.7034
N4670 X2.3592 Y1.3786 Z-.705
N4680 X2.3289 Y1.3758 Z-.7066
N4690 X2.2984 Y1.3749 Z-.7082
N4700 X2.2568 Y1.3766 Z-.7104
N4710 X2.2155 Y1.3818 Z-.7126
N4720 X2.1748 Y1.3904 Z-.7147
N4730 X2.1349 Y1.4023 Z-.7169
N4740 X2.0962 Y1.4176 Z-.7191
N4750 X2.0589 Y1.436 Z-.7213
N4760 X2.0232 Y1.4574 Z-.7235
N4770 X1.9895 Y1.4817 Z-.7256
N4780 X1.9578 Y1.5088 Z-.7278
N4790 X1.9286 Y1.5384 Z-.73
N4800 X2.0785 Y1.6748
N4810 G3 X1.9848 Y1.7685 I-.0937 J0.
N4820 X1.891 Y1.6748 I0. J-.0937
N4830 X2.1098 Y1.456 I.2188 J0.
N4840 X2.3285 Y1.6748 I0. J.2188
N4850 X1.9848 Y2.0185 I-.3437 J0.
N4860 X1.641 Y1.6748 I0. J-.3437
N4870 X2.1098 Y1.206 I.4688 J0.
N4880 X2.5785 Y1.6748 I0. J.4688
N4890 X1.9848 Y2.2685 I-.5937 J0.
N4900 X1.391 Y1.6748 I0. J-.5937
N4910 X2.1098 Y.956 I.7188 J0.
N4920 X2.8285 Y1.6748 I0. J.7188
N4930 X1.9848 Y2.5185 I-.8437 J0.
N4940 X1.141 Y1.6748 I0. J-.8437
N4950 X1.3586 Y1.063 I.9688 J0.
N4960 X2.0472 Y.7537 I.6886 J.6118
N4970 X2.9683 Y1.6748 I0. J.9211
N4980 X2.7677 Y2.2487 I-.9211 J0.
N4990 X2.0472 Y2.5959 I-.7205 J-.5739
N5000 X1.1268 Y1.7096 I0. J-.9211
N5010 G1 Y1.64
N5020 G3 X1.3586 Y1.063 I.9204 J.0348
N5030 G1 Z-.53
N5040 G0 Z1.
N5050 X2.7755 Y2.2549
N5060 Z-.4387
N5070 G1 Z-.73
N5080 G3 X2.0472 Y2.6059 I-.7283 J-.5801
N5090 X1.1168 Y1.7098 I0. J-.9311
N5100 G1 Y1.6398
N5110 G3 X1.8694 Y.7608 I.9304 J.035
N5120 X2.0472 Y.7437 I.1778 J.914
N5130 X2.9783 Y1.6748 I0. J.9311
N5140 X2.7755 Y2.2549 I-.9311 J0.
N5150 G1 Z-.53
N5160 G0 Z2.
N5170 M5
N5180 G91 G28 Z0. M9
N5190 G28 X0. Y0.
N5200 M30
%
