%
O0000(POCKET CHECK)
(DATE=DD-MM-YY - 11-05-17 TIME=HH:MM - 14:59)
(MCX FILE - \\KHENSU\HOME03\JTALIK\DESKTOP\GITHUB\ELECTRIC-FEED-SYSTEM\2.2 KN\CAD\V6 MANUFACTURING\FOR MASTERCAM\UPPER SEAL PLATE\UPPER SEAL PLATE V6.EMCX-9)
(NC FILE - \\KHENSU\HOME03\JTALIK\DESKTOP\GITHUB\ELECTRIC-FEED-SYSTEM\2.2 KN\CAD\V6 MANUFACTURING\FOR MASTERCAM\UPPER SEAL PLATE\POCKET CHECK.NC)
(MATERIAL - ALUMINUM INCH - 2024)
( T241 |  3/4 FLAT ENDMILL | H241 )
( T2 |  1/4 CENTERDRILL | H2 )
( T107 |  17/64 DRILL | H107 )
( T88 |  NO. 9 DRILL | H88 )
( T103 |  LTR. D DRILL | H103 )
( T239 |  1/2 FLAT ENDMILL | H239 )
( T232 |  1/8 FLAT ENDMILL | H232 )
N100 G20
N102 G0 G17 G40 G49 G80 G90
N104 T241 M6
N106 G0 G90 G54 X-.8151 Y5.2946 A0. S713 M3
N108 G43 H241 Z2. M8
N110 Z.2
N112 G1 Z-.03 F6.42
N114 X5.7931
N116 G0 Z.22
N118 X-.8151 Y4.7837
N120 Z.17
N122 G1 Z-.03
N124 X5.7931
N126 G0 Z.22
N128 X-.8151 Y4.2728
N130 Z.17
N132 G1 Z-.03
N134 X5.7931
N136 G0 Z.22
N138 X-.8151 Y3.7619
N140 Z.17
N142 G1 Z-.03
N144 X5.7931
N146 G0 Z.22
N148 X-.8151 Y3.2509
N150 Z.17
N152 G1 Z-.03
N154 X5.7931
N156 G0 Z.22
N158 X-.8151 Y2.74
N160 Z.17
N162 G1 Z-.03
N164 X5.7931
N166 G0 Z.22
N168 X-.8151 Y2.2291
N170 Z.17
N172 G1 Z-.03
N174 X5.7931
N176 G0 Z.22
N178 X-.8151 Y1.7181
N180 Z.17
N182 G1 Z-.03
N184 X5.7931
N186 G0 Z.22
N188 X-.8151 Y1.2072
N190 Z.17
N192 G1 Z-.03
N194 X5.7931
N196 G0 Z.22
N198 X-.8151 Y.6963
N200 Z.17
N202 G1 Z-.03
N204 X5.7931
N206 Y.1853
N208 X-.8151
N210 G0 Z.22
N212 Y5.2946
N214 Z.17
N216 G1 Z-.05
N218 X5.7931
N220 G0 Z.2
N222 X-.8151 Y4.7837
N224 Z.15
N226 G1 Z-.05
N228 X5.7931
N230 G0 Z.2
N232 X-.8151 Y4.2728
N234 Z.15
N236 G1 Z-.05
N238 X5.7931
N240 G0 Z.2
N242 X-.8151 Y3.7619
N244 Z.15
N246 G1 Z-.05
N248 X5.7931
N250 G0 Z.2
N252 X-.8151 Y3.2509
N254 Z.15
N256 G1 Z-.05
N258 X5.7931
N260 G0 Z.2
N262 X-.8151 Y2.74
N264 Z.15
N266 G1 Z-.05
N268 X5.7931
N270 G0 Z.2
N272 X-.8151 Y2.2291
N274 Z.15
N276 G1 Z-.05
N278 X5.7931
N280 G0 Z.2
N282 X-.8151 Y1.7181
N284 Z.15
N286 G1 Z-.05
N288 X5.7931
N290 G0 Z.2
N292 X-.8151 Y1.2072
N294 Z.15
N296 G1 Z-.05
N298 X5.7931
N300 G0 Z.2
N302 X-.8151 Y.6963
N304 Z.15
N306 G1 Z-.05
N308 X5.7931
N310 Y.1853
N312 X-.8151
N314 G0 Z2.
N316 M5
N318 G91 G28 Z0. M9
N320 A0.
N322 M01
(FLIP THAT SHIT)
N324 T2 M6
N326 G0 G90 G54 X1.2516 Y3.9774 A0. S1069 M3
N328 G43 H2 Z2.
N330 G98 G81 Z-.1 R.5 F1.07
N332 X1.8193 Y4.3568
N334 X2.489 Y4.49
N336 X3.1587 Y4.3568
N338 X4.239 Y2.74
N340 X4.1058 Y2.0703
N342 X3.7264 Y1.5026
N344 X3.1587 Y1.1232
N346 X2.489 Y.99
N348 X1.8193 Y1.1232
N350 X.8722 Y2.0703
N352 X.739 Y2.74
N354 X.8722 Y3.4097
N356 X.9829 Y4.994
N358 G80
N360 M5
N362 G91 G28 Z0.
N364 A0.
N366 M01
N368 T107 M6
N370 G0 G90 G54 X2.489 Y4.49 A0. S1006 M3
N372 G43 H107 Z2. M8
N374 G98 G83 Z-1.0893 R1. Q.1 F4.19
N376 X4.239 Y2.74
N378 X2.489 Y.99
N380 X.739 Y2.74
N382 G80
N384 M5
N386 G91 G28 Z0. M9
N388 A0.
N390 M01
(PUT IN THE NO. 9 DRILL BIT IN AND ZERO OFFSET )
N392 T88 M6
N394 G0 G90 G54 X1.8193 Y4.3568 A0. S1364 M3
N396 G43 H88 Z2. M8
N398 G98 G83 Z-1.0683 R1. Q.1 F4.15
N400 X3.1587
N402 X4.1058 Y2.0703
N404 X3.1587 Y1.1232
N406 X1.8193
N408 X.8722 Y2.0703
N410 Y3.4097
N412 G80
N414 M5
N416 G91 G28 Z0. M9
N418 A0.
N420 M01
N422 T103 M6
N424 G0 G90 G54 X1.2516 Y3.9774 A0. S1086 M3
N426 G43 H103 Z2. M8
N428 G98 G83 Z-1.0834 R1. Q.1 F4.17
N430 X3.7264 Y1.5026
N432 G80
N434 M5
N436 G91 G28 Z0. M9
N438 A0.
N440 M01
N442 T239 M6
N444 G0 G90 G54 X-.55 Y5.3549 A0. S1069 M3
N446 G43 H239 Z2. M8
N448 Z.2
N450 G1 Z-.045 F6.42
N452 X5.528
N454 G0 Z.205
N456 X-.55 Y4.9813
N458 Z.155
N460 G1 Z-.045
N462 X5.528
N464 G0 Z.205
N466 X-.55 Y4.6078
N468 Z.155
N470 G1 Z-.045
N472 X5.528
N474 G0 Z.205
N476 X-.55 Y4.2342
N478 Z.155
N480 G1 Z-.045
N482 X5.528
N484 G0 Z.205
N486 X-.55 Y3.8607
N488 Z.155
N490 G1 Z-.045
N492 X5.528
N494 G0 Z.205
N496 X-.55 Y3.4871
N498 Z.155
N500 G1 Z-.045
N502 X5.528
N504 G0 Z.205
N506 X-.55 Y3.1136
N508 Z.155
N510 G1 Z-.045
N512 X5.528
N514 G0 Z.205
N516 X-.55 Y2.74
N518 Z.155
N520 G1 Z-.045
N522 X5.528
N524 G0 Z.205
N526 X-.55 Y2.3664
N528 Z.155
N530 G1 Z-.045
N532 X5.528
N534 G0 Z.205
N536 X-.55 Y1.9929
N538 Z.155
N540 G1 Z-.045
N542 X5.528
N544 G0 Z.205
N546 X-.55 Y1.6193
N548 Z.155
N550 G1 Z-.045
N552 X5.528
N554 G0 Z.205
N556 X-.55 Y1.2458
N558 Z.155
N560 G1 Z-.045
N562 X5.528
N564 G0 Z.205
N566 X-.55 Y.8722
N568 Z.155
N570 G1 Z-.045
N572 X5.528
N574 G0 Z.205
N576 X-.55 Y.4987
N578 Z.155
N580 G1 Z-.045
N582 X5.528
N584 Y.1251
N586 X-.55
N588 G0 Z.205
N590 Y5.3549
N592 Z.155
N594 G1 Z-.055
N596 X5.528
N598 G0 Z.195
N600 X-.55 Y4.9813
N602 Z.145
N604 G1 Z-.055
N606 X5.528
N608 G0 Z.195
N610 X-.55 Y4.6078
N612 Z.145
N614 G1 Z-.055
N616 X5.528
N618 G0 Z.195
N620 X-.55 Y4.2342
N622 Z.145
N624 G1 Z-.055
N626 X5.528
N628 G0 Z.195
N630 X-.55 Y3.8607
N632 Z.145
N634 G1 Z-.055
N636 X5.528
N638 G0 Z.195
N640 X-.55 Y3.4871
N642 Z.145
N644 G1 Z-.055
N646 X5.528
N648 G0 Z.195
N650 X-.55 Y3.1136
N652 Z.145
N654 G1 Z-.055
N656 X5.528
N658 G0 Z.195
N660 X-.55 Y2.74
N662 Z.145
N664 G1 Z-.055
N666 X5.528
N668 G0 Z.195
N670 X-.55 Y2.3664
N672 Z.145
N674 G1 Z-.055
N676 X5.528
N678 G0 Z.195
N680 X-.55 Y1.9929
N682 Z.145
N684 G1 Z-.055
N686 X5.528
N688 G0 Z.195
N690 X-.55 Y1.6193
N692 Z.145
N694 G1 Z-.055
N696 X5.528
N698 G0 Z.195
N700 X-.55 Y1.2458
N702 Z.145
N704 G1 Z-.055
N706 X5.528
N708 G0 Z.195
N710 X-.55 Y.8722
N712 Z.145
N714 G1 Z-.055
N716 X5.528
N718 G0 Z.195
N720 X-.55 Y.4987
N722 Z.145
N724 G1 Z-.055
N726 X5.528
N728 Y.1251
N730 X-.55
N732 G0 Z.195
N734 Y5.3549
N736 Z.145
N738 G1 Z-.065
N740 X5.528
N742 G0 Z.185
N744 X-.55 Y4.9813
N746 Z.135
N748 G1 Z-.065
N750 X5.528
N752 G0 Z.185
N754 X-.55 Y4.6078
N756 Z.135
N758 G1 Z-.065
N760 X5.528
N762 G0 Z.185
N764 X-.55 Y4.2342
N766 Z.135
N768 G1 Z-.065
N770 X5.528
N772 G0 Z.185
N774 X-.55 Y3.8607
N776 Z.135
N778 G1 Z-.065
N780 X5.528
N782 G0 Z.185
N784 X-.55 Y3.4871
N786 Z.135
N788 G1 Z-.065
N790 X5.528
N792 G0 Z.185
N794 X-.55 Y3.1136
N796 Z.135
N798 G1 Z-.065
N800 X5.528
N802 G0 Z.185
N804 X-.55 Y2.74
N806 Z.135
N808 G1 Z-.065
N810 X5.528
N812 G0 Z.185
N814 X-.55 Y2.3664
N816 Z.135
N818 G1 Z-.065
N820 X5.528
N822 G0 Z.185
N824 X-.55 Y1.9929
N826 Z.135
N828 G1 Z-.065
N830 X5.528
N832 G0 Z.185
N834 X-.55 Y1.6193
N836 Z.135
N838 G1 Z-.065
N840 X5.528
N842 G0 Z.185
N844 X-.55 Y1.2458
N846 Z.135
N848 G1 Z-.065
N850 X5.528
N852 G0 Z.185
N854 X-.55 Y.8722
N856 Z.135
N858 G1 Z-.065
N860 X5.528
N862 G0 Z.185
N864 X-.55 Y.4987
N866 Z.135
N868 G1 Z-.065
N870 X5.528
N872 Y.1251
N874 X-.55
N876 G0 Z2.
N878 X4.105 Y3.5978
N880 Z.2
N882 G1 Z.035
N884 X4.088 Y3.5975 Z.0341
N886 X4.0467 Y3.5992 Z.0319
N888 X4.0057 Y3.6043 Z.0298
N890 X3.9653 Y3.6128 Z.0276
N892 X3.9257 Y3.6246 Z.0254
N894 X3.8872 Y3.6396 Z.0233
N896 X3.85 Y3.6578 Z.0211
N898 X3.8145 Y3.6789 Z.019
N900 X3.7809 Y3.7029 Z.0168
N902 X3.7494 Y3.7296 Z.0146
N904 X3.7201 Y3.7589 Z.0125
N906 X3.6934 Y3.7904 Z.0103
N908 X3.6694 Y3.824 Z.0081
N910 X3.6483 Y3.8595 Z.006
N912 X3.6301 Y3.8967 Z.0038
N914 X3.6151 Y3.9352 Z.0017
N916 X3.6033 Y3.9748 Z-.0005
N918 X3.5948 Y4.0152 Z-.0027
N920 X3.5897 Y4.0562 Z-.0048
N922 X3.588 Y4.0975 Z-.007
N924 X3.5897 Y4.1388 Z-.0092
N926 X3.5948 Y4.1798 Z-.0113
N928 X3.6033 Y4.2202 Z-.0135
N930 X3.6151 Y4.2598 Z-.0157
N932 X3.6301 Y4.2983 Z-.0178
N934 X3.6483 Y4.3355 Z-.02
N936 X3.6694 Y4.371 Z-.0222
N938 X3.6934 Y4.4046 Z-.0243
N940 X3.7201 Y4.4361 Z-.0265
N942 X3.7494 Y4.4654 Z-.0287
N944 X3.7809 Y4.4921 Z-.0309
N946 X3.8145 Y4.5161 Z-.033
N948 X3.85 Y4.5372 Z-.0352
N950 X3.8872 Y4.5554 Z-.0374
N952 X3.9257 Y4.5704 Z-.0395
N954 X3.9653 Y4.5822 Z-.0417
N956 X4.0057 Y4.5907 Z-.0439
N958 X4.0467 Y4.5958 Z-.046
N960 X4.088 Y4.5975 Z-.0482
N962 X4.1293 Y4.5958 Z-.0504
N964 X4.1703 Y4.5907 Z-.0525
N966 X4.2107 Y4.5822 Z-.0547
N968 X4.2503 Y4.5704 Z-.0569
N970 X4.2888 Y4.5554 Z-.059
N972 X4.326 Y4.5372 Z-.0612
N974 X4.3615 Y4.5161 Z-.0633
N976 X4.3951 Y4.4921 Z-.0655
N978 X4.4266 Y4.4654 Z-.0677
N980 X4.4559 Y4.4361 Z-.0698
N982 X4.4826 Y4.4046 Z-.072
N984 X4.5066 Y4.371 Z-.0742
N986 X4.5277 Y4.3355 Z-.0763
N988 X4.5459 Y4.2983 Z-.0785
N990 X4.5609 Y4.2598 Z-.0806
N992 X4.5727 Y4.2202 Z-.0828
N994 X4.5812 Y4.1798 Z-.085
N996 X4.5863 Y4.1388 Z-.0871
N998 X4.588 Y4.0975 Z-.0893
N1000 X4.5862 Y4.0549 Z-.0915
N1002 X4.5807 Y4.0125 Z-.0938
N1004 X4.5717 Y3.9708 Z-.096
N1006 X4.5591 Y3.93 Z-.0983
N1008 X4.5431 Y3.8905 Z-.1005
N1010 X4.5238 Y3.8524 Z-.1027
N1012 X4.5013 Y3.8162 Z-.105
N1014 X4.4758 Y3.7819 Z-.1072
N1016 X4.4475 Y3.75 Z-.1094
N1018 X4.4166 Y3.7206 Z-.1117
N1020 X4.3832 Y3.694 Z-.1139
N1022 X4.3477 Y3.6703 Z-.1162
N1024 X4.3104 Y3.6497 Z-.1184
N1026 X4.2714 Y3.6324 Z-.1206
N1028 X4.231 Y3.6184 Z-.1229
N1030 X4.1897 Y3.608 Z-.1251
N1032 X4.1475 Y3.6011 Z-.1274
N1034 X4.105 Y3.5978 Z-.1296
N1036 X4.088 Y3.5975 Z-.1305
N1038 X4.0517 Y3.5988 Z-.1324
N1040 X4.0156 Y3.6028 Z-.1344
N1042 X3.9799 Y3.6093 Z-.1363
N1044 X3.9447 Y3.6185 Z-.1382
N1046 X3.8613 Y3.3395
N1048 G3 X2.3038 Y4.4643 I-1.5575 J-.5159
N1050 X.6632 Y2.8236 I0. J-1.6407
N1052 X2.4913 Y.9955 I1.8281 J0.
N1054 X4.3195 Y2.8236 I0. J1.8281
N1056 X2.3038 Y4.8393 I-2.0157 J0.
N1058 X1.5626 Y4.698 I0. J-2.0157
N1060 G2 X.9829 Y4.3431 I-.5797 J.296
N1062 G1 X.9795
N1064 G3 X.29 Y2.9083 I1.3243 J-1.5195
N1066 G1 Y2.7351
N1068 G3 X2.4913 Y.6205 I2.2013 J.0885
N1070 X4.688 Y2.6549 I0. J2.2031
N1072 G1 Y2.9994
N1074 G3 X2.6436 Y5.19 I-2.3842 J-.1758
N1076 G1 X1.964
N1078 G3 X1.6225 Y5.1151 I.3398 J-2.3664
N1080 G2 X1.6339 Y4.994 I-.6396 J-.1211
N1082 X.9829 Y4.343 I-.651 J0.
N1084 X.5815 Y4.4816 I0. J.651
N1086 G3 X.29 Y4.1119 I1.7223 J-1.658
N1088 G1 Y1.4817
N1090 G3 X2.0145 Y.29 I2.2013 J1.3419
N1092 G1 X2.9682
N1094 G3 X4.688 Y1.474 I-.4769 J2.5336
N1096 G1 Y4.2253
N1098 G3 X3.7353 Y5.19 I-2.3842 J-1.4017
N1100 G1 X1.6318 Y4.9431
N1102 G2 X.9829 Y4.3431 I-.6489 J.0509
N1104 X.3634 Y4.7943 I0. J.6509
N1106 G3 X.29 Y4.7192 I1.9404 J-1.9707
N1108 G1 Y.8551
N1110 G3 X.9743 Y.29 I2.2013 J1.9685
N1112 G1 X4.0084
N1114 G3 X4.688 Y.8499 I-1.5171 J2.5336
N1116 G1 Y4.868
N1118 G3 X4.3688 Y5.19 I-2.3842 J-2.0444
N1120 G1 X3.3446 Y3.969
N1122 G3 X2.489 Y4.2375 I-.8556 J-1.229
N1124 X.9915 Y2.74 I0. J-1.4975
N1126 X1.4276 Y1.6837 I1.4975 J0.
N1128 G1 X.29 Y.3276
N1130 G3 X.3333 Y.29 I2.2013 J2.496
N1132 G1 X4.6494
N1134 G3 X4.688 Y.3234 I-2.1581 J2.5336
N1136 G1 Y5.19
N1138 X1.6036
N1140 G2 X1.6213 Y5.121 I-.6207 J-.196
N1142 X1.6338 Y4.994 I-.6384 J-.127
N1144 X.9829 Y4.3431 I-.6509 J0.
N1146 X.3815 Y4.745 I0. J.6509
N1148 X.332 Y4.994 I.6014 J.249
N1150 X.3622 Y5.19 I.6509 J0.
N1152 G1 X.29
N1154 Y.29
N1156 X4.688
N1158 Y.3234
N1160 Z.2
N1162 G0 Z.25
N1164 X4.105 Y3.5978
N1166 Z.2
N1168 G1 Z-.0382
N1170 X4.088 Y3.5975 Z-.0391
N1172 X4.0467 Y3.5992 Z-.0413
N1174 X4.0057 Y3.6043 Z-.0434
N1176 X3.9653 Y3.6128 Z-.0456
N1178 X3.9257 Y3.6246 Z-.0478
N1180 X3.8872 Y3.6396 Z-.0499
N1182 X3.85 Y3.6578 Z-.0521
N1184 X3.8145 Y3.6789 Z-.0542
N1186 X3.7809 Y3.7029 Z-.0564
N1188 X3.7494 Y3.7296 Z-.0586
N1190 X3.7201 Y3.7589 Z-.0607
N1192 X3.6934 Y3.7904 Z-.0629
N1194 X3.6694 Y3.824 Z-.0651
N1196 X3.6483 Y3.8595 Z-.0672
N1198 X3.6301 Y3.8967 Z-.0694
N1200 X3.6151 Y3.9352 Z-.0715
N1202 X3.6033 Y3.9748 Z-.0737
N1204 X3.5948 Y4.0152 Z-.0759
N1206 X3.5897 Y4.0562 Z-.078
N1208 X3.588 Y4.0975 Z-.0802
N1210 X3.5897 Y4.1388 Z-.0824
N1212 X3.5948 Y4.1798 Z-.0845
N1214 X3.6033 Y4.2202 Z-.0867
N1216 X3.6151 Y4.2598 Z-.0889
N1218 X3.6301 Y4.2983 Z-.091
N1220 X3.6483 Y4.3355 Z-.0932
N1222 X3.6694 Y4.371 Z-.0954
N1224 X3.6934 Y4.4046 Z-.0975
N1226 X3.7201 Y4.4361 Z-.0997
N1228 X3.7494 Y4.4654 Z-.1019
N1230 X3.7809 Y4.4921 Z-.1041
N1232 X3.8145 Y4.5161 Z-.1062
N1234 X3.85 Y4.5372 Z-.1084
N1236 X3.8872 Y4.5554 Z-.1106
N1238 X3.9257 Y4.5704 Z-.1127
N1240 X3.9653 Y4.5822 Z-.1149
N1242 X4.0057 Y4.5907 Z-.1171
N1244 X4.0467 Y4.5958 Z-.1192
N1246 X4.088 Y4.5975 Z-.1214
N1248 X4.1293 Y4.5958 Z-.1236
N1250 X4.1703 Y4.5907 Z-.1257
N1252 X4.2107 Y4.5822 Z-.1279
N1254 X4.2503 Y4.5704 Z-.1301
N1256 X4.2888 Y4.5554 Z-.1322
N1258 X4.326 Y4.5372 Z-.1344
N1260 X4.3615 Y4.5161 Z-.1365
N1262 X4.3951 Y4.4921 Z-.1387
N1264 X4.4266 Y4.4654 Z-.1409
N1266 X4.4559 Y4.4361 Z-.143
N1268 X4.4826 Y4.4046 Z-.1452
N1270 X4.5066 Y4.371 Z-.1474
N1272 X4.5277 Y4.3355 Z-.1495
N1274 X4.5459 Y4.2983 Z-.1517
N1276 X4.5609 Y4.2598 Z-.1538
N1278 X4.5727 Y4.2202 Z-.156
N1280 X4.5812 Y4.1798 Z-.1582
N1282 X4.5863 Y4.1388 Z-.1603
N1284 X4.588 Y4.0975 Z-.1625
N1286 X4.5862 Y4.0549 Z-.1647
N1288 X4.5807 Y4.0125 Z-.167
N1290 X4.5717 Y3.9708 Z-.1692
N1292 X4.5591 Y3.93 Z-.1715
N1294 X4.5431 Y3.8905 Z-.1737
N1296 X4.5238 Y3.8524 Z-.1759
N1298 X4.5013 Y3.8162 Z-.1782
N1300 X4.4758 Y3.7819 Z-.1804
N1302 X4.4475 Y3.75 Z-.1827
N1304 X4.4166 Y3.7206 Z-.1849
N1306 X4.3832 Y3.694 Z-.1871
N1308 X4.3477 Y3.6703 Z-.1894
N1310 X4.3104 Y3.6497 Z-.1916
N1312 X4.2714 Y3.6324 Z-.1938
N1314 X4.231 Y3.6184 Z-.1961
N1316 X4.1897 Y3.608 Z-.1983
N1318 X4.1475 Y3.6011 Z-.2006
N1320 X4.105 Y3.5978 Z-.2028
N1322 X4.088 Y3.5975 Z-.2037
N1324 X4.0517 Y3.5988 Z-.2056
N1326 X4.0156 Y3.6028 Z-.2075
N1328 X3.9799 Y3.6093 Z-.2094
N1330 X3.9447 Y3.6185 Z-.2113
N1332 X3.8613 Y3.3395
N1334 G3 X2.3038 Y4.4643 I-1.5575 J-.5159
N1336 X.6632 Y2.8236 I0. J-1.6407
N1338 X2.4913 Y.9955 I1.8281 J0.
N1340 X4.3195 Y2.8236 I0. J1.8281
N1342 X2.3038 Y4.8393 I-2.0157 J0.
N1344 X1.5626 Y4.698 I0. J-2.0157
N1346 G2 X.9829 Y4.3431 I-.5797 J.296
N1348 G1 X.9795
N1350 G3 X.29 Y2.9083 I1.3243 J-1.5195
N1352 G1 Y2.7351
N1354 G3 X2.4913 Y.6205 I2.2013 J.0885
N1356 X4.688 Y2.6549 I0. J2.2031
N1358 G1 Y2.9994
N1360 G3 X2.6436 Y5.19 I-2.3842 J-.1758
N1362 G1 X1.964
N1364 G3 X1.6225 Y5.1151 I.3398 J-2.3664
N1366 G2 X1.6339 Y4.994 I-.6396 J-.1211
N1368 X.9829 Y4.343 I-.651 J0.
N1370 X.5815 Y4.4816 I0. J.651
N1372 G3 X.29 Y4.1119 I1.7223 J-1.658
N1374 G1 Y1.4817
N1376 G3 X2.0145 Y.29 I2.2013 J1.3419
N1378 G1 X2.9682
N1380 G3 X4.688 Y1.474 I-.4769 J2.5336
N1382 G1 Y4.2253
N1384 G3 X3.7353 Y5.19 I-2.3842 J-1.4017
N1386 G1 X1.6318 Y4.9431
N1388 G2 X.9829 Y4.3431 I-.6489 J.0509
N1390 X.3634 Y4.7943 I0. J.6509
N1392 G3 X.29 Y4.7192 I1.9404 J-1.9707
N1394 G1 Y.8551
N1396 G3 X.9743 Y.29 I2.2013 J1.9685
N1398 G1 X4.0084
N1400 G3 X4.688 Y.8499 I-1.5171 J2.5336
N1402 G1 Y4.868
N1404 G3 X4.3688 Y5.19 I-2.3842 J-2.0444
N1406 G1 X3.3446 Y3.969
N1408 G3 X2.489 Y4.2375 I-.8556 J-1.229
N1410 X.9915 Y2.74 I0. J-1.4975
N1412 X1.4276 Y1.6837 I1.4975 J0.
N1414 G1 X.29 Y.3276
N1416 G3 X.3333 Y.29 I2.2013 J2.496
N1418 G1 X4.6494
N1420 G3 X4.688 Y.3234 I-2.1581 J2.5336
N1422 G1 Y5.19
N1424 X1.6036
N1426 G2 X1.6213 Y5.121 I-.6207 J-.196
N1428 X1.6338 Y4.994 I-.6384 J-.127
N1430 X.9829 Y4.3431 I-.6509 J0.
N1432 X.3815 Y4.745 I0. J.6509
N1434 X.332 Y4.994 I.6014 J.249
N1436 X.3622 Y5.19 I.6509 J0.
N1438 G1 X.29
N1440 Y.29
N1442 X4.688
N1444 Y.3234
N1446 Z.2
N1448 G0 Z.25
N1450 X4.105 Y3.5978
N1452 Z.2
N1454 G1 Z-.1113
N1456 X4.088 Y3.5975 Z-.1122
N1458 X4.0467 Y3.5992 Z-.1144
N1460 X4.0057 Y3.6043 Z-.1165
N1462 X3.9653 Y3.6128 Z-.1187
N1464 X3.9257 Y3.6246 Z-.1209
N1466 X3.8872 Y3.6396 Z-.123
N1468 X3.85 Y3.6578 Z-.1252
N1470 X3.8145 Y3.6789 Z-.1273
N1472 X3.7809 Y3.7029 Z-.1295
N1474 X3.7494 Y3.7296 Z-.1317
N1476 X3.7201 Y3.7589 Z-.1338
N1478 X3.6934 Y3.7904 Z-.136
N1480 X3.6694 Y3.824 Z-.1382
N1482 X3.6483 Y3.8595 Z-.1403
N1484 X3.6301 Y3.8967 Z-.1425
N1486 X3.6151 Y3.9352 Z-.1446
N1488 X3.6033 Y3.9748 Z-.1468
N1490 X3.5948 Y4.0152 Z-.149
N1492 X3.5897 Y4.0562 Z-.1511
N1494 X3.588 Y4.0975 Z-.1533
N1496 X3.5897 Y4.1388 Z-.1555
N1498 X3.5948 Y4.1798 Z-.1576
N1500 X3.6033 Y4.2202 Z-.1598
N1502 X3.6151 Y4.2598 Z-.162
N1504 X3.6301 Y4.2983 Z-.1641
N1506 X3.6483 Y4.3355 Z-.1663
N1508 X3.6694 Y4.371 Z-.1685
N1510 X3.6934 Y4.4046 Z-.1706
N1512 X3.7201 Y4.4361 Z-.1728
N1514 X3.7494 Y4.4654 Z-.175
N1516 X3.7809 Y4.4921 Z-.1772
N1518 X3.8145 Y4.5161 Z-.1793
N1520 X3.85 Y4.5372 Z-.1815
N1522 X3.8872 Y4.5554 Z-.1837
N1524 X3.9257 Y4.5704 Z-.1858
N1526 X3.9653 Y4.5822 Z-.188
N1528 X4.0057 Y4.5907 Z-.1902
N1530 X4.0467 Y4.5958 Z-.1923
N1532 X4.088 Y4.5975 Z-.1945
N1534 X4.1293 Y4.5958 Z-.1967
N1536 X4.1703 Y4.5907 Z-.1988
N1538 X4.2107 Y4.5822 Z-.201
N1540 X4.2503 Y4.5704 Z-.2032
N1542 X4.2888 Y4.5554 Z-.2053
N1544 X4.326 Y4.5372 Z-.2075
N1546 X4.3615 Y4.5161 Z-.2096
N1548 X4.3951 Y4.4921 Z-.2118
N1550 X4.4266 Y4.4654 Z-.214
N1552 X4.4559 Y4.4361 Z-.2161
N1554 X4.4826 Y4.4046 Z-.2183
N1556 X4.5066 Y4.371 Z-.2205
N1558 X4.5277 Y4.3355 Z-.2226
N1560 X4.5459 Y4.2983 Z-.2248
N1562 X4.5609 Y4.2598 Z-.2269
N1564 X4.5727 Y4.2202 Z-.2291
N1566 X4.5812 Y4.1798 Z-.2313
N1568 X4.5863 Y4.1388 Z-.2334
N1570 X4.588 Y4.0975 Z-.2356
N1572 X4.5862 Y4.0549 Z-.2378
N1574 X4.5807 Y4.0125 Z-.2401
N1576 X4.5717 Y3.9708 Z-.2423
N1578 X4.5591 Y3.93 Z-.2446
N1580 X4.5431 Y3.8905 Z-.2468
N1582 X4.5238 Y3.8524 Z-.249
N1584 X4.5013 Y3.8162 Z-.2513
N1586 X4.4758 Y3.7819 Z-.2535
N1588 X4.4475 Y3.75 Z-.2557
N1590 X4.4166 Y3.7206 Z-.258
N1592 X4.3832 Y3.694 Z-.2602
N1594 X4.3477 Y3.6703 Z-.2625
N1596 X4.3104 Y3.6497 Z-.2647
N1598 X4.2714 Y3.6324 Z-.2669
N1600 X4.231 Y3.6184 Z-.2692
N1602 X4.1897 Y3.608 Z-.2714
N1604 X4.1475 Y3.6011 Z-.2737
N1606 X4.105 Y3.5978 Z-.2759
N1608 X4.088 Y3.5975 Z-.2768
N1610 X4.0517 Y3.5988 Z-.2787
N1612 X4.0156 Y3.6028 Z-.2806
N1614 X3.9799 Y3.6093 Z-.2825
N1616 X3.9447 Y3.6185 Z-.2844
N1618 X3.8613 Y3.3395
N1620 G3 X2.3038 Y4.4643 I-1.5575 J-.5159
N1622 X.6632 Y2.8236 I0. J-1.6407
N1624 X2.4913 Y.9955 I1.8281 J0.
N1626 X4.3195 Y2.8236 I0. J1.8281
N1628 X2.3038 Y4.8393 I-2.0157 J0.
N1630 X1.5626 Y4.698 I0. J-2.0157
N1632 G2 X.9829 Y4.3431 I-.5797 J.296
N1634 G1 X.9795
N1636 G3 X.29 Y2.9083 I1.3243 J-1.5195
N1638 G1 Y2.7351
N1640 G3 X2.4913 Y.6205 I2.2013 J.0885
N1642 X4.688 Y2.6549 I0. J2.2031
N1644 G1 Y2.9994
N1646 G3 X2.6436 Y5.19 I-2.3842 J-.1758
N1648 G1 X1.964
N1650 G3 X1.6225 Y5.1151 I.3398 J-2.3664
N1652 G2 X1.6339 Y4.994 I-.6396 J-.1211
N1654 X.9829 Y4.343 I-.651 J0.
N1656 X.5815 Y4.4816 I0. J.651
N1658 G3 X.29 Y4.1119 I1.7223 J-1.658
N1660 G1 Y1.4817
N1662 G3 X2.0145 Y.29 I2.2013 J1.3419
N1664 G1 X2.9682
N1666 G3 X4.688 Y1.474 I-.4769 J2.5336
N1668 G1 Y4.2253
N1670 G3 X3.7353 Y5.19 I-2.3842 J-1.4017
N1672 G1 X1.6318 Y4.9431
N1674 G2 X.9829 Y4.3431 I-.6489 J.0509
N1676 X.3634 Y4.7943 I0. J.6509
N1678 G3 X.29 Y4.7192 I1.9404 J-1.9707
N1680 G1 Y.8551
N1682 G3 X.9743 Y.29 I2.2013 J1.9685
N1684 G1 X4.0084
N1686 G3 X4.688 Y.8499 I-1.5171 J2.5336
N1688 G1 Y4.868
N1690 G3 X4.3688 Y5.19 I-2.3842 J-2.0444
N1692 G1 X3.3446 Y3.969
N1694 G3 X2.489 Y4.2375 I-.8556 J-1.229
N1696 X.9915 Y2.74 I0. J-1.4975
N1698 X1.4276 Y1.6837 I1.4975 J0.
N1700 G1 X.29 Y.3276
N1702 G3 X.3333 Y.29 I2.2013 J2.496
N1704 G1 X4.6494
N1706 G3 X4.688 Y.3234 I-2.1581 J2.5336
N1708 G1 Y5.19
N1710 X1.6036
N1712 G2 X1.6213 Y5.121 I-.6207 J-.196
N1714 X1.6338 Y4.994 I-.6384 J-.127
N1716 X.9829 Y4.3431 I-.6509 J0.
N1718 X.3815 Y4.745 I0. J.6509
N1720 X.332 Y4.994 I.6014 J.249
N1722 X.3622 Y5.19 I.6509 J0.
N1724 G1 X.29
N1726 Y.29
N1728 X4.688
N1730 Y.3234
N1732 Z.2
N1734 G0 Z.25
N1736 X3.6322 Y4.303
N1738 Z.2
N1740 G1 Z-.1845
N1742 X3.6506 Y4.3396 Z-.1867
N1744 X3.6718 Y4.3746 Z-.1888
N1746 X3.6959 Y4.4077 Z-.191
N1748 X3.7226 Y4.4388 Z-.1931
N1750 X3.7518 Y4.4676 Z-.1953
N1752 X3.7832 Y4.4938 Z-.1974
N1754 X3.8167 Y4.5175 Z-.1996
N1756 X3.852 Y4.5383 Z-.2017
N1758 X3.8888 Y4.5561 Z-.2039
N1760 X3.927 Y4.5709 Z-.206
N1762 X3.9663 Y4.5825 Z-.2082
N1764 X4.0064 Y4.5908 Z-.2103
N1766 X4.0471 Y4.5958 Z-.2125
N1768 X4.088 Y4.5975 Z-.2146
N1770 X4.1293 Y4.5958 Z-.2168
N1772 X4.1703 Y4.5907 Z-.2189
N1774 X4.2107 Y4.5822 Z-.2211
N1776 X4.2503 Y4.5704 Z-.2233
N1778 X4.2888 Y4.5554 Z-.2254
N1780 X4.326 Y4.5372 Z-.2276
N1782 X4.3615 Y4.5161 Z-.2297
N1784 X4.3951 Y4.4921 Z-.2319
N1786 X4.4266 Y4.4654 Z-.2341
N1788 X4.4559 Y4.4361 Z-.2362
N1790 X4.4826 Y4.4046 Z-.2384
N1792 X4.5066 Y4.371 Z-.2406
N1794 X4.5277 Y4.3355 Z-.2427
N1796 X4.5459 Y4.2983 Z-.2449
N1798 X4.5609 Y4.2598 Z-.247
N1800 X4.5727 Y4.2202 Z-.2492
N1802 X4.5812 Y4.1798 Z-.2514
N1804 X4.5863 Y4.1388 Z-.2535
N1806 X4.588 Y4.0975 Z-.2557
N1808 X4.5863 Y4.0562 Z-.2579
N1810 X4.5812 Y4.0152 Z-.26
N1812 X4.5727 Y3.9748 Z-.2622
N1814 X4.5609 Y3.9352 Z-.2644
N1816 X4.5459 Y3.8967 Z-.2665
N1818 X4.5277 Y3.8595 Z-.2687
N1820 X4.5066 Y3.824 Z-.2709
N1822 X4.4826 Y3.7904 Z-.273
N1824 X4.4559 Y3.7589 Z-.2752
N1826 X4.4266 Y3.7296 Z-.2774
N1828 X4.3951 Y3.7029 Z-.2796
N1830 X4.3615 Y3.6789 Z-.2817
N1832 X4.326 Y3.6578 Z-.2839
N1834 X4.2888 Y3.6396 Z-.2861
N1836 X4.2503 Y3.6246 Z-.2882
N1838 X4.2107 Y3.6128 Z-.2904
N1840 X4.1703 Y3.6043 Z-.2926
N1842 X4.1293 Y3.5992 Z-.2947
N1844 X4.088 Y3.5975 Z-.2969
N1846 X4.0517 Y3.5988 Z-.2988
N1848 X4.0156 Y3.6028 Z-.3007
N1850 X3.9799 Y3.6093 Z-.3026
N1852 X3.9447 Y3.6185 Z-.3045
N1854 X3.8613 Y3.3395
N1856 G3 X2.3038 Y4.4643 I-1.5575 J-.5159
N1858 X.6632 Y2.8236 I0. J-1.6407
N1860 X2.4913 Y.9955 I1.8281 J0.
N1862 X4.3195 Y2.8236 I0. J1.8281
N1864 X2.3038 Y4.8393 I-2.0157 J0.
N1866 X1.5626 Y4.698 I0. J-2.0157
N1868 G2 X.9829 Y4.3431 I-.5797 J.296
N1870 G1 X.9795
N1872 G3 X.29 Y2.9083 I1.3243 J-1.5195
N1874 G1 Y2.7351
N1876 G3 X2.4913 Y.6205 I2.2013 J.0885
N1878 X4.688 Y2.6549 I0. J2.2031
N1880 G1 Y2.9994
N1882 G3 X2.6436 Y5.19 I-2.3842 J-.1758
N1884 G1 X1.964
N1886 G3 X1.6225 Y5.1151 I.3398 J-2.3664
N1888 G2 X1.6339 Y4.994 I-.6396 J-.1211
N1890 X.9829 Y4.343 I-.651 J0.
N1892 X.5815 Y4.4816 I0. J.651
N1894 G3 X.29 Y4.1119 I1.7223 J-1.658
N1896 G1 Y1.4817
N1898 G3 X2.0145 Y.29 I2.2013 J1.3419
N1900 G1 X2.9682
N1902 G3 X4.688 Y1.474 I-.4769 J2.5336
N1904 G1 Y4.2253
N1906 G3 X3.7353 Y5.19 I-2.3842 J-1.4017
N1908 G1 X1.6318 Y4.9431
N1910 G2 X.9829 Y4.3431 I-.6489 J.0509
N1912 X.3634 Y4.7943 I0. J.6509
N1914 G3 X.29 Y4.7192 I1.9404 J-1.9707
N1916 G1 Y.8551
N1918 G3 X.9743 Y.29 I2.2013 J1.9685
N1920 G1 X4.0084
N1922 G3 X4.688 Y.8499 I-1.5171 J2.5336
N1924 G1 Y4.868
N1926 G3 X4.3688 Y5.19 I-2.3842 J-2.0444
N1928 G1 X3.3446 Y3.969
N1930 G3 X2.489 Y4.2375 I-.8556 J-1.229
N1932 X.9915 Y2.74 I0. J-1.4975
N1934 X1.4276 Y1.6837 I1.4975 J0.
N1936 G1 X.29 Y.3276
N1938 G3 X.3333 Y.29 I2.2013 J2.496
N1940 G1 X4.6494
N1942 G3 X4.688 Y.3234 I-2.1581 J2.5336
N1944 G1 Y5.19
N1946 X1.6036
N1948 G2 X1.6213 Y5.121 I-.6207 J-.196
N1950 X1.6338 Y4.994 I-.6384 J-.127
N1952 X.9829 Y4.3431 I-.6509 J0.
N1954 X.3815 Y4.745 I0. J.6509
N1956 X.332 Y4.994 I.6014 J.249
N1958 X.3622 Y5.19 I.6509 J0.
N1960 G1 X.29
N1962 Y.29
N1964 X4.688
N1966 Y.3234
N1968 Z.2
N1970 G0 Z.25
N1972 X3.6322 Y4.303
N1974 Z.2
N1976 G1 Z-.2044
N1978 X3.6506 Y4.3396 Z-.2066
N1980 X3.6718 Y4.3746 Z-.2087
N1982 X3.6959 Y4.4077 Z-.2108
N1984 X3.7226 Y4.4388 Z-.213
N1986 X3.7518 Y4.4676 Z-.2152
N1988 X3.7832 Y4.4938 Z-.2173
N1990 X3.8167 Y4.5175 Z-.2194
N1992 X3.852 Y4.5383 Z-.2216
N1994 X3.8888 Y4.5561 Z-.2238
N1996 X3.927 Y4.5709 Z-.2259
N1998 X3.9663 Y4.5825 Z-.228
N2000 X4.0064 Y4.5908 Z-.2302
N2002 X4.0471 Y4.5958 Z-.2324
N2004 X4.088 Y4.5975 Z-.2345
N2006 X4.1293 Y4.5958 Z-.2367
N2008 X4.1703 Y4.5907 Z-.2388
N2010 X4.2107 Y4.5822 Z-.241
N2012 X4.2503 Y4.5704 Z-.2432
N2014 X4.2888 Y4.5554 Z-.2453
N2016 X4.326 Y4.5372 Z-.2475
N2018 X4.3615 Y4.5161 Z-.2497
N2020 X4.3951 Y4.4921 Z-.2518
N2022 X4.4266 Y4.4654 Z-.254
N2024 X4.4559 Y4.4361 Z-.2562
N2026 X4.4826 Y4.4046 Z-.2584
N2028 X4.5066 Y4.371 Z-.2605
N2030 X4.5277 Y4.3355 Z-.2627
N2032 X4.5459 Y4.2983 Z-.2649
N2034 X4.5609 Y4.2598 Z-.267
N2036 X4.5727 Y4.2202 Z-.2692
N2038 X4.5812 Y4.1798 Z-.2714
N2040 X4.5863 Y4.1388 Z-.2735
N2042 X4.588 Y4.0975 Z-.2757
N2044 X4.5863 Y4.0562 Z-.2779
N2046 X4.5812 Y4.0152 Z-.28
N2048 X4.5727 Y3.9748 Z-.2822
N2050 X4.5609 Y3.9352 Z-.2844
N2052 X4.5459 Y3.8967 Z-.2865
N2054 X4.5277 Y3.8595 Z-.2887
N2056 X4.5066 Y3.824 Z-.2909
N2058 X4.4826 Y3.7904 Z-.293
N2060 X4.4559 Y3.7589 Z-.2952
N2062 X4.4266 Y3.7296 Z-.2974
N2064 X4.3951 Y3.7029 Z-.2996
N2066 X4.3615 Y3.6789 Z-.3017
N2068 X4.326 Y3.6578 Z-.3039
N2070 X4.2888 Y3.6396 Z-.3061
N2072 X4.2503 Y3.6246 Z-.3082
N2074 X4.2107 Y3.6128 Z-.3104
N2076 X4.1703 Y3.6043 Z-.3126
N2078 X4.1293 Y3.5992 Z-.3147
N2080 X4.088 Y3.5975 Z-.3169
N2082 X4.0517 Y3.5988 Z-.3188
N2084 X4.0156 Y3.6028 Z-.3207
N2086 X3.9799 Y3.6093 Z-.3226
N2088 X3.9447 Y3.6185 Z-.3245
N2090 X3.8613 Y3.3395
N2092 G3 X2.3038 Y4.4643 I-1.5575 J-.5159
N2094 X.6632 Y2.8236 I0. J-1.6407
N2096 X2.4913 Y.9955 I1.8281 J0.
N2098 X4.3195 Y2.8236 I0. J1.8281
N2100 X2.3038 Y4.8393 I-2.0157 J0.
N2102 X1.5626 Y4.698 I0. J-2.0157
N2104 G2 X.9829 Y4.3431 I-.5797 J.296
N2106 G1 X.9795
N2108 G3 X.29 Y2.9083 I1.3243 J-1.5195
N2110 G1 Y2.7351
N2112 G3 X2.4913 Y.6205 I2.2013 J.0885
N2114 X4.688 Y2.6549 I0. J2.2031
N2116 G1 Y2.9994
N2118 G3 X2.6436 Y5.19 I-2.3842 J-.1758
N2120 G1 X1.964
N2122 G3 X1.6225 Y5.1151 I.3398 J-2.3664
N2124 G2 X1.6339 Y4.994 I-.6396 J-.1211
N2126 X.9829 Y4.343 I-.651 J0.
N2128 X.5815 Y4.4816 I0. J.651
N2130 G3 X.29 Y4.1119 I1.7223 J-1.658
N2132 G1 Y1.4817
N2134 G3 X2.0145 Y.29 I2.2013 J1.3419
N2136 G1 X2.9682
N2138 G3 X4.688 Y1.474 I-.4769 J2.5336
N2140 G1 Y4.2253
N2142 G3 X3.7353 Y5.19 I-2.3842 J-1.4017
N2144 G1 X1.6318 Y4.9431
N2146 G2 X.9829 Y4.3431 I-.6489 J.0509
N2148 X.3634 Y4.7943 I0. J.6509
N2150 G3 X.29 Y4.7192 I1.9404 J-1.9707
N2152 G1 Y.8551
N2154 G3 X.9743 Y.29 I2.2013 J1.9685
N2156 G1 X4.0084
N2158 G3 X4.688 Y.8499 I-1.5171 J2.5336
N2160 G1 Y4.868
N2162 G3 X4.3688 Y5.19 I-2.3842 J-2.0444
N2164 G1 X3.3446 Y3.969
N2166 G3 X2.489 Y4.2375 I-.8556 J-1.229
N2168 X.9915 Y2.74 I0. J-1.4975
N2170 X1.4276 Y1.6837 I1.4975 J0.
N2172 G1 X.29 Y.3276
N2174 G3 X.3333 Y.29 I2.2013 J2.496
N2176 G1 X4.6494
N2178 G3 X4.688 Y.3234 I-2.1581 J2.5336
N2180 G1 Y5.19
N2182 X1.6036
N2184 G2 X1.6213 Y5.121 I-.6207 J-.196
N2186 X1.6338 Y4.994 I-.6384 J-.127
N2188 X.9829 Y4.3431 I-.6509 J0.
N2190 X.3815 Y4.745 I0. J.6509
N2192 X.332 Y4.994 I.6014 J.249
N2194 X.3622 Y5.19 I.6509 J0.
N2196 G1 X.29
N2198 Y.29
N2200 X4.688
N2202 Y.3234
N2204 Z.2
N2206 G0 Z.25
N2208 X1.6017 Y5.1171
N2210 Z.2
N2212 G1 Z-.3245
N2214 G2 X1.6138 Y4.994 I-.6188 J-.1231
N2216 X.9829 Y4.3631 I-.6309 J0.
N2218 X.4 Y4.7526 I0. J.6309
N2220 X.352 Y4.994 I.5829 J.2414
N2222 X.3901 Y5.21 I.6309 J0.
N2224 G1 X.27
N2226 Y.27
N2228 X4.708
N2230 Y5.21
N2232 X1.5757
N2234 G2 X1.6017 Y5.1171 I-.5928 J-.216
N2236 G1 Z.2
N2238 G0 Z.25
N2240 X1.0115 Y2.74
N2242 Z.2
N2244 G1 Z-.3245
N2246 G2 X2.489 Y4.2175 I1.4775 J0.
N2248 X3.9665 Y2.74 I0. J-1.4775
N2250 X2.489 Y1.2625 I-1.4775 J0.
N2252 X1.0115 Y2.74 I0. J1.4775
N2254 G1 Z.2
N2256 G0 Z.25
N2258 X1.5821 Y5.1132
N2260 Z.2
N2262 G1 Z-.3245
N2264 G2 X1.5938 Y4.994 I-.5992 J-.1192
N2266 X.9829 Y4.3831 I-.6109 J0.
N2268 X.4185 Y4.7603 I0. J.6109
N2270 X.372 Y4.994 I.5644 J.2337
N2272 X.4194 Y5.23 I.6109 J0.
N2274 G1 X.25
N2276 Y.25
N2278 X4.728
N2280 Y5.23
N2282 X1.5464
N2284 G2 X1.5821 Y5.1132 I-.5635 J-.236
N2286 G1 Z.2
N2288 G0 Z.25
N2290 X1.0315 Y2.74
N2292 Z.2
N2294 G1 Z-.3245
N2296 G2 X2.489 Y4.1975 I1.4575 J0.
N2298 X3.6157 Y3.6646 I0. J-1.4575
N2300 X3.9465 Y2.74 I-1.1267 J-.9246
N2302 X3.6157 Y1.8154 I-1.4575 J0.
N2304 X2.489 Y1.2825 I-1.1267 J.9246
N2306 X1.0315 Y2.74 I0. J1.4575
N2308 G1 Z.2
N2310 G0 Z2.
N2312 X-.5875 Y5.8574
N2314 Z.2
N2316 G1 Z-.1482
N2318 X-.234 Y5.5038
N2320 G3 X.1196 Y5.3573 I.3536 J.3536
N2322 X.4731 Y5.5038 I0. J.5001
N2324 G2 X.9829 Y5.715 I.5098 J-.5098
N2326 X1.4927 Y5.5038 I0. J-.721
N2328 X1.7039 Y4.994 I-.5098 J-.5098
N2330 X.9829 Y4.273 I-.721 J0.
N2332 X.4731 Y4.4843 I0. J.721
N2334 X.262 Y4.994 I.5098 J.5097
N2336 X.4731 Y5.5038 I.7209 J0.
N2338 G3 X.6196 Y5.8574 I-.3535 J.3536
N2340 X.4731 Y6.2109 I-.5 J0.
N2342 G1 X.1196 Y6.5645
N2344 Z.2
N2346 G0 Z.25
N2348 X-.5168 Y5.7866
N2350 Z.2
N2352 G1 Z-.1482
N2354 X-.1633 Y5.4331
N2356 G3 X.1903 Y5.2866 I.3536 J.3535
N2358 X.5438 Y5.4331 I0. J.5
N2360 G2 X.9829 Y5.615 I.4391 J-.4391
N2362 X1.4219 Y5.4331 I0. J-.621
N2364 X1.6038 Y4.994 I-.439 J-.4391
N2366 X.9829 Y4.3731 I-.6209 J0.
N2368 X.5438 Y4.555 I0. J.6209
N2370 X.362 Y4.994 I.4391 J.439
N2372 X.5438 Y5.4331 I.6209 J0.
N2374 G3 X.6902 Y5.7866 I-.3535 J.3535
N2376 X.5438 Y6.1402 I-.4999 J0.
N2378 G1 X.1903 Y6.4938
N2380 Z.2
N2382 G0 Z.25
N2384 X-.5875 Y5.8574
N2386 Z.2
N2388 G1 Z-.2313
N2390 X-.234 Y5.5038
N2392 G3 X.1196 Y5.3573 I.3536 J.3536
N2394 X.4731 Y5.5038 I0. J.5001
N2396 G2 X.9829 Y5.715 I.5098 J-.5098
N2398 X1.4927 Y5.5038 I0. J-.721
N2400 X1.7039 Y4.994 I-.5098 J-.5098
N2402 X.9829 Y4.273 I-.721 J0.
N2404 X.4731 Y4.4843 I0. J.721
N2406 X.262 Y4.994 I.5098 J.5097
N2408 X.4731 Y5.5038 I.7209 J0.
N2410 G3 X.6196 Y5.8574 I-.3535 J.3536
N2412 X.4731 Y6.2109 I-.5 J0.
N2414 G1 X.1196 Y6.5645
N2416 Z.2
N2418 G0 Z.25
N2420 X-.5168 Y5.7866
N2422 Z.2
N2424 G1 Z-.2313
N2426 X-.1633 Y5.4331
N2428 G3 X.1903 Y5.2866 I.3536 J.3535
N2430 X.5438 Y5.4331 I0. J.5
N2432 G2 X.9829 Y5.615 I.4391 J-.4391
N2434 X1.4219 Y5.4331 I0. J-.621
N2436 X1.6038 Y4.994 I-.439 J-.4391
N2438 X.9829 Y4.3731 I-.6209 J0.
N2440 X.5438 Y4.555 I0. J.6209
N2442 X.362 Y4.994 I.4391 J.439
N2444 X.5438 Y5.4331 I.6209 J0.
N2446 G3 X.6902 Y5.7866 I-.3535 J.3535
N2448 X.5438 Y6.1402 I-.4999 J0.
N2450 G1 X.1903 Y6.4938
N2452 Z.2
N2454 G0 Z.25
N2456 X-.5875 Y5.8574
N2458 Z.2
N2460 G1 Z-.3145
N2462 X-.234 Y5.5038
N2464 G3 X.1196 Y5.3573 I.3536 J.3536
N2466 X.4731 Y5.5038 I0. J.5001
N2468 G2 X.9829 Y5.715 I.5098 J-.5098
N2470 X1.4927 Y5.5038 I0. J-.721
N2472 X1.7039 Y4.994 I-.5098 J-.5098
N2474 X.9829 Y4.273 I-.721 J0.
N2476 X.4731 Y4.4843 I0. J.721
N2478 X.262 Y4.994 I.5098 J.5097
N2480 X.4731 Y5.5038 I.7209 J0.
N2482 G3 X.6196 Y5.8574 I-.3535 J.3536
N2484 X.4731 Y6.2109 I-.5 J0.
N2486 G1 X.1196 Y6.5645
N2488 Z.2
N2490 G0 Z.25
N2492 X-.5168 Y5.7866
N2494 Z.2
N2496 G1 Z-.3145
N2498 X-.1633 Y5.4331
N2500 G3 X.1903 Y5.2866 I.3536 J.3535
N2502 X.5438 Y5.4331 I0. J.5
N2504 G2 X.9829 Y5.615 I.4391 J-.4391
N2506 X1.4219 Y5.4331 I0. J-.621
N2508 X1.6038 Y4.994 I-.439 J-.4391
N2510 X.9829 Y4.3731 I-.6209 J0.
N2512 X.5438 Y4.555 I0. J.6209
N2514 X.362 Y4.994 I.4391 J.439
N2516 X.5438 Y5.4331 I.6209 J0.
N2518 G3 X.6902 Y5.7866 I-.3535 J.3535
N2520 X.5438 Y6.1402 I-.4999 J0.
N2522 G1 X.1903 Y6.4938
N2524 Z.2
N2526 G0 Z.25
N2528 X-.5875 Y5.8574
N2530 Z.2
N2532 G1 Z-.3245
N2534 X-.234 Y5.5038
N2536 G3 X.1196 Y5.3573 I.3536 J.3536
N2538 X.4731 Y5.5038 I0. J.5001
N2540 G2 X.9829 Y5.715 I.5098 J-.5098
N2542 X1.4927 Y5.5038 I0. J-.721
N2544 X1.7039 Y4.994 I-.5098 J-.5098
N2546 X.9829 Y4.273 I-.721 J0.
N2548 X.4731 Y4.4843 I0. J.721
N2550 X.262 Y4.994 I.5098 J.5097
N2552 X.4731 Y5.5038 I.7209 J0.
N2554 G3 X.6196 Y5.8574 I-.3535 J.3536
N2556 X.4731 Y6.2109 I-.5 J0.
N2558 G1 X.1196 Y6.5645
N2560 Z.2
N2562 G0 Z.25
N2564 X-.5168 Y5.7866
N2566 Z.2
N2568 G1 Z-.3245
N2570 X-.1633 Y5.4331
N2572 G3 X.1903 Y5.2866 I.3536 J.3535
N2574 X.5438 Y5.4331 I0. J.5
N2576 G2 X.9829 Y5.615 I.4391 J-.4391
N2578 X1.4219 Y5.4331 I0. J-.621
N2580 X1.6038 Y4.994 I-.439 J-.4391
N2582 X.9829 Y4.3731 I-.6209 J0.
N2584 X.5438 Y4.555 I0. J.6209
N2586 X.362 Y4.994 I.4391 J.439
N2588 X.5438 Y5.4331 I.6209 J0.
N2590 G3 X.6902 Y5.7866 I-.3535 J.3535
N2592 X.5438 Y6.1402 I-.4999 J0.
N2594 G1 X.1903 Y6.4938
N2596 Z.2
N2598 G0 Z.25
N2600 X-.5097 Y5.7796
N2602 Z.2
N2604 G1 Z-.3245
N2606 X-.1562 Y5.426
N2608 G3 X.1974 Y5.2795 I.3536 J.3536
N2610 X.5509 Y5.426 I0. J.5001
N2612 G2 X.9829 Y5.6049 I.432 J-.432
N2614 X1.4149 Y5.426 I0. J-.6109
N2616 X1.5938 Y4.994 I-.432 J-.432
N2618 X.9829 Y4.3831 I-.6109 J0.
N2620 X.5509 Y4.5621 I0. J.6109
N2622 X.372 Y4.994 I.432 J.4319
N2624 X.5509 Y5.426 I.6109 J0.
N2626 G3 X.6974 Y5.7796 I-.3535 J.3536
N2628 X.5509 Y6.1331 I-.5 J0.
N2630 G1 X.1974 Y6.4867
N2632 Z.2
N2634 G0 Z2.
(POCKETS NEXT  )
N2636 X2.5359 Y2.74
N2638 Z.2
N2640 G1 Z-.1312
N2642 G3 X2.3952 Y2.8807 I-.1407 J0.
N2644 X2.3772 Y2.8795 I0. J-.1407
N2646 X2.3102 Y2.74 I.1118 J-.1395
N2648 X2.3626 Y2.6136 I.1788 J0.
N2650 X2.489 Y2.5612 I.1264 J.1264
N2652 X2.6678 Y2.74 I0. J.1788
N2654 X2.6154 Y2.8664 I-.1788 J0.
N2656 X2.489 Y2.9188 I-.1264 J-.1264
N2658 X2.3772 Y2.8795 I0. J-.1788
N2660 G1 Z.2
N2662 G0 Z.25
N2664 X2.5359 Y2.74
N2666 Z.2
N2668 G1 Z-.1512
N2670 G3 X2.3952 Y2.8807 I-.1407 J0.
N2672 X2.3772 Y2.8795 I0. J-.1407
N2674 X2.3102 Y2.74 I.1118 J-.1395
N2676 X2.3626 Y2.6136 I.1788 J0.
N2678 X2.489 Y2.5612 I.1264 J.1264
N2680 X2.6678 Y2.74 I0. J.1788
N2682 X2.6154 Y2.8664 I-.1788 J0.
N2684 X2.489 Y2.9188 I-.1264 J-.1264
N2686 X2.3772 Y2.8795 I0. J-.1788
N2688 G1 Z.2
N2690 G0 Z.25
N2692 X2.6295 Y2.8805
N2694 Z.2
N2696 G1 Z-.1512
N2698 G3 X2.489 Y2.9387 I-.1405 J-.1405
N2700 X2.2903 Y2.74 I0. J-.1987
N2702 X2.3485 Y2.5995 I.1987 J0.
N2704 X2.489 Y2.5413 I.1405 J.1405
N2706 X2.6877 Y2.74 I0. J.1987
N2708 X2.6295 Y2.8805 I-.1987 J0.
N2710 G1 Z.2
N2712 G0 Z.25
N2714 X2.6437 Y2.8947
N2716 Z.2
N2718 G1 Z-.1512
N2720 G3 X2.489 Y2.9588 I-.1547 J-.1547
N2722 X2.2702 Y2.74 I0. J-.2188
N2724 X2.3343 Y2.5853 I.2188 J0.
N2726 X2.489 Y2.5212 I.1547 J.1547
N2728 X2.7078 Y2.74 I0. J.2188
N2730 X2.6437 Y2.8947 I-.2188 J0.
N2732 G1 Z.2
N2734 G0 Z2.
N2736 X2.5359 Y2.74
N2738 Z.2
N2740 G1 Z-.251
N2742 G3 X2.5219 Y2.8011 I-.1407 J0.
N2744 X2.489 Y2.8094 I-.0329 J-.0611
N2746 X2.4196 Y2.74 I0. J-.0694
N2748 X2.44 Y2.6909 I.0694 J0.
N2750 X2.489 Y2.6706 I.049 J.0491
N2752 X2.5584 Y2.74 I0. J.0694
N2754 X2.538 Y2.7891 I-.0694 J0.
N2756 X2.5219 Y2.8011 I-.049 J-.0491
N2758 G1 Z.2
N2760 G0 Z.25
N2762 X2.5359 Y2.74
N2764 Z.2
N2766 G1 Z-.3508
N2768 G3 X2.5219 Y2.8011 I-.1407 J0.
N2770 X2.489 Y2.8094 I-.0329 J-.0611
N2772 X2.4196 Y2.74 I0. J-.0694
N2774 X2.44 Y2.6909 I.0694 J0.
N2776 X2.489 Y2.6706 I.049 J.0491
N2778 X2.5584 Y2.74 I0. J.0694
N2780 X2.538 Y2.7891 I-.0694 J0.
N2782 X2.5219 Y2.8011 I-.049 J-.0491
N2784 G1 Z.2
N2786 G0 Z.25
N2788 X2.5359 Y2.74
N2790 Z.2
N2792 G1 Z-.4506
N2794 G3 X2.5219 Y2.8011 I-.1407 J0.
N2796 X2.489 Y2.8094 I-.0329 J-.0611
N2798 X2.4196 Y2.74 I0. J-.0694
N2800 X2.44 Y2.6909 I.0694 J0.
N2802 X2.489 Y2.6706 I.049 J.0491
N2804 X2.5584 Y2.74 I0. J.0694
N2806 X2.538 Y2.7891 I-.0694 J0.
N2808 X2.5219 Y2.8011 I-.049 J-.0491
N2810 G1 Z.2
N2812 G0 Z.25
N2814 X2.5359 Y2.74
N2816 Z.2
N2818 G1 Z-.5503
N2820 G3 X2.5219 Y2.8011 I-.1407 J0.
N2822 X2.489 Y2.8094 I-.0329 J-.0611
N2824 X2.4196 Y2.74 I0. J-.0694
N2826 X2.44 Y2.6909 I.0694 J0.
N2828 X2.489 Y2.6706 I.049 J.0491
N2830 X2.5584 Y2.74 I0. J.0694
N2832 X2.538 Y2.7891 I-.0694 J0.
N2834 X2.5219 Y2.8011 I-.049 J-.0491
N2836 G1 Z.2
N2838 G0 Z.25
N2840 X2.5359 Y2.74
N2842 Z.2
N2844 G1 Z-.6501
N2846 G3 X2.5219 Y2.8011 I-.1407 J0.
N2848 X2.489 Y2.8094 I-.0329 J-.0611
N2850 X2.4196 Y2.74 I0. J-.0694
N2852 X2.44 Y2.6909 I.0694 J0.
N2854 X2.489 Y2.6706 I.049 J.0491
N2856 X2.5584 Y2.74 I0. J.0694
N2858 X2.538 Y2.7891 I-.0694 J0.
N2860 X2.5219 Y2.8011 I-.049 J-.0491
N2862 G1 Z.2
N2864 G0 Z.25
N2866 X2.5359 Y2.74
N2868 Z.2
N2870 G1 Z-.7499
N2872 G3 X2.5219 Y2.8011 I-.1407 J0.
N2874 X2.489 Y2.8094 I-.0329 J-.0611
N2876 X2.4196 Y2.74 I0. J-.0694
N2878 X2.44 Y2.6909 I.0694 J0.
N2880 X2.489 Y2.6706 I.049 J.0491
N2882 X2.5584 Y2.74 I0. J.0694
N2884 X2.538 Y2.7891 I-.0694 J0.
N2886 X2.5219 Y2.8011 I-.049 J-.0491
N2888 G1 Z.2
N2890 G0 Z.25
N2892 X2.5359 Y2.74
N2894 Z.2
N2896 G1 Z-.8497
N2898 G3 X2.5219 Y2.8011 I-.1407 J0.
N2900 X2.489 Y2.8094 I-.0329 J-.0611
N2902 X2.4196 Y2.74 I0. J-.0694
N2904 X2.44 Y2.6909 I.0694 J0.
N2906 X2.489 Y2.6706 I.049 J.0491
N2908 X2.5584 Y2.74 I0. J.0694
N2910 X2.538 Y2.7891 I-.0694 J0.
N2912 X2.5219 Y2.8011 I-.049 J-.0491
N2914 G1 Z.2
N2916 G0 Z.25
N2918 X2.5359 Y2.74
N2920 Z.2
N2922 G1 Z-.9495
N2924 G3 X2.5219 Y2.8011 I-.1407 J0.
N2926 X2.489 Y2.8094 I-.0329 J-.0611
N2928 X2.4196 Y2.74 I0. J-.0694
N2930 X2.44 Y2.6909 I.0694 J0.
N2932 X2.489 Y2.6706 I.049 J.0491
N2934 X2.5584 Y2.74 I0. J.0694
N2936 X2.538 Y2.7891 I-.0694 J0.
N2938 X2.5219 Y2.8011 I-.049 J-.0491
N2940 G1 Z.2
N2942 G0 Z.25
N2944 X2.5522 Y2.8032
N2946 Z.2
N2948 G1 Z-.9495
N2950 G3 X2.489 Y2.8294 I-.0632 J-.0632
N2952 X2.3996 Y2.74 I0. J-.0894
N2954 X2.4258 Y2.6768 I.0894 J0.
N2956 X2.489 Y2.6506 I.0632 J.0632
N2958 X2.5784 Y2.74 I0. J.0894
N2960 X2.5522 Y2.8032 I-.0894 J0.
N2962 G1 Z.2
N2964 G0 Z.25
N2966 X2.5663 Y2.8173
N2968 Z.2
N2970 G1 Z-.9495
N2972 G3 X2.489 Y2.8493 I-.0773 J-.0773
N2974 X2.3797 Y2.74 I0. J-.1093
N2976 X2.4117 Y2.6627 I.1093 J0.
N2978 X2.489 Y2.6307 I.0773 J.0773
N2980 X2.5983 Y2.74 I0. J.1093
N2982 X2.5663 Y2.8173 I-.1093 J0.
N2984 G1 Z.2
N2986 G0 Z2.
N2988 M5
N2990 G91 G28 Z0. M9
N2992 A0.
N2994 M01
N2996 T232 M6
N2998 G0 G90 G54 X3.6048 Y1.8243 A0. S4278 M3
N3000 G43 H232 Z2. M8
N3002 Z.2
N3004 G1 Z-.4157 F6.16
N3006 G3 X3.9324 Y2.74 I-1.1158 J.9157
N3008 X3.6048 Y3.6557 I-1.4434 J0.
N3010 X2.489 Y4.1834 I-1.1158 J-.9157
N3012 X1.0455 Y2.74 I0. J-1.4434
N3014 X2.489 Y1.2965 I1.4435 J0.
N3016 X3.6048 Y1.8243 I0. J1.4435
N3018 G1 Z.2
N3020 G0 Z.25
N3022 X3.6776 Y3.5342
N3024 Z.2
N3026 G1 Z-.4157
N3028 G2 X3.9185 Y2.74 I-1.1886 J-.7942
N3030 X3.4998 Y1.7292 I-1.4295 J0.
N3032 X2.489 Y1.3105 I-1.0108 J1.0108
N3034 X1.0595 Y2.74 I0. J1.4295
N3036 X1.0664 Y2.8801 I1.4295 J0.
N3038 X2.489 Y4.1695 I1.4226 J-.1401
N3040 X3.6776 Y3.5342 I0. J-1.4295
N3042 G1 Z.2
N3044 G0 Z.25
N3046 X3.6048 Y1.8243
N3048 Z.2
N3050 G1 Z-.4356
N3052 G3 X3.9324 Y2.74 I-1.1158 J.9157
N3054 X3.6048 Y3.6557 I-1.4434 J0.
N3056 X2.489 Y4.1834 I-1.1158 J-.9157
N3058 X1.0455 Y2.74 I0. J-1.4434
N3060 X2.489 Y1.2965 I1.4435 J0.
N3062 X3.6048 Y1.8243 I0. J1.4435
N3064 G1 Z.2
N3066 G0 Z.25
N3068 X3.6776 Y3.5342
N3070 Z.2
N3072 G1 Z-.4356
N3074 G2 X3.9185 Y2.74 I-1.1886 J-.7942
N3076 X3.4998 Y1.7292 I-1.4295 J0.
N3078 X2.489 Y1.3105 I-1.0108 J1.0108
N3080 X1.0595 Y2.74 I0. J1.4295
N3082 X1.0664 Y2.8801 I1.4295 J0.
N3084 X2.489 Y4.1695 I1.4226 J-.1401
N3086 X3.6776 Y3.5342 I0. J-1.4295
N3088 G1 Z.2
N3090 G0 Z2.
N3092 M5
N3094 G91 G28 Z0. M9
N3096 A0.
N3098 M01
(PUT THAT SHIT IN THE JIIIIIG BOI)
N3100 T239 M6
N3102 G0 G90 G54 X-.7194 Y4.5305 A0. S1069 M3
N3104 G43 H239 Z2. M8
N3106 Z.2
N3108 G1 Z-.4757 F6.42
N3110 X-.2537 Y4.3485
N3112 G2 X.0644 Y3.8828 I-.1819 J-.4657
N3114 X.0301 Y3.7009 I-.5 J0.
N3116 G3 X-.1507 Y2.7829 I2.4589 J-.9609
N3118 G1 X-.1502 Y2.7024
N3120 Y2.6965
N3122 G3 X-.1431 Y2.5357 I1.8171 J0.
N3124 X2.489 Y.1 I2.6321 J.2043
N3126 X5.129 Y2.74 I0. J2.64
N3128 X5.1276 Y2.8253 I-2.64 J0.
N3130 G1 Y4.99
N3132 G3 X4.7376 Y5.38 I-.39 J0.
N3134 G1 X4.4721
N3136 X2.489
N3138 G3 X1.7072 Y5.2616 I0. J-2.64
N3140 G1 X1.6073 Y5.4112
N3142 G3 X.9829 Y5.745 I-.6244 J-.4172
N3144 X.2319 Y4.994 I0. J-.751
N3146 X.3585 Y4.5769 I.751 J0.
N3148 G1 X.4585 Y4.4272
N3150 G3 X.0301 Y3.7009 I2.0305 J-1.6872
N3152 G2 X-.4356 Y3.3828 I-.4657 J.1819
N3154 X-.6176 Y3.4171 I0. J.5
N3156 G1 X-1.0833 Y3.5991
N3158 Z.2
N3160 G0 Z.25
N3162 X-.6262 Y4.4941
N3164 Z.2
N3166 G1 Z-.4757
N3168 X-.1605 Y4.3121
N3170 G2 X.1575 Y3.8464 I-.182 J-.4657
N3172 X.1232 Y3.6645 I-.5 J0.
N3174 G3 X-.0506 Y2.7823 I2.3658 J-.9245
N3176 G1 X-.0502 Y2.7025
N3178 Y2.6965
N3180 G3 X-.0434 Y2.544 I1.7171 J0.
N3182 X2.489 Y.2 I2.5324 J.196
N3184 X5.029 Y2.74 I0. J2.54
N3186 X5.0276 Y2.8237 I-2.54 J0.
N3188 G1 Y4.99
N3190 G3 X4.7376 Y5.28 I-.29 J0.
N3192 G1 X4.4721
N3194 X2.489
N3196 G3 X1.6662 Y5.143 I0. J-2.54
N3198 G1 X1.5241 Y5.3557
N3200 G3 X.9829 Y5.6449 I-.5412 J-.3617
N3202 X.332 Y4.994 I0. J-.6509
N3204 X.4417 Y4.6324 I.6509 J0.
N3206 G1 X.5838 Y4.4198
N3208 G3 X.1232 Y3.6645 I1.9052 J-1.6798
N3210 G2 X-.3425 Y3.3464 I-.4657 J.1819
N3212 X-.5245 Y3.3807 I0. J.5
N3214 G1 X-.9902 Y3.5627
N3216 Z.2
N3218 G0 Z.25
N3220 X-.7194 Y4.5305
N3222 Z.2
N3224 G1 Z-.627
N3226 X-.2537 Y4.3485
N3228 G2 X.0644 Y3.8828 I-.1819 J-.4657
N3230 X.0301 Y3.7009 I-.5 J0.
N3232 G3 X-.1507 Y2.7829 I2.4589 J-.9609
N3234 G1 X-.1502 Y2.7024
N3236 Y2.6965
N3238 G3 X-.1431 Y2.5357 I1.8171 J0.
N3240 X2.489 Y.1 I2.6321 J.2043
N3242 X5.129 Y2.74 I0. J2.64
N3244 X5.1276 Y2.8253 I-2.64 J0.
N3246 G1 Y4.99
N3248 G3 X4.7376 Y5.38 I-.39 J0.
N3250 G1 X4.4721
N3252 X2.489
N3254 G3 X1.7072 Y5.2616 I0. J-2.64
N3256 G1 X1.6073 Y5.4112
N3258 G3 X.9829 Y5.745 I-.6244 J-.4172
N3260 X.2319 Y4.994 I0. J-.751
N3262 X.3585 Y4.5769 I.751 J0.
N3264 G1 X.4585 Y4.4272
N3266 G3 X.0301 Y3.7009 I2.0305 J-1.6872
N3268 G2 X-.4356 Y3.3828 I-.4657 J.1819
N3270 X-.6176 Y3.4171 I0. J.5
N3272 G1 X-1.0833 Y3.5991
N3274 Z.2
N3276 G0 Z.25
N3278 X-.6262 Y4.4941
N3280 Z.2
N3282 G1 Z-.627
N3284 X-.1605 Y4.3121
N3286 G2 X.1575 Y3.8464 I-.182 J-.4657
N3288 X.1232 Y3.6645 I-.5 J0.
N3290 G3 X-.0506 Y2.7823 I2.3658 J-.9245
N3292 G1 X-.0502 Y2.7025
N3294 Y2.6965
N3296 G3 X-.0434 Y2.544 I1.7171 J0.
N3298 X2.489 Y.2 I2.5324 J.196
N3300 X5.029 Y2.74 I0. J2.54
N3302 X5.0276 Y2.8237 I-2.54 J0.
N3304 G1 Y4.99
N3306 G3 X4.7376 Y5.28 I-.29 J0.
N3308 G1 X4.4721
N3310 X2.489
N3312 G3 X1.6662 Y5.143 I0. J-2.54
N3314 G1 X1.5241 Y5.3557
N3316 G3 X.9829 Y5.6449 I-.5412 J-.3617
N3318 X.332 Y4.994 I0. J-.6509
N3320 X.4417 Y4.6324 I.6509 J0.
N3322 G1 X.5838 Y4.4198
N3324 G3 X.1232 Y3.6645 I1.9052 J-1.6798
N3326 G2 X-.3425 Y3.3464 I-.4657 J.1819
N3328 X-.5245 Y3.3807 I0. J.5
N3330 G1 X-.9902 Y3.5627
N3332 Z.2
N3334 G0 Z.25
N3336 X-.7194 Y4.5305
N3338 Z.2
N3340 G1 Z-.7782
N3342 X-.2537 Y4.3485
N3344 G2 X.0644 Y3.8828 I-.1819 J-.4657
N3346 X.0301 Y3.7009 I-.5 J0.
N3348 G3 X-.1507 Y2.7829 I2.4589 J-.9609
N3350 G1 X-.1502 Y2.7024
N3352 Y2.6965
N3354 G3 X-.1431 Y2.5357 I1.8171 J0.
N3356 X2.489 Y.1 I2.6321 J.2043
N3358 X5.129 Y2.74 I0. J2.64
N3360 X5.1276 Y2.8253 I-2.64 J0.
N3362 G1 Y4.99
N3364 G3 X4.7376 Y5.38 I-.39 J0.
N3366 G1 X4.4721
N3368 X2.489
N3370 G3 X1.7072 Y5.2616 I0. J-2.64
N3372 G1 X1.6073 Y5.4112
N3374 G3 X.9829 Y5.745 I-.6244 J-.4172
N3376 X.2319 Y4.994 I0. J-.751
N3378 X.3585 Y4.5769 I.751 J0.
N3380 G1 X.4585 Y4.4272
N3382 G3 X.0301 Y3.7009 I2.0305 J-1.6872
N3384 G2 X-.4356 Y3.3828 I-.4657 J.1819
N3386 X-.6176 Y3.4171 I0. J.5
N3388 G1 X-1.0833 Y3.5991
N3390 Z.2
N3392 G0 Z.25
N3394 X-.6262 Y4.4941
N3396 Z.2
N3398 G1 Z-.7782
N3400 X-.1605 Y4.3121
N3402 G2 X.1575 Y3.8464 I-.182 J-.4657
N3404 X.1232 Y3.6645 I-.5 J0.
N3406 G3 X-.0506 Y2.7823 I2.3658 J-.9245
N3408 G1 X-.0502 Y2.7025
N3410 Y2.6965
N3412 G3 X-.0434 Y2.544 I1.7171 J0.
N3414 X2.489 Y.2 I2.5324 J.196
N3416 X5.029 Y2.74 I0. J2.54
N3418 X5.0276 Y2.8237 I-2.54 J0.
N3420 G1 Y4.99
N3422 G3 X4.7376 Y5.28 I-.29 J0.
N3424 G1 X4.4721
N3426 X2.489
N3428 G3 X1.6662 Y5.143 I0. J-2.54
N3430 G1 X1.5241 Y5.3557
N3432 G3 X.9829 Y5.6449 I-.5412 J-.3617
N3434 X.332 Y4.994 I0. J-.6509
N3436 X.4417 Y4.6324 I.6509 J0.
N3438 G1 X.5838 Y4.4198
N3440 G3 X.1232 Y3.6645 I1.9052 J-1.6798
N3442 G2 X-.3425 Y3.3464 I-.4657 J.1819
N3444 X-.5245 Y3.3807 I0. J.5
N3446 G1 X-.9902 Y3.5627
N3448 Z.2
N3450 G0 Z.25
N3452 X-.7194 Y4.5305
N3454 Z.2
N3456 G1 Z-.9295
N3458 X-.2537 Y4.3485
N3460 G2 X.0644 Y3.8828 I-.1819 J-.4657
N3462 X.0301 Y3.7009 I-.5 J0.
N3464 G3 X-.1507 Y2.7829 I2.4589 J-.9609
N3466 G1 X-.1502 Y2.7024
N3468 Y2.6965
N3470 G3 X-.1431 Y2.5357 I1.8171 J0.
N3472 X2.489 Y.1 I2.6321 J.2043
N3474 X5.129 Y2.74 I0. J2.64
N3476 X5.1276 Y2.8253 I-2.64 J0.
N3478 G1 Y4.99
N3480 G3 X4.7376 Y5.38 I-.39 J0.
N3482 G1 X4.4721
N3484 X2.489
N3486 G3 X1.7072 Y5.2616 I0. J-2.64
N3488 G1 X1.6073 Y5.4112
N3490 G3 X.9829 Y5.745 I-.6244 J-.4172
N3492 X.2319 Y4.994 I0. J-.751
N3494 X.3585 Y4.5769 I.751 J0.
N3496 G1 X.4585 Y4.4272
N3498 G3 X.0301 Y3.7009 I2.0305 J-1.6872
N3500 G2 X-.4356 Y3.3828 I-.4657 J.1819
N3502 X-.6176 Y3.4171 I0. J.5
N3504 G1 X-1.0833 Y3.5991
N3506 Z.2
N3508 G0 Z.25
N3510 X-.6262 Y4.4941
N3512 Z.2
N3514 G1 Z-.9295
N3516 X-.1605 Y4.3121
N3518 G2 X.1575 Y3.8464 I-.182 J-.4657
N3520 X.1232 Y3.6645 I-.5 J0.
N3522 G3 X-.0506 Y2.7823 I2.3658 J-.9245
N3524 G1 X-.0502 Y2.7025
N3526 Y2.6965
N3528 G3 X-.0434 Y2.544 I1.7171 J0.
N3530 X2.489 Y.2 I2.5324 J.196
N3532 X5.029 Y2.74 I0. J2.54
N3534 X5.0276 Y2.8237 I-2.54 J0.
N3536 G1 Y4.99
N3538 G3 X4.7376 Y5.28 I-.29 J0.
N3540 G1 X4.4721
N3542 X2.489
N3544 G3 X1.6662 Y5.143 I0. J-2.54
N3546 G1 X1.5241 Y5.3557
N3548 G3 X.9829 Y5.6449 I-.5412 J-.3617
N3550 X.332 Y4.994 I0. J-.6509
N3552 X.4417 Y4.6324 I.6509 J0.
N3554 G1 X.5838 Y4.4198
N3556 G3 X.1232 Y3.6645 I1.9052 J-1.6798
N3558 G2 X-.3425 Y3.3464 I-.4657 J.1819
N3560 X-.5245 Y3.3807 I0. J.5
N3562 G1 X-.9902 Y3.5627
N3564 Z.2
N3566 G0 Z.25
N3568 X-.7194 Y4.5305
N3570 Z.2
N3572 G1 Z-.9495
N3574 X-.2537 Y4.3485
N3576 G2 X.0644 Y3.8828 I-.1819 J-.4657
N3578 X.0301 Y3.7009 I-.5 J0.
N3580 G3 X-.1507 Y2.7829 I2.4589 J-.9609
N3582 G1 X-.1502 Y2.7024
N3584 Y2.6965
N3586 G3 X-.1431 Y2.5357 I1.8171 J0.
N3588 X2.489 Y.1 I2.6321 J.2043
N3590 X5.129 Y2.74 I0. J2.64
N3592 X5.1276 Y2.8253 I-2.64 J0.
N3594 G1 Y4.99
N3596 G3 X4.7376 Y5.38 I-.39 J0.
N3598 G1 X4.4721
N3600 X2.489
N3602 G3 X1.7072 Y5.2616 I0. J-2.64
N3604 G1 X1.6073 Y5.4112
N3606 G3 X.9829 Y5.745 I-.6244 J-.4172
N3608 X.2319 Y4.994 I0. J-.751
N3610 X.3585 Y4.5769 I.751 J0.
N3612 G1 X.4585 Y4.4272
N3614 G3 X.0301 Y3.7009 I2.0305 J-1.6872
N3616 G2 X-.4356 Y3.3828 I-.4657 J.1819
N3618 X-.6176 Y3.4171 I0. J.5
N3620 G1 X-1.0833 Y3.5991
N3622 Z.2
N3624 G0 Z.25
N3626 X-.6262 Y4.4941
N3628 Z.2
N3630 G1 Z-.9495
N3632 X-.1605 Y4.3121
N3634 G2 X.1575 Y3.8464 I-.182 J-.4657
N3636 X.1232 Y3.6645 I-.5 J0.
N3638 G3 X-.0506 Y2.7823 I2.3658 J-.9245
N3640 G1 X-.0502 Y2.7025
N3642 Y2.6965
N3644 G3 X-.0434 Y2.544 I1.7171 J0.
N3646 X2.489 Y.2 I2.5324 J.196
N3648 X5.029 Y2.74 I0. J2.54
N3650 X5.0276 Y2.8237 I-2.54 J0.
N3652 G1 Y4.99
N3654 G3 X4.7376 Y5.28 I-.29 J0.
N3656 G1 X4.4721
N3658 X2.489
N3660 G3 X1.6662 Y5.143 I0. J-2.54
N3662 G1 X1.5241 Y5.3557
N3664 G3 X.9829 Y5.6449 I-.5412 J-.3617
N3666 X.332 Y4.994 I0. J-.6509
N3668 X.4417 Y4.6324 I.6509 J0.
N3670 G1 X.5838 Y4.4198
N3672 G3 X.1232 Y3.6645 I1.9052 J-1.6798
N3674 G2 X-.3425 Y3.3464 I-.4657 J.1819
N3676 X-.5245 Y3.3807 I0. J.5
N3678 G1 X-.9902 Y3.5627
N3680 Z.2
N3682 G0 Z.25
N3684 X-.6076 Y4.4868
N3686 Z.2
N3688 G1 Z-.9495
N3690 X-.1419 Y4.3049
N3692 G2 X.1761 Y3.8392 I-.182 J-.4657
N3694 X.1418 Y3.6572 I-.5 J0.
N3696 G3 X-.0306 Y2.7822 I2.3472 J-.9172
N3698 G1 X-.0302 Y2.7025
N3700 Y2.6965
N3702 G3 X-.0235 Y2.5457 I1.6971 J0.
N3704 X2.489 Y.22 I2.5125 J.1943
N3706 X5.009 Y2.74 I0. J2.52
N3708 X5.0076 Y2.8233 I-2.52 J0.
N3710 G1 Y4.99
N3712 G3 X4.7376 Y5.26 I-.27 J0.
N3714 G1 X4.4721
N3716 X2.489
N3718 G3 X1.6622 Y5.1205 I0. J-2.52
N3720 G2 X1.6604 Y5.1202 I-.0018 J.0053
N3722 X1.6557 Y5.1227 I0. J.0056
N3724 G1 X1.5075 Y5.3446
N3726 G3 X.9829 Y5.625 I-.5246 J-.3506
N3728 X.3519 Y4.994 I0. J-.631
N3730 X.4583 Y4.6435 I.631 J0.
N3732 G1 X.6066 Y4.4217
N3734 G2 X.607 Y4.4209 I-.0047 J-.0032
N3736 G1 X.6061 Y4.4148
N3738 G3 X.1418 Y3.6572 I1.8829 J-1.6748
N3740 G2 X-.3239 Y3.3392 I-.4657 J.182
N3742 X-.5059 Y3.3735 I0. J.5
N3744 G1 X-.9716 Y3.5554
N3746 Z.2
N3748 G0 Z.25
N3750 X-.589 Y4.4796
N3752 Z.2
N3754 G1 Z-.9495
N3756 X-.1233 Y4.2976
N3758 G2 X.1948 Y3.8319 I-.1819 J-.4657
N3760 X.1605 Y3.6499 I-.5 J0.
N3762 G3 X-.0106 Y2.7821 I2.3285 J-.9099
N3764 G1 X-.0102 Y2.7025
N3766 Y2.6965
N3768 G3 X-.0036 Y2.5473 I1.6771 J0.
N3770 X2.489 Y.24 I2.4926 J.1927
N3772 X4.989 Y2.74 I0. J2.5
N3774 X4.9876 Y2.823 I-2.5 J0.
N3776 G1 Y4.99
N3778 G3 X4.7376 Y5.24 I-.25 J0.
N3780 G1 X4.4721
N3782 X2.489
N3784 G3 X1.6688 Y5.1016 I0. J-2.5
N3786 G2 X1.6604 Y5.1002 I-.0084 J.0242
N3788 X1.6391 Y5.1116 I0. J.0256
N3790 G1 X1.4909 Y5.3334
N3792 G3 X.9829 Y5.6049 I-.508 J-.3394
N3794 X.372 Y4.994 I0. J-.6109
N3796 X.4749 Y4.6546 I.6109 J0.
N3798 G1 X.6232 Y4.4328
N3800 G2 X.6273 Y4.4216 I-.0213 J-.0143
N3802 G1 X.6253 Y4.4081
N3804 G2 X.621 Y4.4015 I-.0234 J.0104
N3806 G3 X.1605 Y3.6499 I1.868 J-1.6615
N3808 G2 X-.3052 Y3.3319 I-.4657 J.182
N3810 X-.4872 Y3.3662 I0. J.5
N3812 G1 X-.9529 Y3.5482
N3814 Z.2
N3816 G0 Z2.
(PLACE IN VERTICLE JIG )
N3818 X-1. Y.4375
N3820 Z.2
N3822 G1 Z-.0818
N3824 X.1875
N3826 Y.1875
N3828 X1.7338
N3830 Y.4375
N3832 X.1875
N3834 X0. Y.625
N3836 Y0.
N3838 X1.9213
N3840 Y.625
N3842 X0.
N3844 Z.2
N3846 G0 Z.25
N3848 X-1. Y.4375
N3850 Z.2
N3852 G1 Z-.1637
N3854 X.1875
N3856 Y.1875
N3858 X1.7338
N3860 Y.4375
N3862 X.1875
N3864 X0. Y.625
N3866 Y0.
N3868 X1.9213
N3870 Y.625
N3872 X0.
N3874 Z.2
N3876 G0 Z.25
N3878 X-1. Y.4375
N3880 Z.2
N3882 G1 Z-.2455
N3884 X.1875
N3886 Y.1875
N3888 X1.7338
N3890 Y.4375
N3892 X.1875
N3894 X0. Y.625
N3896 Y0.
N3898 X1.9213
N3900 Y.625
N3902 X0.
N3904 Z.2
N3906 G0 Z.25
N3908 X-1. Y.4375
N3910 Z.2
N3912 G1 Z-.2655
N3914 X.1875
N3916 Y.1875
N3918 X1.7338
N3920 Y.4375
N3922 X.1875
N3924 X0. Y.625
N3926 Y0.
N3928 X1.9213
N3930 Y.625
N3932 X0.
N3934 Z.2
N3936 G0 Z2.
N3938 M5
N3940 G91 G28 Z0. M9
N3942 A0.
N3944 M01
N3946 T2 M6
N3948 G0 G90 G54 X.7575 Y.1949 A0. S1069 M3
N3950 G43 H2 Z2. M8
N3952 G98 G81 Z-.3655 R.2345 F1.07
N3954 X1.5075
N3956 G80
N3958 M5
N3960 G91 G28 Z0. M9
N3962 A0.
N3964 M01
N3966 T88 M6
N3968 G0 G90 G54 X.7575 Y.1949 A0. S1364 M3
N3970 G43 H88 Z2. M8
N3972 G98 G83 Z-.8555 R.5 Q.1 F4.15
N3974 X1.5075
N3976 G80
N3978 M5
N3980 G91 G28 Z0. M9
N3982 G28 X0. Y0. A0.
N3984 M30
%
