%
O0000(UPPER SEAL VERTICLE OPERATIONS)
(DATE=DD-MM-YY - 12-05-17 TIME=HH:MM - 13:16)
(MCX FILE - \\KHENSU\HOME03\JTALIK\DESKTOP\GITHUB\ELECTRIC-FEED-SYSTEM\2.2 KN\CAD\V6 MANUFACTURING\FOR MASTERCAM\UPPER SEAL PLATE\UPPER SEAL PLATE V6.EMCX-9)
(NC FILE - \\KHENSU\HOME03\JTALIK\DESKTOP\GITHUB\ELECTRIC-FEED-SYSTEM\2.2 KN\CAD\V6 MANUFACTURING\FOR MASTERCAM\UPPER SEAL PLATE\UPPER SEAL VERTICLE OPERATIONS.NC)
(MATERIAL - ALUMINUM INCH - 2024)
( T239 |  1/2 FLAT ENDMILL | H239 )
( T2 |  1/4 CENTERDRILL | H2 )
( T88 |  NO. 9 DRILL | H88 )
N100 G20
N102 G0 G17 G40 G49 G80 G90
N104 T2 M6
N106 G0 G90 G54 X-1.0058 Y.4476 A0. S1069 M3
N108 G43 H2 Z2. M8
N110 Z.2
N112 G1 Z-.0818 F10.
N114 X.1774
N116 Y.1774
N118 X1.7438
N120 Y.4476
N122 X.1774
N124 X0. Y.625
N126 X-.0058
N128 Y0.
N130 G3 X0. Y-.0057 I.0058 J0.
N132 G1 X1.9213
N134 G3 X1.927 Y0. I0. J.0057
N136 G1 Y.625
N138 G3 X1.9213 Y.6308 I-.0057 J0.
N140 G1 X0.
N142 G3 X-.0058 Y.625 I0. J-.0058
N144 G1 Z.2
N146 G0 Z.25
N148 X-1.0058 Y.4476
N150 Z.2
N152 G1 Z-.1637
N154 X.1774
N156 Y.1774
N158 X1.7438
N160 Y.4476
N162 X.1774
N164 X0. Y.625
N166 X-.0058
N168 Y0.
N170 G3 X0. Y-.0057 I.0058 J0.
N172 G1 X1.9213
N174 G3 X1.927 Y0. I0. J.0057
N176 G1 Y.625
N178 G3 X1.9213 Y.6308 I-.0057 J0.
N180 G1 X0.
N182 G3 X-.0058 Y.625 I0. J-.0058
N184 G1 Z.2
N186 G0 Z.25
N188 X-1.0058 Y.4476
N190 Z.2
N192 G1 Z-.2455
N194 X.1774
N196 Y.1774
N198 X1.7438
N200 Y.4476
N202 X.1774
N204 X0. Y.625
N206 X-.0058
N208 Y0.
N210 G3 X0. Y-.0057 I.0058 J0.
N212 G1 X1.9213
N214 G3 X1.927 Y0. I0. J.0057
N216 G1 Y.625
N218 G3 X1.9213 Y.6308 I-.0057 J0.
N220 G1 X0.
N222 G3 X-.0058 Y.625 I0. J-.0058
N224 G1 Z.2
N226 G0 Z.25
N228 X-1.0058 Y.4476
N230 Z.2
N232 G1 Z-.2655
N234 X.1774
N236 Y.1774
N238 X1.7438
N240 Y.4476
N242 X.1774
N244 X0. Y.625
N246 X-.0058
N248 Y0.
N250 G3 X0. Y-.0057 I.0058 J0.
N252 G1 X1.9213
N254 G3 X1.927 Y0. I0. J.0057
N256 G1 Y.625
N258 G3 X1.9213 Y.6308 I-.0057 J0.
N260 G1 X0.
N262 G3 X-.0058 Y.625 I0. J-.0058
N264 G1 Z.2
N266 G0 Z2.
N268 M5
N270 G91 G28 Z0. M9
N272 A0.
N274 M01
N276 T3 M6
N278 G0 G90 G54 X.7575 Y.1949 A0. S1069 M3
N280 G43 H3 Z2. M8
N282 G98 G81 Z-.3655 R.2345 F1.07
N284 X1.5075
N286 G80
N288 M5
N290 G91 G28 Z0. M9
N292 A0.
N294 M01
N296 T5 M6
N298 G0 G90 G54 X.7575 Y.1949 A0. S1364 M3
N300 G43 H5 Z2. M8
N302 G98 G83 Z-.8555 R.5 Q.1 F4.15
N304 X1.5075
N306 G80
N308 M5
N310 G91 G28 Z0. M9
N312 G28 X0. Y0. A0.
N314 M30
%
