%
O0( MOTOR MOUNT_V6 WHAT )
( DATE=DD-MM-YY - 11-05-17 TIME=HH:MM - 10:42 )
( MCX FILE - \\KHENSU\HOME03\JTALIK\DESKTOP\GITHUB\ELECTRIC-FEED-SYSTEM\2.2 KN\CAD\V6 MANUFACTURING\FOR MASTERCAM\MOTOR MOUNT\MOTOR MOUNT_V6.EMCX-9 )
( NC FILE - \\KHENSU\HOME03\JTALIK\DESKTOP\GITHUB\ELECTRIC-FEED-SYSTEM\2.2 KN\CAD\V6 MANUFACTURING\FOR MASTERCAM\MOTOR MOUNT\MOTOR MOUNT_V6 WHAT.NC )
( MATERIAL - ALUMINUM INCH - 2024 )
( T290 | 1/2 FLAT ENDMILL | H290 )
N100 G20
N110 G0 G17 G40 G49 G80 G90
N120 T290 M6
N130 G0 G90 G54 X-.55 Y5.3798 S1069 M3
N140 G43 H290 Z1.
N150 M8
N160 Z.2
N170 G1 Z-.01 F6.4
N180 X7.2559
N190 Y5.0295
N200 X-.3
N210 Y4.6791
N220 X7.2559
N230 Y4.3288
N240 X-.3
N250 Y3.9785
N260 X7.2559
N270 Y3.6282
N280 X-.3
N290 Y3.2779
N300 X7.2559
N310 Y2.9276
N320 X-.3
N330 Y2.5773
N340 X7.2559
N350 Y2.227
N360 X-.3
N370 Y1.8767
N380 X7.2559
N390 Y1.5263
N400 X-.3
N410 Y1.176
N420 X7.2559
N430 Y.8257
N440 X-.3
N450 Y.4754
N460 X7.2559
N470 Y.1251
N480 X-.55
N490 G0 Z1.
N500 M5
N510 G91 G28 Z0. M9
N520 G28 X0. Y0.
N530 M30
%
