%
O0( LOWER SEAL PLATE V6 FINAL POCKET )
( DATE=DD-MM-YY - 08-05-17 TIME=HH:MM - 17:53 )
( MCX FILE - \\KHENSU\HOME03\JTALIK\DESKTOP\GITHUB\ELECTRIC-FEED-SYSTEM\2.2 KN\CAD\V6 MANUFACTURING\FOR MASTERCAM\LOWER SEAL PLATE\LOWER SEAL PLATE V6.EMCX-9 )
( NC FILE - \\KHENSU\HOME03\JTALIK\DESKTOP\GITHUB\ELECTRIC-FEED-SYSTEM\2.2 KN\CAD\V6 MANUFACTURING\FOR MASTERCAM\LOWER SEAL PLATE\LOWER SEAL PLATE V6 FINAL POCKET.NC )
( MATERIAL - ALUMINUM INCH - 2024 )
( T232 |  1/8 FLAT ENDMILL | H232 )
N100 G20
N110 G0 G17 G40 G49 G80 G90
N120 T232 M6
N130 G0 G90 G54 X5.5617 Y2.345 S1069 M3
N140 G43 H232 Z2.0787
N150 M8
N160 Z1.5
N170 G1 Z.0516 F6.4
N180 G3 X5.5266 Y2.3801 I-.0351 J0.
N190 X5.4914 Y2.345 I0. J-.0351
N200 X5.5734 Y2.263 I.082 J0.
N210 X5.6555 Y2.345 I0. J.082
N220 X5.5266 Y2.4739 I-.1289 J0.
N230 X5.3977 Y2.345 I0. J-.1289
N240 X5.4109 Y2.278 I.1757 J0.
N250 X5.55 Y2.1906 I.1391 J.067
N260 X5.7044 Y2.345 I0. J.1544
N270 X5.55 Y2.4994 I-.1544 J0.
N280 X5.3956 Y2.345 I0. J-.1544
N290 X5.4109 Y2.278 I.1544 J0.
N300 G1 Z1.5
N310 G0 Z1.8016
N320 X5.5617 Y2.345
N330 Z1.5
N340 G1 Z.0244
N350 G3 X5.5266 Y2.3801 I-.0351 J0.
N360 X5.4914 Y2.345 I0. J-.0351
N370 X5.5734 Y2.263 I.082 J0.
N380 X5.6555 Y2.345 I0. J.082
N390 X5.5266 Y2.4739 I-.1289 J0.
N400 X5.3977 Y2.345 I0. J-.1289
N410 X5.4109 Y2.278 I.1757 J0.
N420 X5.55 Y2.1906 I.1391 J.067
N430 X5.7044 Y2.345 I0. J.1544
N440 X5.55 Y2.4994 I-.1544 J0.
N450 X5.3956 Y2.345 I0. J-.1544
N460 X5.4109 Y2.278 I.1544 J0.
N470 G1 Z1.5
N480 G0 Z1.7744
N490 X5.5617 Y2.345
N500 Z1.5
N510 G1 Z-.0028
N520 G3 X5.5266 Y2.3801 I-.0351 J0.
N530 X5.4914 Y2.345 I0. J-.0351
N540 X5.5734 Y2.263 I.082 J0.
N550 X5.6555 Y2.345 I0. J.082
N560 X5.5266 Y2.4739 I-.1289 J0.
N570 X5.3977 Y2.345 I0. J-.1289
N580 X5.4109 Y2.278 I.1757 J0.
N590 X5.55 Y2.1906 I.1391 J.067
N600 X5.7044 Y2.345 I0. J.1544
N610 X5.55 Y2.4994 I-.1544 J0.
N620 X5.3956 Y2.345 I0. J-.1544
N630 X5.4109 Y2.278 I.1544 J0.
N640 G1 Z1.5
N650 G0 Z1.7472
N660 X5.5617 Y2.345
N670 Z1.5
N680 G1 Z-.03
N690 G3 X5.5266 Y2.3801 I-.0351 J0.
N700 X5.4914 Y2.345 I0. J-.0351
N710 X5.5734 Y2.263 I.082 J0.
N720 X5.6555 Y2.345 I0. J.082
N730 X5.5266 Y2.4739 I-.1289 J0.
N740 X5.3977 Y2.345 I0. J-.1289
N750 X5.4109 Y2.278 I.1757 J0.
N760 X5.55 Y2.1906 I.1391 J.067
N770 X5.7044 Y2.345 I0. J.1544
N780 X5.55 Y2.4994 I-.1544 J0.
N790 X5.3956 Y2.345 I0. J-.1544
N800 X5.4109 Y2.278 I.1544 J0.
N810 G1 Z1.5
N820 G0 Z1.72
N830 X5.55 Y2.5094
N840 Z1.5
N850 G1 Z-.03
N860 G3 X5.3856 Y2.345 I0. J-.1644
N870 X5.55 Y2.1806 I.1644 J0.
N880 X5.7144 Y2.345 I0. J.1644
N890 X5.55 Y2.5094 I-.1644 J0.
N900 G1 Z1.5
N910 G0 Z2.0787
N920 M5
N930 G91 G28 Z0. M9
N940 G28 X0. Y0.
N950 M30
%
