%
O0000(HOUSING CONTOUR FINAL PASS)
(DATE=DD-MM-YY - 18-05-17 TIME=HH:MM - 13:22)
(MCX FILE - \\KHENSU\HOME03\JTALIK\DESKTOP\GITHUB\ELECTRIC-FEED-SYSTEM\2.2 KN\CAD\V6 MANUFACTURING\FOR MASTERCAM\HOUSING\HOUSING VERSION 3.EMCX-9)
(NC FILE - \\KHENSU\HOME03\JTALIK\DESKTOP\GITHUB\ELECTRIC-FEED-SYSTEM\2.2 KN\CAD\V6 MANUFACTURING\FOR MASTERCAM\HOUSING\HOUSING CONTOUR FINAL PASS.NC)
(MATERIAL - ALUMINUM INCH - 2024)
( T2 | 1/2 FLAT ENDMILL | H290 )
N100 G20
N110 G0 G17 G40 G49 G80 G90
N120 T2 M6
N130 G0 G90 G54 X5.6432 Y5.805 A0. S1500 M3
N140 G43 H290 Z2. M8
N150 Z1.173
N160 G1 Z0. F6.42
N170 Y5.321 F10.
N180 G3 X6.1272 Y4.837 I.484 J0.
N190 G1 X6.7044
N200 X7.8
N210 G2 X8.042 Y4.595 I0. J-.242
N220 G1 Y2.595
N230 Y.745
N240 G3 X8.3 Y.487 I.258 J0.
N250 G1 X9.3
N260 G2 X9.542 Y.245 I0. J-.242
N270 G1 Y-.155
N280 G2 X9.3 Y-.397 I-.242 J0.
N290 G1 X1.8
N300 G2 X1.558 Y-.155 I0. J.242
N310 G1 Y.245
N320 G2 X1.8 Y.487 I.242 J0.
N330 G1 X2.8
N340 G3 X3.058 Y.745 I0. J.258
N350 G1 Y2.345
N360 G2 X5.55 Y4.837 I2.492 J0.
N370 G1 X6.1272
N380 G3 X6.6112 Y5.321 I0. J.484
N390 G1 Y5.805
N400 Z.2 F6.42
N410 G0 Z2.
N420 M5
N430 G91 G28 Z0. M9
N440 G28 X0. Y0. A0.
N450 M30
%
