%
O0000(HOUSING CONV)
(DATE=DD-MM-YY - 17-05-17 TIME=HH:MM - 17:00)
(MCX FILE - \\KHENSU\HOME03\JTALIK\DESKTOP\GITHUB\ELECTRIC-FEED-SYSTEM\2.2 KN\CAD\V6 MANUFACTURING\FOR MASTERCAM\HOUSING\HOUSING VERSION 3.EMCX-9)
(NC FILE - \\KHENSU\HOME03\JTALIK\DESKTOP\GITHUB\ELECTRIC-FEED-SYSTEM\2.2 KN\CAD\V6 MANUFACTURING\FOR MASTERCAM\HOUSING\HOUSING CONV.NC)
(MATERIAL - ALUMINUM INCH - 2024)
( T299 | 1-1/2 FLAT ENDMILL | H299 )
N100 G20
N110 G0 G17 G40 G49 G80 G90
N120 T299 M6
N130 G0 G90 G54 X.2238 Y-.244 A0. S1000 M4
N140 G43 H299 Z2.
N150 Z1.8812
N160 G1 X.2237 Y-.2444 Z1.8737 F6.42
N170 X.2232 Y-.2454 Z1.8663
N180 X.2225 Y-.2471 Z1.8591
N190 X.2215 Y-.2494 Z1.8521
N200 X.2202 Y-.2524 Z1.8453
N210 X.2186 Y-.256 Z1.839
N220 X.2168 Y-.2601 Z1.833
N230 X.2148 Y-.2648 Z1.8275
N240 X.2126 Y-.2699 Z1.8226
N250 X.2102 Y-.2755 Z1.8182
N260 X.2076 Y-.2814 Z1.8145
N270 X.2049 Y-.2877 Z1.8114
N280 X.2021 Y-.2942 Z1.809
N290 X.1992 Y-.3009 Z1.8073
N300 X.1964 Y-.3082 Z1.806 F10.
N310 X.1945 Y-.3158 Z1.8046
N320 X.1933 Y-.3236 Z1.8032
N330 X.193 Y-.3314 Z1.8018
N340 X.1935 Y-.3393 Z1.8004
N350 X.1948 Y-.347 Z1.799
N360 X.1969 Y-.3546 Z1.7977
N370 X.1997 Y-.3619 Z1.7963
N380 X.2034 Y-.3688 Z1.7949
N390 X.2077 Y-.3754 Z1.7935
N400 X.2127 Y-.3814 Z1.7921
N410 X.2183 Y-.3869 Z1.7907
N420 X.2245 Y-.3918 Z1.7893
N430 X.2311 Y-.396 Z1.788
N440 X.2381 Y-.3995 Z1.7866
N450 X.9097 Y-.6908
N460 X1.0094 Y-.7341 Z1.782
N470 X1.0238 Y-.7407 Z1.7813
N480 X1.0378 Y-.748 Z1.7806
N490 X1.0516 Y-.756 Z1.7799
N500 X1.0649 Y-.7646 Z1.7793
N510 X1.0778 Y-.7739 Z1.7786
N520 X1.0902 Y-.7837 Z1.7779
N530 X1.1022 Y-.7941 Z1.7772
N540 X1.1137 Y-.805 Z1.7766
N550 X1.21 Y-.8583 F6.42
N560 X1.3029 Y-.8993
N570 X1.3805 Y-.9251
N580 X1.4466 Y-.9416
N590 X1.5557 Y-.9604
N600 X1.6505 Y-.9701
N610 X1.7356 Y-.9746
N620 X1.8141 Y-.9761
N630 X1.8885 Y-.9759
N640 X1.9601 Y-.9746
N650 X2.0301 Y-.9726
N660 G3 X2.236 Y-.9648 I-.5613 J17.4336
N670 X2.5767 Y-.9491 I-2.9813 J68.5673
N680 G1 X2.6451 Y-.9459
N690 X3.1268 Y-.9224
N700 X8.778 Y-.6449
N710 X8.8305 Y-.6411
N720 X8.8783 Y-.633
N730 X8.9316 Y-.6185
N740 X8.9888 Y-.5958
N750 X9.0476 Y-.5647
N760 X9.1063 Y-.5257
N770 X9.1635 Y-.4792
N780 X9.2181 Y-.4261
N790 X9.2693 Y-.3674
N800 X9.3167 Y-.304
N810 X9.36 Y-.2368
N820 X9.3992 Y-.1666
N830 X9.4343 Y-.0941
N840 X9.4656 Y-.02
N850 X9.4932 Y.0554
N860 X9.5175 Y.1315
N870 X9.5388 Y.2082
N880 X9.5573 Y.2851
N890 X9.5734 Y.3622
N900 X9.5872 Y.4393
N910 X9.599 Y.5163
N920 X9.609 Y.5932
N930 X9.6174 Y.6698
N940 X9.6243 Y.7463
N950 X9.63 Y.8225
N960 X9.6346 Y.8986
N970 X9.6381 Y.9744
N980 X9.6408 Y1.05
N990 X9.6426 Y1.1255
N1000 X9.6436 Y1.2007
N1010 X9.6441 Y1.2758
N1020 X9.6439 Y1.3508
N1030 X9.6433 Y1.4256
N1040 G3 X9.6408 Y1.575 I-15.3535 J-.1816
N1050 X9.6348 Y1.7985 I-21.7727 J-.4703
N1060 G1 X9.6324 Y1.8729
N1070 G2 X9.6277 Y2.0218 I47.3347 J1.5706
N1080 X9.6205 Y2.3202 I30.5038 J.8822
N1090 X9.614 Y2.7689 I50.735 J.962
N1100 X9.61 Y3.2931 I96.7723 J.9904
N1110 G1 X9.6097 Y3.368
N1120 X9.6088 Y3.5928
N1130 X9.6079 Y3.8926
N1140 X9.6078 Y3.9676
N1150 X9.607 Y3.9956
N1160 X9.6051 Y4.0206
N1170 X9.6009 Y4.0527
N1180 X9.593 Y4.0916
N1190 X9.5801 Y4.1363
N1200 X9.5607 Y4.1855
N1210 X9.5337 Y4.2372
N1220 X9.4994 Y4.2897
N1230 X9.4581 Y4.3417
N1240 X9.4104 Y4.3921
N1250 X9.3571 Y4.4402
N1260 X9.299 Y4.4853
N1270 X9.2368 Y4.5272
N1280 X9.1712 Y4.5655
N1290 X9.1029 Y4.6004
N1300 X9.0325 Y4.6317
N1310 X8.9605 Y4.6598
N1320 X8.8873 Y4.6848
N1330 X8.8131 Y4.7069
N1340 X8.7383 Y4.7263
N1350 X8.6631 Y4.7433
N1360 X8.5875 Y4.7582
N1370 X8.5118 Y4.771
N1380 X8.436 Y4.782
N1390 X8.3602 Y4.7913
N1400 X8.2845 Y4.7992
N1410 X8.2088 Y4.8058
N1420 X8.1331 Y4.8116
N1430 X8.0574 Y4.8168
N1440 X7.9818 Y4.8215
N1450 X7.9062 Y4.8257
N1460 G3 X7.7552 Y4.833 I-.8167 J-15.3756
N1470 X7.5289 Y4.8415 I-.8415 J-19.4632
N1480 X7.2275 Y4.8494 I-.8912 J-28.2125
N1490 X6.8514 Y4.8556 I-.9162 J-43.7642
N1500 X6.3255 Y4.8604 I-.9938 J-80.2461
N1510 G1 X6.2505 Y4.8609
N1520 X6.0253 Y4.862
N1530 X5.8001 Y4.8628
N1540 X5.5 Y4.8635
N1550 X5.1248 Y4.8641
N1560 X4.5998 Y4.8646
N1570 X3.6997 Y4.8649
N1580 X2.4247 Y4.865
N1590 X2.3724 Y4.8649
N1600 X2.3509 Y4.8633
N1610 X2.3222 Y4.8598
N1620 X2.2867 Y4.8533
N1630 X2.2451 Y4.8423
N1640 X2.1985 Y4.8255
N1650 X2.1485 Y4.8016
N1660 X2.0971 Y4.7703
N1670 X2.0457 Y4.732
N1680 X1.9953 Y4.6872
N1690 X1.9469 Y4.6364
N1700 X1.9012 Y4.5806
N1710 X1.8585 Y4.5204
N1720 X1.8192 Y4.4566
N1730 X1.7833 Y4.3898
N1740 X1.7509 Y4.3206
N1750 X1.7217 Y4.2496
N1760 X1.6957 Y4.1772
N1770 X1.6726 Y4.1037
N1780 X1.6522 Y4.0295
N1790 X1.6343 Y3.9546
N1800 X1.6186 Y3.8795
N1810 X1.6051 Y3.804
N1820 X1.5934 Y3.7284
N1830 X1.5834 Y3.6528
N1840 X1.5746 Y3.5771
N1850 X1.5667 Y3.5014
N1860 X1.5596 Y3.4257
N1870 X1.5532 Y3.35
N1880 X1.5474 Y3.2744
N1890 X1.5422 Y3.1987
N1900 X1.5375 Y3.1231
N1910 X1.5332 Y3.0475
N1920 G3 X1.5259 Y2.8964 I15.3107 J-.8168
N1930 X1.5174 Y2.6701 I19.3809 J-.8414
N1940 X1.5094 Y2.3688 I28.093 J-.8911
N1950 X1.5032 Y1.9927 I43.5787 J-.9162
N1960 X1.4984 Y1.4668 I79.9055 J-.9938
N1970 G1 X1.4979 Y1.3917
N1980 X1.4968 Y1.1665
N1990 X1.496 Y.9414
N2000 X1.4952 Y.6412
N2010 G3 X1.4951 Y.5662 I19.3679 J-.075
N2020 X1.4952 Y.5106 I19.368 J0.
N2030 G1 X1.4973 Y.4837
N2040 X1.5014 Y.4535
N2050 X1.5084 Y.4188
N2060 X1.5194 Y.3791
N2070 X1.5358 Y.3348
N2080 X1.5588 Y.2872
N2090 X1.5891 Y.238
N2100 X1.6266 Y.1885
N2110 X1.6707 Y.1401
N2120 X1.7208 Y.0934
N2130 X1.7761 Y.0494
N2140 X1.8361 Y.0084
N2150 X1.8998 Y-.0293
N2160 X1.9666 Y-.0634
N2170 X2.0359 Y-.094
N2180 X2.1072 Y-.1211
N2190 X2.1799 Y-.1451
N2200 X2.2538 Y-.1659
N2210 X2.3284 Y-.1839
N2220 X2.4036 Y-.1994
N2230 X2.4792 Y-.2124
N2240 X2.555 Y-.2233
N2250 X2.6309 Y-.2322
N2260 X2.7069 Y-.2395
N2270 X2.7829 Y-.2458
N2280 X2.8589 Y-.2511
N2290 X2.9349 Y-.2555
N2300 X3.0109 Y-.2592
N2310 X3.0868 Y-.2621
N2320 X3.1627 Y-.2644
N2330 X3.2385 Y-.2661
N2340 X3.3143 Y-.2672
N2350 X3.39 Y-.2679
N2360 G3 X3.4795 Y-.2682 I.0895 J14.8329
N2370 X3.5413 Y-.2681 I0. J14.8332
N2380 X3.7678 Y-.2657 I-.079 J18.7663
N2390 X4.0692 Y-.2592 I-.4426 J27.1829
N2400 X4.4452 Y-.2472 I-1.1522 J42.1415
N2410 X4.9707 Y-.2264 I-2.7971 J77.2112
N2420 G1 X5.0458 Y-.2232
N2430 X5.2708 Y-.2132
N2440 X5.4957 Y-.203
N2450 X5.7955 Y-.1891
N2460 X6.1702 Y-.1713
N2470 X6.6947 Y-.146
N2480 X7.5937 Y-.1022
N2490 X7.9659 Y-.0839
N2500 X8.0234 Y-.0782
N2510 X8.078 Y-.0682
N2520 X8.1315 Y-.0537
N2530 X8.1846 Y-.0346
N2540 X8.2373 Y-.0106
N2550 X8.2895 Y.0183
N2560 X8.341 Y.0521
N2570 X8.3915 Y.0908
N2580 X8.4405 Y.1341
N2590 X8.4877 Y.1817
N2600 X8.5328 Y.2333
N2610 X8.5756 Y.2887
N2620 X8.616 Y.3474
N2630 X8.6538 Y.409
N2640 X8.6889 Y.4732
N2650 X8.7215 Y.5395
N2660 X8.7514 Y.6078
N2670 X8.7788 Y.6776
N2680 X8.8037 Y.7488
N2690 X8.8263 Y.8211
N2700 X8.8468 Y.8943
N2710 X8.8652 Y.9682
N2720 X8.8817 Y1.0426
N2730 X8.8964 Y1.1176
N2740 X8.9095 Y1.1928
N2750 X8.9211 Y1.2683
N2760 X8.9313 Y1.344
N2770 X8.9404 Y1.4198
N2780 X8.9485 Y1.4956
N2790 X8.9556 Y1.5715
N2800 X8.9618 Y1.6473
N2810 X8.9674 Y1.7231
N2820 X8.9722 Y1.7988
N2830 X8.9765 Y1.8746
N2840 X8.9803 Y1.9502
N2850 G3 X8.9866 Y2.1014 I-14.32 J.6672
N2860 X8.9933 Y2.3278 I-19.0224 J.6842
N2870 X8.9991 Y2.6291 I-29.9195 J.7204
N2880 X9.003 Y3.0051 I-51.6397 J.7263
N2890 X9.0039 Y3.1516 I-41.891 J.3192
N2900 G1 X9.0012 Y3.2042
N2910 X8.9942 Y3.2548
N2920 X8.9827 Y3.3054
N2930 X8.9664 Y3.3563
N2940 X8.9451 Y3.4074
N2950 X8.9188 Y3.4586
N2960 X8.8874 Y3.5095
N2970 X8.8509 Y3.5597
N2980 X8.8095 Y3.6088
N2990 X8.7636 Y3.6563
N3000 X8.7132 Y3.7021
N3010 X8.6588 Y3.7458
N3020 X8.6009 Y3.7873
N3030 X8.5398 Y3.8263
N3040 X8.4762 Y3.8629
N3050 X8.4103 Y3.8969
N3060 X8.3424 Y3.9285
N3070 X8.273 Y3.9577
N3080 X8.2023 Y3.9845
N3090 X8.1305 Y4.0093
N3100 X8.0578 Y4.0319
N3110 X7.9845 Y4.0527
N3120 X7.9105 Y4.0717
N3130 X7.8361 Y4.0891
N3140 X7.7614 Y4.1049
N3150 X7.6864 Y4.1194
N3160 X7.6112 Y4.1325
N3170 X7.5358 Y4.1445
N3180 X7.4603 Y4.1554
N3190 X7.3848 Y4.1654
N3200 X7.3091 Y4.1744
N3210 X7.2335 Y4.1827
N3220 X7.1579 Y4.1902
N3230 X7.0822 Y4.197
N3240 X7.0066 Y4.2032
N3250 X6.931 Y4.2088
N3260 X6.8554 Y4.2139
N3270 X6.7798 Y4.2186
N3280 G3 X6.6288 Y4.2267 I-.874 J-14.9198
N3290 X6.4024 Y4.2362 I-.8976 J-18.5499
N3300 X6.101 Y4.2454 I-.9456 J-26.1541
N3310 X5.7248 Y4.2529 I-.9687 J-39.3018
N3320 X5.1988 Y4.2588 I-1.0438 J-69.0909
N3330 G1 X5.1237 Y4.2594
N3340 X4.8985 Y4.2608
N3350 X4.6733 Y4.2618
N3360 X4.3731 Y4.2629
N3370 X3.9979 Y4.2637
N3380 X3.5478 Y4.2643
N3390 X3.2478 Y4.2645
N3400 X3.1882 Y4.2635
N3410 X3.137 Y4.2583
N3420 X3.0864 Y4.2486
N3430 X3.0358 Y4.2344
N3440 X2.9846 Y4.2152
N3450 X2.9336 Y4.191
N3460 X2.8825 Y4.1617
N3470 X2.8319 Y4.1272
N3480 X2.7822 Y4.0878
N3490 X2.7336 Y4.0434
N3500 X2.6867 Y3.9946
N3510 X2.6417 Y3.9417
N3520 X2.5989 Y3.8851
N3530 X2.5585 Y3.8253
N3540 X2.5206 Y3.7628
N3550 X2.4851 Y3.6978
N3560 X2.4522 Y3.6309
N3570 X2.4217 Y3.5623
N3580 X2.3934 Y3.4922
N3590 X2.3674 Y3.421
N3600 X2.3435 Y3.3488
N3610 X2.3216 Y3.2758
N3620 X2.3015 Y3.2022
N3630 X2.2831 Y3.1281
N3640 X2.2662 Y3.0536
N3650 X2.2508 Y2.9787
N3660 X2.2368 Y2.9036
N3670 X2.224 Y2.8284
N3680 X2.2123 Y2.753
N3690 X2.2017 Y2.6775
N3700 X2.192 Y2.6019
N3710 X2.1831 Y2.5263
N3720 X2.1751 Y2.4507
N3730 X2.1677 Y2.375
N3740 X2.1611 Y2.2994
N3750 X2.155 Y2.2238
N3760 X2.1495 Y2.1482
N3770 X2.1444 Y2.0726
N3780 X2.1399 Y1.997
N3790 G3 X2.1319 Y1.846 I15.2919 J-.8819
N3800 X2.1224 Y1.6197 I18.9648 J-.9052
N3810 X2.1153 Y1.3936 I25.0645 J-.9021
N3820 G1 X2.1151 Y1.3392
N3830 X2.1192 Y1.2925
N3840 X2.1275 Y1.2459
N3850 X2.1404 Y1.1987
N3860 X2.1583 Y1.1507
N3870 X2.1812 Y1.1021
N3880 X2.2094 Y1.0534
N3890 X2.2431 Y1.0046
N3900 X2.282 Y.9563
N3910 X2.326 Y.9091
N3920 X2.3746 Y.8635
N3930 X2.4275 Y.8199
N3940 X2.4841 Y.7785
N3950 X2.5441 Y.7395
N3960 X2.6069 Y.7032
N3970 X2.6722 Y.6695
N3980 X2.7396 Y.6383
N3990 X2.8088 Y.6097
N4000 X2.8794 Y.5836
N4010 X2.9512 Y.5598
N4020 X3.024 Y.5382
N4030 X3.0976 Y.5187
N4040 X3.1718 Y.5011
N4050 X3.2465 Y.4854
N4060 X3.3216 Y.4713
N4070 X3.3969 Y.4587
N4080 X3.4725 Y.4476
N4090 X3.5483 Y.4378
N4100 X3.6241 Y.4291
N4110 X3.7 Y.4216
N4120 X3.7759 Y.415
N4130 X3.8519 Y.4094
N4140 X3.9278 Y.4046
N4150 X4.0038 Y.4006
N4160 X4.0797 Y.3972
N4170 X4.1555 Y.3945
N4180 X4.2313 Y.3924
N4190 X4.3071 Y.3908
N4200 X4.3828 Y.3896
N4210 G3 X4.5341 Y.3886 I.1726 J14.4908
N4220 G1 X4.5597
N4230 G3 X4.7607 Y.3897 I0. J17.9562
N4240 X5.0622 Y.3949 I-.2823 J25.1918
N4250 X5.4384 Y.4055 I-.8718 J37.6564
N4260 X5.8891 Y.422 I-2.113 J63.8966
N4270 X6.1142 Y.4312 I-3.848 J96.5341
N4280 G1 X6.1893 Y.4344
N4290 X6.4143 Y.4442
N4300 X6.6392 Y.4543
N4310 X6.939 Y.4682
N4320 X7.1639 Y.4787
N4330 X7.2322 Y.4832
N4340 X7.2939 Y.4915
N4350 X7.353 Y.5041
N4360 X7.4107 Y.5211
N4370 X7.4673 Y.5425
N4380 X7.5232 Y.5687
N4390 X7.5781 Y.5995
N4400 X7.6319 Y.6349
N4410 X7.6844 Y.6748
N4420 X7.7351 Y.719
N4430 X7.784 Y.7673
N4440 X7.8308 Y.8193
N4450 X7.8753 Y.8748
N4460 X7.9175 Y.9333
N4470 X7.9572 Y.9947
N4480 X7.9943 Y1.0584
N4490 X8.029 Y1.1242
N4500 X8.0612 Y1.1918
N4510 X8.0911 Y1.261
N4520 X8.1187 Y1.3315
N4530 X8.1442 Y1.403
N4540 X8.1675 Y1.4754
N4550 X8.189 Y1.5486
N4560 X8.2087 Y1.6223
N4570 X8.2267 Y1.6966
N4580 X8.2431 Y1.7712
N4590 X8.2581 Y1.8461
N4600 X8.2718 Y1.9212
N4610 X8.2843 Y1.9965
N4620 X8.2956 Y2.072
N4630 X8.306 Y2.1475
N4640 X8.3153 Y2.2231
N4650 X8.3239 Y2.2987
N4660 X8.3312 Y2.371
N4670 X8.3337 Y2.4273
N4680 X8.3316 Y2.4813
N4690 X8.3249 Y2.5348
N4700 X8.3135 Y2.5887
N4710 X8.2974 Y2.6429
N4720 X8.2762 Y2.6975
N4730 X8.25 Y2.752
N4740 X8.2189 Y2.8062
N4750 X8.1829 Y2.8596
N4760 X8.1422 Y2.9119
N4770 X8.0972 Y2.9626
N4780 X8.0481 Y3.0115
N4790 X7.9953 Y3.0583
N4800 X7.9392 Y3.1029
N4810 X7.8801 Y3.1451
N4820 X7.8183 Y3.1849
N4830 X7.7543 Y3.2223
N4840 X7.6883 Y3.2573
N4850 X7.6205 Y3.2898
N4860 X7.5514 Y3.3201
N4870 X7.481 Y3.3482
N4880 X7.4095 Y3.3742
N4890 X7.3372 Y3.3983
N4900 X7.2643 Y3.4204
N4910 X7.1907 Y3.4408
N4920 X7.1167 Y3.4596
N4930 X7.0422 Y3.4769
N4940 X6.9675 Y3.4928
N4950 X6.8925 Y3.5073
N4960 X6.8174 Y3.5207
N4970 X6.7421 Y3.533
N4980 X6.6667 Y3.5442
N4990 X6.5912 Y3.5545
N5000 X6.5156 Y3.5639
N5010 X6.4401 Y3.5726
N5020 X6.3645 Y3.5805
N5030 X6.2889 Y3.5877
N5040 X6.2133 Y3.5943
N5050 X6.1377 Y3.6004
N5060 X6.0621 Y3.606
N5070 X5.9866 Y3.611
N5080 G3 X5.8389 Y3.6197 I-.9271 J-14.4657
N5090 G2 X5.8269 Y3.6214 I.0042 J.0749
N5100 G3 X5.7982 Y3.6274 I-.2983 J-1.3481
N5110 X5.55 Y3.6512 I-.2571 J-1.3749
N5120 X5.0994 Y3.6563 I-1.3267 J-98.6301
N5130 G1 X5.0243 Y3.6569
N5140 X4.7991 Y3.6586
N5150 X4.5739 Y3.66
N5160 X4.3487 Y3.661
N5170 X4.0486 Y3.6622
N5180 X3.9778 Y3.6621
N5190 X3.9173 Y3.6584
N5200 X3.859 Y3.6503
N5210 X3.8017 Y3.6377
N5220 X3.7448 Y3.6204
N5230 X3.6882 Y3.5984
N5240 X3.6322 Y3.5716
N5250 X3.5768 Y3.5399
N5260 X3.5223 Y3.5036
N5270 X3.4693 Y3.4629
N5280 X3.4178 Y3.418
N5290 X3.3683 Y3.3691
N5300 X3.3207 Y3.3165
N5310 X3.2754 Y3.2607
N5320 X3.2325 Y3.202
N5330 X3.192 Y3.1407
N5340 X3.1539 Y3.077
N5350 X3.1182 Y3.0114
N5360 X3.0848 Y2.9441
N5370 X3.0538 Y2.8753
N5380 X3.0249 Y2.8052
N5390 X2.9982 Y2.7341
N5400 X2.9734 Y2.6621
N5410 X2.9505 Y2.5893
N5420 X2.9294 Y2.516
N5430 X2.91 Y2.4421
N5440 X2.892 Y2.3678
N5450 X2.8755 Y2.2933
N5460 X2.8604 Y2.2184
N5470 X2.8491 Y2.1561
N5480 X2.8446 Y2.1087
N5490 X2.8443 Y2.0619
N5500 X2.8482 Y2.0143
N5510 X2.8569 Y1.9654
N5520 X2.8704 Y1.9153
N5530 X2.8888 Y1.8643
N5540 X2.9125 Y1.8126
N5550 X2.9415 Y1.7608
N5560 X2.9754 Y1.7093
N5570 X3.0144 Y1.6588
N5580 X3.058 Y1.6094
N5590 X3.106 Y1.5618
N5600 X3.158 Y1.5162
N5610 X3.2137 Y1.4728
N5620 X3.2726 Y1.4318
N5630 X3.3343 Y1.3934
N5640 X3.3985 Y1.3575
N5650 X3.4648 Y1.3242
N5660 X3.533 Y1.2934
N5670 X3.6027 Y1.265
N5680 X3.6736 Y1.239
N5690 X3.7456 Y1.2152
N5700 X3.8185 Y1.1935
N5710 X3.8922 Y1.1738
N5720 X3.9663 Y1.156
N5730 X4.041 Y1.1399
N5740 X4.116 Y1.1254
N5750 X4.1913 Y1.1124
N5760 X4.2668 Y1.1008
N5770 X4.3425 Y1.0905
N5780 X4.4182 Y1.0814
N5790 X4.4941 Y1.0733
N5800 X4.57 Y1.0662
N5810 X4.6459 Y1.06
N5820 X4.7218 Y1.0547
N5830 X4.7977 Y1.0501
N5840 X4.8736 Y1.0463
N5850 X4.9494 Y1.0431
N5860 X5.0252 Y1.0404
N5870 X5.101 Y1.0384
N5880 X5.1767 Y1.0368
N5890 X5.2524 Y1.0356
N5900 G3 X5.4037 Y1.0346 I.183 J15.1286
N5910 G1 X5.4418
N5920 G3 X5.6302 Y1.0355 I0. J18.543
N5930 X5.9317 Y1.0403 I-.2603 J25.5736
N5940 X6.308 Y1.0505 I-.8225 J37.4647
N5950 X6.4584 Y1.0556 I-.6732 J21.9705
N5960 G1 X6.5275 Y1.0607
N5970 X6.5916 Y1.0696
N5980 X6.6534 Y1.0827
N5990 X6.7136 Y1.1002
N6000 X6.7727 Y1.1221
N6010 X6.8308 Y1.1485
N6020 X6.8879 Y1.1794
N6030 X6.9439 Y1.2148
N6040 X6.9982 Y1.2544
N6050 X7.051 Y1.2981
N6060 X7.1019 Y1.3458
N6070 X7.1508 Y1.397
N6080 X7.1974 Y1.4515
N6090 X7.2418 Y1.509
N6100 X7.2837 Y1.5692
N6110 X7.3232 Y1.6317
N6120 X7.3598 Y1.6953
N6130 X7.3784 Y1.7334
N6140 X7.3923 Y1.7683
N6150 X7.4036 Y1.8037
N6160 X7.4126 Y1.8413
N6170 X7.419 Y1.8816
N6180 X7.4225 Y1.9254
N6190 X7.4222 Y1.9723
N6200 X7.4171 Y2.0224
N6210 X7.4064 Y2.0751
N6220 X7.3893 Y2.1294
N6230 X7.3652 Y2.1841
N6240 X7.3335 Y2.2378
N6250 X7.2942 Y2.2891
N6260 X7.2507 Y2.3394
N6270 X7.2032 Y2.3884
N6280 X7.152 Y2.4357
N6290 X7.0974 Y2.4811
N6300 X7.0396 Y2.5243
N6310 X6.9791 Y2.5651
N6320 X6.9161 Y2.6035
N6330 X6.8509 Y2.6395
N6340 X6.8476 Y2.6413
N6350 G2 X6.81 Y2.688 I.0348 J.0664
N6360 G3 X6.4514 Y3.29 I-1.2587 J-.3421
N6370 X6.2636 Y3.439 I-.9246 J-.9724
N6380 X6.0382 Y3.5565 I-.7514 J-1.1664
N6390 X5.8233 Y3.6222 I-.5096 J-1.2832
N6400 X5.7982 Y3.6274 I-.2947 J-1.3489 F10.
N6410 X5.5747 Y3.6508 I-.2571 J-1.3749
N6420 X5.55 Y3.6512 I-.0336 J-1.3983 F6.42
N6430 X5.3018 Y3.6274 I.0089 J-1.3987
N6440 X5.0515 Y3.5523 I.2694 J-1.3532
N6450 X4.8364 Y3.439 I.5428 J-1.2906
N6460 G1 X4.7888 Y3.4097
N6470 X4.7375 Y3.3816
N6480 X4.6828 Y3.355
N6490 X4.6251 Y3.33
N6500 X4.5562 Y3.3017
N6510 X4.4877 Y3.2712
N6520 X4.4219 Y3.2385
N6530 X4.3586 Y3.2032
N6540 X4.2975 Y3.1649
N6550 X4.2386 Y3.1237
N6560 X4.1819 Y3.0793
N6570 X4.1272 Y3.0319
N6580 X4.0748 Y2.9817
N6590 X4.0245 Y2.9287
N6600 X3.9765 Y2.873
N6610 X3.9308 Y2.8149
N6620 X3.911 Y2.7869
N6630 X3.8994 Y2.7686
N6640 X3.8886 Y2.7498
N6650 X3.8775 Y2.7284
N6660 X3.8662 Y2.7038
N6670 X3.8548 Y2.6749
N6680 X3.8441 Y2.6415
N6690 X3.8347 Y2.6032
N6700 X3.8276 Y2.5598
N6710 X3.8241 Y2.5114
N6720 X3.8253 Y2.4586
N6730 X3.8326 Y2.4023
N6740 X3.8469 Y2.3435
N6750 X3.8693 Y2.2837
N6760 X3.9002 Y2.2247
N6770 X3.9399 Y2.1682
N6780 X3.9879 Y2.1161
N6790 X4.0437 Y2.0701
N6800 X4.1062 Y2.0318
N6810 X4.1721 Y1.998
N6820 X4.2816 Y1.9471
N6830 G2 X4.3206 Y1.9043 I-.0317 J-.068
N6840 G3 X4.3482 Y1.8334 I1.244 J.4432
N6850 X4.4608 Y1.6239 I1.2931 J.5605
N6860 X4.6348 Y1.4131 I1.1413 J.7643
N6870 X4.8364 Y1.251 I.9496 J.9749
N6880 X5.0618 Y1.1335 I.7489 J1.1616
N6890 X5.3247 Y1.0586 I.4999 J1.2561
N6900 X5.5495 Y1.0392 I.2248 J1.2894
N6910 X5.5875 Y1.0397 I0. J1.3088
N6920 G1 X5.5876
N6930 G3 X6.0758 Y1.1495 I-.0371 J1.305
N6940 X6.4889 Y1.4371 I-.5303 J1.2023
N6950 X6.7641 Y1.8635 I-.9502 J.9153
N6960 X6.8374 Y2.1262 I-1.2468 J.4893
N6970 X6.8558 Y2.3425 I-1.2599 J.2163
N6980 X6.855 Y2.3888 I-1.2783 J0.
N6990 G1 Y2.389
N7000 G3 X6.8108 Y2.6851 I-1.3037 J-.0431
N7010 X6.7893 Y2.7569 I-1.2595 J-.3392 F10.
N7020 G1 X6.7846 Y2.7721 Z1.7772
N7030 X6.7807 Y2.7874 Z1.7779
N7040 X6.7775 Y2.803 Z1.7786
N7050 X6.775 Y2.8187 Z1.7793
N7060 X6.7733 Y2.8344 Z1.7799
N7070 X6.7723 Y2.8503 Z1.7806
N7080 X6.7721 Y2.8661 Z1.7813
N7090 X6.7726 Y2.882 Z1.782
N7100 X6.7786 Y2.9905 Z1.7866
N7110 X6.78 Y3.0145 F100.
N7120 X6.7805 Y3.0306
N7130 X6.7802 Y3.0468
N7140 X6.7792 Y3.063
N7150 X6.7774 Y3.0791
N7160 X6.7748 Y3.0951
N7170 X6.7714 Y3.1109
N7180 X6.7673 Y3.1266
N7190 X6.7625 Y3.142
N7200 X6.7569 Y3.1572
N7210 X6.7506 Y3.1721
N7220 X6.7436 Y3.1867
N7230 X6.7359 Y3.2009
N7240 X6.7275 Y3.2148
N7250 X6.7184 Y3.2282
N7260 X6.7088 Y3.2412
N7270 X6.6985 Y3.2537
N7280 X6.6876 Y3.2657
N7290 X6.6762 Y3.2772
N7300 X6.6642 Y3.2881
N7310 X6.6517 Y3.2984
N7320 X6.6388 Y3.3081
N7330 X6.6254 Y3.3172
N7340 X6.6115 Y3.3256
N7350 X6.5973 Y3.3334
N7360 X6.5827 Y3.3404
N7370 X6.5679 Y3.3468
N7380 X6.5442 Y3.3562
N7390 X6.5324 Y3.3612
N7400 X6.5207 Y3.3669
N7410 X6.5094 Y3.373
N7420 X6.4983 Y3.3798
N7430 X6.4876 Y3.387
N7440 X6.4773 Y3.3947
N7450 X6.4673 Y3.403
N7460 X6.4432 Y3.4234
N7470 X6.4187 Y3.4433
N7480 X6.3937 Y3.4626
N7490 X6.3683 Y3.4814
N7500 X6.3424 Y3.4997
N7510 X6.3139 Y3.5189
N7520 X6.2853 Y3.5368
N7530 X6.2564 Y3.554
N7540 X6.227 Y3.5706
N7550 X6.1973 Y3.5866
N7560 X6.1673 Y3.6018
N7570 X6.1369 Y3.6164
N7580 X6.1061 Y3.6302
N7590 X6.0751 Y3.6434
N7600 X6.072 Y3.6446
N7610 X6.041 Y3.6565
N7620 X6.0098 Y3.6677
N7630 X5.9783 Y3.6781
N7640 X5.9466 Y3.6879
N7650 X5.9147 Y3.6969
N7660 X5.8826 Y3.7053
N7670 X5.8503 Y3.7129
N7680 X5.8179 Y3.7197
N7690 X5.8144 Y3.7204
N7700 X5.7806 Y3.7263
N7710 X5.7467 Y3.7314
N7720 X5.7128 Y3.7357
N7730 X5.6787 Y3.7393
N7740 X5.6445 Y3.742
N7750 X5.6104 Y3.744
N7760 X5.5976 Y3.7449
N7770 X5.5848 Y3.7464
N7780 X5.5722 Y3.7485
N7790 X5.5596 Y3.7512
N7800 X5.5472 Y3.7545
N7810 X5.535 Y3.7584
N7820 X5.523 Y3.7629
N7830 X5.4998 Y3.7721
N7840 X5.4846 Y3.7777
N7850 X5.4692 Y3.7826
N7860 X5.4536 Y3.7868
N7870 X5.4377 Y3.7902
N7880 X5.4218 Y3.7928
N7890 X5.4057 Y3.7947
N7900 X5.3896 Y3.7958
N7910 X5.3734 Y3.7961
N7920 X5.3572 Y3.7956
N7930 X5.3411 Y3.7944
N7940 X5.325 Y3.7924
N7950 X5.3091 Y3.7896
N7960 X5.2933 Y3.786
N7970 X5.2777 Y3.7818
N7980 X5.2623 Y3.7767
N7990 X5.2472 Y3.771
N8000 X5.2324 Y3.7645
N8010 X5.2179 Y3.7573
N8020 X5.2037 Y3.7494
N8030 X5.19 Y3.7409
N8040 X5.1767 Y3.7317
N8050 X5.1638 Y3.7219
N8060 X5.1514 Y3.7114
N8070 X5.1395 Y3.7004
N8080 X5.1282 Y3.6889
N8090 X5.1173 Y3.6766
N8100 X5.1018 Y3.6583
N8110 X5.0315 Y3.5754 Z1.782 F10.
N8120 X5.021 Y3.5635 Z1.7813
N8130 X5.0099 Y3.5521 Z1.7806
N8140 X4.9983 Y3.5413 Z1.7799
N8150 X4.9862 Y3.5311 Z1.7793
N8160 X4.9736 Y3.5214 Z1.7786
N8170 X4.9606 Y3.5123 Z1.7779
N8180 X4.9472 Y3.5039 Z1.7772
N8190 X4.9334 Y3.496 Z1.7766
N8200 G3 X4.8364 Y3.439 I.6609 J-1.2343
N8210 X4.6111 Y3.2529 I.7365 J-1.1212 F6.42
N8220 X4.536 Y3.1683 I3.1123 J-2.8407
N8230 X4.4598 Y3.0644 I1.8119 J-1.4083
N8240 X4.3409 Y2.8393 I1.1598 J-.7562
N8250 X4.2646 Y2.5765 I1.2541 J-.5066
N8260 X4.2441 Y2.343 I1.3189 J-.2335
N8270 X4.2444 Y2.3138 I1.3394 J0.
N8280 X4.3067 Y1.9453 I1.3202 J.0337
N8290 X4.3316 Y1.8746 I1.2579 J.4022 F10.
N8300 G1 X4.3369 Y1.8596 Z1.7772
N8310 X4.3415 Y1.8444 Z1.7779
N8320 X4.3455 Y1.8291 Z1.7786
N8330 X4.3486 Y1.8135 Z1.7793
N8340 X4.3511 Y1.7978 Z1.7799
N8350 X4.3528 Y1.7821 Z1.7806
N8360 X4.3537 Y1.7662 Z1.7813
N8370 X4.354 Y1.7504 Z1.782
N8380 X4.3529 Y1.6417 Z1.7866
N8390 X4.3527 Y1.6189 F100.
N8400 G2 X4.3085 Y1.5512 I-.075 J.0007 F10.
N8410 G1 X4.3013 Y1.548 Z1.787
N8420 X4.2943 Y1.5448 Z1.7882
N8430 X4.2874 Y1.5417 Z1.7902
N8440 X4.2807 Y1.5387 Z1.7931
N8450 X4.2743 Y1.5358 Z1.7966
N8460 X4.2683 Y1.5331 Z1.8009
N8470 X4.2627 Y1.5306 Z1.8058
N8480 X4.2577 Y1.5283 Z1.8114
N8490 X4.2532 Y1.5263 Z1.8175
N8500 X4.2493 Y1.5245 Z1.8241
N8510 X4.246 Y1.5231 Z1.8311
N8520 X4.2435 Y1.5219 Z1.8384
N8530 X4.2416 Y1.5211 Z1.846
N8540 X4.2405 Y1.5206 Z1.8537
N8550 X4.2401 Y1.5204 Z1.8616
N8560 G0 Z1.8766
N8570 Z2.
N8580 X.2238 Y-.244
N8590 Z1.8766
N8600 G1 Z1.7812 F6.42
N8610 X.2237 Y-.2444 Z1.7737
N8620 X.2232 Y-.2454 Z1.7663
N8630 X.2225 Y-.2471 Z1.7591
N8640 X.2215 Y-.2494 Z1.7521
N8650 X.2202 Y-.2524 Z1.7453
N8660 X.2186 Y-.256 Z1.739
N8670 X.2168 Y-.2601 Z1.733
N8680 X.2148 Y-.2648 Z1.7275
N8690 X.2126 Y-.2699 Z1.7226
N8700 X.2102 Y-.2755 Z1.7182
N8710 X.2076 Y-.2814 Z1.7145
N8720 X.2049 Y-.2877 Z1.7114
N8730 X.2021 Y-.2942 Z1.709
N8740 X.1992 Y-.3009 Z1.7073
N8750 X.1964 Y-.3082 Z1.706 F10.
N8760 X.1945 Y-.3158 Z1.7046
N8770 X.1933 Y-.3236 Z1.7032
N8780 X.193 Y-.3314 Z1.7018
N8790 X.1935 Y-.3393 Z1.7004
N8800 X.1948 Y-.347 Z1.699
N8810 X.1969 Y-.3546 Z1.6977
N8820 X.1997 Y-.3619 Z1.6963
N8830 X.2034 Y-.3688 Z1.6949
N8840 X.2077 Y-.3754 Z1.6935
N8850 X.2127 Y-.3814 Z1.6921
N8860 X.2183 Y-.3869 Z1.6907
N8870 X.2245 Y-.3918 Z1.6893
N8880 X.2311 Y-.396 Z1.688
N8890 X.2381 Y-.3995 Z1.6866
N8900 X.9097 Y-.6908
N8910 X1.0094 Y-.7341 Z1.682
N8920 X1.0238 Y-.7407 Z1.6813
N8930 X1.0378 Y-.748 Z1.6806
N8940 X1.0516 Y-.756 Z1.6799
N8950 X1.0649 Y-.7646 Z1.6793
N8960 X1.0778 Y-.7739 Z1.6786
N8970 X1.0902 Y-.7837 Z1.6779
N8980 X1.1022 Y-.7941 Z1.6772
N8990 X1.1137 Y-.805 Z1.6766
N9000 X1.21 Y-.8583 F6.42
N9010 X1.3029 Y-.8993
N9020 X1.3805 Y-.9251
N9030 X1.4466 Y-.9416
N9040 X1.5557 Y-.9604
N9050 X1.6505 Y-.9701
N9060 X1.7356 Y-.9746
N9070 X1.8141 Y-.9761
N9080 X1.8885 Y-.9759
N9090 X1.9601 Y-.9746
N9100 X2.0301 Y-.9726
N9110 G3 X2.236 Y-.9648 I-.5613 J17.4336
N9120 X2.5767 Y-.9491 I-2.9813 J68.5673
N9130 G1 X2.6451 Y-.9459
N9140 X3.1268 Y-.9224
N9150 X8.778 Y-.6449
N9160 X8.8305 Y-.6411
N9170 X8.8783 Y-.633
N9180 X8.9316 Y-.6185
N9190 X8.9888 Y-.5958
N9200 X9.0476 Y-.5647
N9210 X9.1063 Y-.5257
N9220 X9.1635 Y-.4792
N9230 X9.2181 Y-.4261
N9240 X9.2693 Y-.3674
N9250 X9.3167 Y-.304
N9260 X9.36 Y-.2368
N9270 X9.3992 Y-.1666
N9280 X9.4343 Y-.0941
N9290 X9.4656 Y-.02
N9300 X9.4932 Y.0554
N9310 X9.5175 Y.1315
N9320 X9.5388 Y.2082
N9330 X9.5573 Y.2851
N9340 X9.5734 Y.3622
N9350 X9.5872 Y.4393
N9360 X9.599 Y.5163
N9370 X9.609 Y.5932
N9380 X9.6174 Y.6698
N9390 X9.6243 Y.7463
N9400 X9.63 Y.8225
N9410 X9.6346 Y.8986
N9420 X9.6381 Y.9744
N9430 X9.6408 Y1.05
N9440 X9.6426 Y1.1255
N9450 X9.6436 Y1.2007
N9460 X9.6441 Y1.2758
N9470 X9.6439 Y1.3508
N9480 X9.6433 Y1.4256
N9490 G3 X9.6408 Y1.575 I-15.3535 J-.1816
N9500 X9.6348 Y1.7985 I-21.7727 J-.4703
N9510 G1 X9.6324 Y1.8729
N9520 G2 X9.6277 Y2.0218 I47.3347 J1.5706
N9530 X9.6205 Y2.3202 I30.5038 J.8822
N9540 X9.614 Y2.7689 I50.735 J.962
N9550 X9.61 Y3.2931 I96.7723 J.9904
N9560 G1 X9.6097 Y3.368
N9570 X9.6088 Y3.5928
N9580 X9.6079 Y3.8926
N9590 X9.6078 Y3.9676
N9600 X9.607 Y3.9956
N9610 X9.6051 Y4.0206
N9620 X9.6009 Y4.0527
N9630 X9.593 Y4.0916
N9640 X9.5801 Y4.1363
N9650 X9.5607 Y4.1855
N9660 X9.5337 Y4.2372
N9670 X9.4994 Y4.2897
N9680 X9.4581 Y4.3417
N9690 X9.4104 Y4.3921
N9700 X9.3571 Y4.4402
N9710 X9.299 Y4.4853
N9720 X9.2368 Y4.5272
N9730 X9.1712 Y4.5655
N9740 X9.1029 Y4.6004
N9750 X9.0325 Y4.6317
N9760 X8.9605 Y4.6598
N9770 X8.8873 Y4.6848
N9780 X8.8131 Y4.7069
N9790 X8.7383 Y4.7263
N9800 X8.6631 Y4.7433
N9810 X8.5875 Y4.7582
N9820 X8.5118 Y4.771
N9830 X8.436 Y4.782
N9840 X8.3602 Y4.7913
N9850 X8.2845 Y4.7992
N9860 X8.2088 Y4.8058
N9870 X8.1331 Y4.8116
N9880 X8.0574 Y4.8168
N9890 X7.9818 Y4.8215
N9900 X7.9062 Y4.8257
N9910 G3 X7.7552 Y4.833 I-.8167 J-15.3756
N9920 X7.5289 Y4.8415 I-.8415 J-19.4632
N9930 X7.2275 Y4.8494 I-.8912 J-28.2125
N9940 X6.8514 Y4.8556 I-.9162 J-43.7642
N9950 X6.3255 Y4.8604 I-.9938 J-80.2461
N9960 G1 X6.2505 Y4.8609
N9970 X6.0253 Y4.862
N9980 X5.8001 Y4.8628
N9990 X5.5 Y4.8635
N100 X5.1248 Y4.8641
N110 X4.5998 Y4.8646
N120 X3.6997 Y4.8649
N130 X2.4247 Y4.865
N140 X2.3724 Y4.8649
N150 X2.3509 Y4.8633
N160 X2.3222 Y4.8598
N170 X2.2867 Y4.8533
N180 X2.2451 Y4.8423
N190 X2.1985 Y4.8255
N200 X2.1485 Y4.8016
N210 X2.0971 Y4.7703
N220 X2.0457 Y4.732
N230 X1.9953 Y4.6872
N240 X1.9469 Y4.6364
N250 X1.9012 Y4.5806
N260 X1.8585 Y4.5204
N270 X1.8192 Y4.4566
N280 X1.7833 Y4.3898
N290 X1.7509 Y4.3206
N300 X1.7217 Y4.2496
N310 X1.6957 Y4.1772
N320 X1.6726 Y4.1037
N330 X1.6522 Y4.0295
N340 X1.6343 Y3.9546
N350 X1.6186 Y3.8795
N360 X1.6051 Y3.804
N370 X1.5934 Y3.7284
N380 X1.5834 Y3.6528
N390 X1.5746 Y3.5771
N400 X1.5667 Y3.5014
N410 X1.5596 Y3.4257
N420 X1.5532 Y3.35
N430 X1.5474 Y3.2744
N440 X1.5422 Y3.1987
N450 X1.5375 Y3.1231
N460 X1.5332 Y3.0475
N470 G3 X1.5259 Y2.8964 I15.3107 J-.8168
N480 X1.5174 Y2.6701 I19.3809 J-.8414
N490 X1.5094 Y2.3688 I28.093 J-.8911
N500 X1.5032 Y1.9927 I43.5787 J-.9162
N510 X1.4984 Y1.4668 I79.9055 J-.9938
N520 G1 X1.4979 Y1.3917
N530 X1.4968 Y1.1665
N540 X1.496 Y.9414
N550 X1.4952 Y.6412
N560 G3 X1.4951 Y.5662 I19.3679 J-.075
N570 X1.4952 Y.5106 I19.368 J0.
N580 G1 X1.4973 Y.4837
N590 X1.5014 Y.4535
N600 X1.5084 Y.4188
N610 X1.5194 Y.3791
N620 X1.5358 Y.3348
N630 X1.5588 Y.2872
N640 X1.5891 Y.238
N650 X1.6266 Y.1885
N660 X1.6707 Y.1401
N670 X1.7208 Y.0934
N680 X1.7761 Y.0494
N690 X1.8361 Y.0084
N700 X1.8998 Y-.0293
N710 X1.9666 Y-.0634
N720 X2.0359 Y-.094
N730 X2.1072 Y-.1211
N740 X2.1799 Y-.1451
N750 X2.2538 Y-.1659
N760 X2.3284 Y-.1839
N770 X2.4036 Y-.1994
N780 X2.4792 Y-.2124
N790 X2.555 Y-.2233
N800 X2.6309 Y-.2322
N810 X2.7069 Y-.2395
N820 X2.7829 Y-.2458
N830 X2.8589 Y-.2511
N840 X2.9349 Y-.2555
N850 X3.0109 Y-.2592
N860 X3.0868 Y-.2621
N870 X3.1627 Y-.2644
N880 X3.2385 Y-.2661
N890 X3.3143 Y-.2672
N900 X3.39 Y-.2679
N910 G3 X3.4795 Y-.2682 I.0895 J14.8329
N920 X3.5413 Y-.2681 I0. J14.8332
N930 X3.7678 Y-.2657 I-.079 J18.7663
N940 X4.0692 Y-.2592 I-.4426 J27.1829
N950 X4.4452 Y-.2472 I-1.1522 J42.1415
N960 X4.9707 Y-.2264 I-2.7971 J77.2112
N970 G1 X5.0458 Y-.2232
N980 X5.2708 Y-.2132
N990 X5.4957 Y-.203
N1000 X5.7955 Y-.1891
N1010 X6.1702 Y-.1713
N1020 X6.6947 Y-.146
N1030 X7.5937 Y-.1022
N1040 X7.9659 Y-.0839
N1050 X8.0234 Y-.0782
N1060 X8.078 Y-.0682
N1070 X8.1315 Y-.0537
N1080 X8.1846 Y-.0346
N1090 X8.2373 Y-.0106
N1100 X8.2895 Y.0183
N1110 X8.341 Y.0521
N1120 X8.3915 Y.0908
N1130 X8.4405 Y.1341
N1140 X8.4877 Y.1817
N1150 X8.5328 Y.2333
N1160 X8.5756 Y.2887
N1170 X8.616 Y.3474
N1180 X8.6538 Y.409
N1190 X8.6889 Y.4732
N1200 X8.7215 Y.5395
N1210 X8.7514 Y.6078
N1220 X8.7788 Y.6776
N1230 X8.8037 Y.7488
N1240 X8.8263 Y.8211
N1250 X8.8468 Y.8943
N1260 X8.8652 Y.9682
N1270 X8.8817 Y1.0426
N1280 X8.8964 Y1.1176
N1290 X8.9095 Y1.1928
N1300 X8.9211 Y1.2683
N1310 X8.9313 Y1.344
N1320 X8.9404 Y1.4198
N1330 X8.9485 Y1.4956
N1340 X8.9556 Y1.5715
N1350 X8.9618 Y1.6473
N1360 X8.9674 Y1.7231
N1370 X8.9722 Y1.7988
N1380 X8.9765 Y1.8746
N1390 X8.9803 Y1.9502
N1400 G3 X8.9866 Y2.1014 I-14.32 J.6672
N1410 X8.9933 Y2.3278 I-19.0224 J.6842
N1420 X8.9991 Y2.6291 I-29.9195 J.7204
N1430 X9.003 Y3.0051 I-51.6397 J.7263
N1440 X9.0039 Y3.1516 I-41.891 J.3192
N1450 G1 X9.0012 Y3.2042
N1460 X8.9942 Y3.2548
N1470 X8.9827 Y3.3054
N1480 X8.9664 Y3.3563
N1490 X8.9451 Y3.4074
N1500 X8.9188 Y3.4586
N1510 X8.8874 Y3.5095
N1520 X8.8509 Y3.5597
N1530 X8.8095 Y3.6088
N1540 X8.7636 Y3.6563
N1550 X8.7132 Y3.7021
N1560 X8.6588 Y3.7458
N1570 X8.6009 Y3.7873
N1580 X8.5398 Y3.8263
N1590 X8.4762 Y3.8629
N1600 X8.4103 Y3.8969
N1610 X8.3424 Y3.9285
N1620 X8.273 Y3.9577
N1630 X8.2023 Y3.9845
N1640 X8.1305 Y4.0093
N1650 X8.0578 Y4.0319
N1660 X7.9845 Y4.0527
N1670 X7.9105 Y4.0717
N1680 X7.8361 Y4.0891
N1690 X7.7614 Y4.1049
N1700 X7.6864 Y4.1194
N1710 X7.6112 Y4.1325
N1720 X7.5358 Y4.1445
N1730 X7.4603 Y4.1554
N1740 X7.3848 Y4.1654
N1750 X7.3091 Y4.1744
N1760 X7.2335 Y4.1827
N1770 X7.1579 Y4.1902
N1780 X7.0822 Y4.197
N1790 X7.0066 Y4.2032
N1800 X6.931 Y4.2088
N1810 X6.8554 Y4.2139
N1820 X6.7798 Y4.2186
N1830 G3 X6.6288 Y4.2267 I-.874 J-14.9198
N1840 X6.4024 Y4.2362 I-.8976 J-18.5499
N1850 X6.101 Y4.2454 I-.9456 J-26.1541
N1860 X5.7248 Y4.2529 I-.9687 J-39.3018
N1870 X5.1988 Y4.2588 I-1.0438 J-69.0909
N1880 G1 X5.1237 Y4.2594
N1890 X4.8985 Y4.2608
N1900 X4.6733 Y4.2618
N1910 X4.3731 Y4.2629
N1920 X3.9979 Y4.2637
N1930 X3.5478 Y4.2643
N1940 X3.2478 Y4.2645
N1950 X3.1882 Y4.2635
N1960 X3.137 Y4.2583
N1970 X3.0864 Y4.2486
N1980 X3.0358 Y4.2344
N1990 X2.9846 Y4.2152
N2000 X2.9336 Y4.191
N2010 X2.8825 Y4.1617
N2020 X2.8319 Y4.1272
N2030 X2.7822 Y4.0878
N2040 X2.7336 Y4.0434
N2050 X2.6867 Y3.9946
N2060 X2.6417 Y3.9417
N2070 X2.5989 Y3.8851
N2080 X2.5585 Y3.8253
N2090 X2.5206 Y3.7628
N2100 X2.4851 Y3.6978
N2110 X2.4522 Y3.6309
N2120 X2.4217 Y3.5623
N2130 X2.3934 Y3.4922
N2140 X2.3674 Y3.421
N2150 X2.3435 Y3.3488
N2160 X2.3216 Y3.2758
N2170 X2.3015 Y3.2022
N2180 X2.2831 Y3.1281
N2190 X2.2662 Y3.0536
N2200 X2.2508 Y2.9787
N2210 X2.2368 Y2.9036
N2220 X2.224 Y2.8284
N2230 X2.2123 Y2.753
N2240 X2.2017 Y2.6775
N2250 X2.192 Y2.6019
N2260 X2.1831 Y2.5263
N2270 X2.1751 Y2.4507
N2280 X2.1677 Y2.375
N2290 X2.1611 Y2.2994
N2300 X2.155 Y2.2238
N2310 X2.1495 Y2.1482
N2320 X2.1444 Y2.0726
N2330 X2.1399 Y1.997
N2340 G3 X2.1319 Y1.846 I15.2919 J-.8819
N2350 X2.1224 Y1.6197 I18.9648 J-.9052
N2360 X2.1153 Y1.3936 I25.0645 J-.9021
N2370 G1 X2.1151 Y1.3392
N2380 X2.1192 Y1.2925
N2390 X2.1275 Y1.2459
N2400 X2.1404 Y1.1987
N2410 X2.1583 Y1.1507
N2420 X2.1812 Y1.1021
N2430 X2.2094 Y1.0534
N2440 X2.2431 Y1.0046
N2450 X2.282 Y.9563
N2460 X2.326 Y.9091
N2470 X2.3746 Y.8635
N2480 X2.4275 Y.8199
N2490 X2.4841 Y.7785
N2500 X2.5441 Y.7395
N2510 X2.6069 Y.7032
N2520 X2.6722 Y.6695
N2530 X2.7396 Y.6383
N2540 X2.8088 Y.6097
N2550 X2.8794 Y.5836
N2560 X2.9512 Y.5598
N2570 X3.024 Y.5382
N2580 X3.0976 Y.5187
N2590 X3.1718 Y.5011
N2600 X3.2465 Y.4854
N2610 X3.3216 Y.4713
N2620 X3.3969 Y.4587
N2630 X3.4725 Y.4476
N2640 X3.5483 Y.4378
N2650 X3.6241 Y.4291
N2660 X3.7 Y.4216
N2670 X3.7759 Y.415
N2680 X3.8519 Y.4094
N2690 X3.9278 Y.4046
N2700 X4.0038 Y.4006
N2710 X4.0797 Y.3972
N2720 X4.1555 Y.3945
N2730 X4.2313 Y.3924
N2740 X4.3071 Y.3908
N2750 X4.3828 Y.3896
N2760 G3 X4.5341 Y.3886 I.1726 J14.4908
N2770 G1 X4.5597
N2780 G3 X4.7607 Y.3897 I0. J17.9562
N2790 X5.0622 Y.3949 I-.2823 J25.1918
N2800 X5.4384 Y.4055 I-.8718 J37.6564
N2810 X5.8891 Y.422 I-2.113 J63.8966
N2820 X6.1142 Y.4312 I-3.848 J96.5341
N2830 G1 X6.1893 Y.4344
N2840 X6.4143 Y.4442
N2850 X6.6392 Y.4543
N2860 X6.939 Y.4682
N2870 X7.1639 Y.4787
N2880 X7.2322 Y.4832
N2890 X7.2939 Y.4915
N2900 X7.353 Y.5041
N2910 X7.4107 Y.5211
N2920 X7.4673 Y.5425
N2930 X7.5232 Y.5687
N2940 X7.5781 Y.5995
N2950 X7.6319 Y.6349
N2960 X7.6844 Y.6748
N2970 X7.7351 Y.719
N2980 X7.784 Y.7673
N2990 X7.8308 Y.8193
N3000 X7.8753 Y.8748
N3010 X7.9175 Y.9333
N3020 X7.9572 Y.9947
N3030 X7.9943 Y1.0584
N3040 X8.029 Y1.1242
N3050 X8.0612 Y1.1918
N3060 X8.0911 Y1.261
N3070 X8.1187 Y1.3315
N3080 X8.1442 Y1.403
N3090 X8.1675 Y1.4754
N3100 X8.189 Y1.5486
N3110 X8.2087 Y1.6223
N3120 X8.2267 Y1.6966
N3130 X8.2431 Y1.7712
N3140 X8.2581 Y1.8461
N3150 X8.2718 Y1.9212
N3160 X8.2843 Y1.9965
N3170 X8.2956 Y2.072
N3180 X8.306 Y2.1475
N3190 X8.3153 Y2.2231
N3200 X8.3239 Y2.2987
N3210 X8.3312 Y2.371
N3220 X8.3337 Y2.4273
N3230 X8.3316 Y2.4813
N3240 X8.3249 Y2.5348
N3250 X8.3135 Y2.5887
N3260 X8.2974 Y2.6429
N3270 X8.2762 Y2.6975
N3280 X8.25 Y2.752
N3290 X8.2189 Y2.8062
N3300 X8.1829 Y2.8596
N3310 X8.1422 Y2.9119
N3320 X8.0972 Y2.9626
N3330 X8.0481 Y3.0115
N3340 X7.9953 Y3.0583
N3350 X7.9392 Y3.1029
N3360 X7.8801 Y3.1451
N3370 X7.8183 Y3.1849
N3380 X7.7543 Y3.2223
N3390 X7.6883 Y3.2573
N3400 X7.6205 Y3.2898
N3410 X7.5514 Y3.3201
N3420 X7.481 Y3.3482
N3430 X7.4095 Y3.3742
N3440 X7.3372 Y3.3983
N3450 X7.2643 Y3.4204
N3460 X7.1907 Y3.4408
N3470 X7.1167 Y3.4596
N3480 X7.0422 Y3.4769
N3490 X6.9675 Y3.4928
N3500 X6.8925 Y3.5073
N3510 X6.8174 Y3.5207
N3520 X6.7421 Y3.533
N3530 X6.6667 Y3.5442
N3540 X6.5912 Y3.5545
N3550 X6.5156 Y3.5639
N3560 X6.4401 Y3.5726
N3570 X6.3645 Y3.5805
N3580 X6.2889 Y3.5877
N3590 X6.2133 Y3.5943
N3600 X6.1377 Y3.6004
N3610 X6.0621 Y3.606
N3620 X5.9866 Y3.611
N3630 G3 X5.8389 Y3.6197 I-.9271 J-14.4657
N3640 G2 X5.8269 Y3.6214 I.0042 J.0749
N3650 G3 X5.7982 Y3.6274 I-.2983 J-1.3481
N3660 X5.55 Y3.6512 I-.2571 J-1.3749
N3670 X5.0994 Y3.6563 I-1.3267 J-98.6301
N3680 G1 X5.0243 Y3.6569
N3690 X4.7991 Y3.6586
N3700 X4.5739 Y3.66
N3710 X4.3487 Y3.661
N3720 X4.0486 Y3.6622
N3730 X3.9778 Y3.6621
N3740 X3.9173 Y3.6584
N3750 X3.859 Y3.6503
N3760 X3.8017 Y3.6377
N3770 X3.7448 Y3.6204
N3780 X3.6882 Y3.5984
N3790 X3.6322 Y3.5716
N3800 X3.5768 Y3.5399
N3810 X3.5223 Y3.5036
N3820 X3.4693 Y3.4629
N3830 X3.4178 Y3.418
N3840 X3.3683 Y3.3691
N3850 X3.3207 Y3.3165
N3860 X3.2754 Y3.2607
N3870 X3.2325 Y3.202
N3880 X3.192 Y3.1407
N3890 X3.1539 Y3.077
N3900 X3.1182 Y3.0114
N3910 X3.0848 Y2.9441
N3920 X3.0538 Y2.8753
N3930 X3.0249 Y2.8052
N3940 X2.9982 Y2.7341
N3950 X2.9734 Y2.6621
N3960 X2.9505 Y2.5893
N3970 X2.9294 Y2.516
N3980 X2.91 Y2.4421
N3990 X2.892 Y2.3678
N4000 X2.8755 Y2.2933
N4010 X2.8604 Y2.2184
N4020 X2.8491 Y2.1561
N4030 X2.8446 Y2.1087
N4040 X2.8443 Y2.0619
N4050 X2.8482 Y2.0143
N4060 X2.8569 Y1.9654
N4070 X2.8704 Y1.9153
N4080 X2.8888 Y1.8643
N4090 X2.9125 Y1.8126
N4100 X2.9415 Y1.7608
N4110 X2.9754 Y1.7093
N4120 X3.0144 Y1.6588
N4130 X3.058 Y1.6094
N4140 X3.106 Y1.5618
N4150 X3.158 Y1.5162
N4160 X3.2137 Y1.4728
N4170 X3.2726 Y1.4318
N4180 X3.3343 Y1.3934
N4190 X3.3985 Y1.3575
N4200 X3.4648 Y1.3242
N4210 X3.533 Y1.2934
N4220 X3.6027 Y1.265
N4230 X3.6736 Y1.239
N4240 X3.7456 Y1.2152
N4250 X3.8185 Y1.1935
N4260 X3.8922 Y1.1738
N4270 X3.9663 Y1.156
N4280 X4.041 Y1.1399
N4290 X4.116 Y1.1254
N4300 X4.1913 Y1.1124
N4310 X4.2668 Y1.1008
N4320 X4.3425 Y1.0905
N4330 X4.4182 Y1.0814
N4340 X4.4941 Y1.0733
N4350 X4.57 Y1.0662
N4360 X4.6459 Y1.06
N4370 X4.7218 Y1.0547
N4380 X4.7977 Y1.0501
N4390 X4.8736 Y1.0463
N4400 X4.9494 Y1.0431
N4410 X5.0252 Y1.0404
N4420 X5.101 Y1.0384
N4430 X5.1767 Y1.0368
N4440 X5.2524 Y1.0356
N4450 G3 X5.4037 Y1.0346 I.183 J15.1286
N4460 G1 X5.4418
N4470 G3 X5.6302 Y1.0355 I0. J18.543
N4480 X5.9317 Y1.0403 I-.2603 J25.5736
N4490 X6.308 Y1.0505 I-.8225 J37.4647
N4500 X6.4584 Y1.0556 I-.6732 J21.9705
N4510 G1 X6.5275 Y1.0607
N4520 X6.5916 Y1.0696
N4530 X6.6534 Y1.0827
N4540 X6.7136 Y1.1002
N4550 X6.7727 Y1.1221
N4560 X6.8308 Y1.1485
N4570 X6.8879 Y1.1794
N4580 X6.9439 Y1.2148
N4590 X6.9982 Y1.2544
N4600 X7.051 Y1.2981
N4610 X7.1019 Y1.3458
N4620 X7.1508 Y1.397
N4630 X7.1974 Y1.4515
N4640 X7.2418 Y1.509
N4650 X7.2837 Y1.5692
N4660 X7.3232 Y1.6317
N4670 X7.3598 Y1.6953
N4680 X7.3784 Y1.7334
N4690 X7.3923 Y1.7683
N4700 X7.4036 Y1.8037
N4710 X7.4126 Y1.8413
N4720 X7.419 Y1.8816
N4730 X7.4225 Y1.9254
N4740 X7.4222 Y1.9723
N4750 X7.4171 Y2.0224
N4760 X7.4064 Y2.0751
N4770 X7.3893 Y2.1294
N4780 X7.3652 Y2.1841
N4790 X7.3335 Y2.2378
N4800 X7.2942 Y2.2891
N4810 X7.2507 Y2.3394
N4820 X7.2032 Y2.3884
N4830 X7.152 Y2.4357
N4840 X7.0974 Y2.4811
N4850 X7.0396 Y2.5243
N4860 X6.9791 Y2.5651
N4870 X6.9161 Y2.6035
N4880 X6.8509 Y2.6395
N4890 X6.8476 Y2.6413
N4900 G2 X6.81 Y2.688 I.0348 J.0664
N4910 G3 X6.4514 Y3.29 I-1.2587 J-.3421
N4920 X6.2636 Y3.439 I-.9246 J-.9724
N4930 X6.0382 Y3.5565 I-.7514 J-1.1664
N4940 X5.8233 Y3.6222 I-.5096 J-1.2832
N4950 X5.7982 Y3.6274 I-.2947 J-1.3489 F10.
N4960 X5.5747 Y3.6508 I-.2571 J-1.3749
N4970 X5.55 Y3.6512 I-.0336 J-1.3983 F6.42
N4980 X5.3018 Y3.6274 I.0089 J-1.3987
N4990 X5.0515 Y3.5523 I.2694 J-1.3532
N5000 X4.8364 Y3.439 I.5428 J-1.2906
N5010 G1 X4.7888 Y3.4097
N5020 X4.7375 Y3.3816
N5030 X4.6828 Y3.355
N5040 X4.6251 Y3.33
N5050 X4.5562 Y3.3017
N5060 X4.4877 Y3.2712
N5070 X4.4219 Y3.2385
N5080 X4.3586 Y3.2032
N5090 X4.2975 Y3.1649
N5100 X4.2386 Y3.1237
N5110 X4.1819 Y3.0793
N5120 X4.1272 Y3.0319
N5130 X4.0748 Y2.9817
N5140 X4.0245 Y2.9287
N5150 X3.9765 Y2.873
N5160 X3.9308 Y2.8149
N5170 X3.911 Y2.7869
N5180 X3.8994 Y2.7686
N5190 X3.8886 Y2.7498
N5200 X3.8775 Y2.7284
N5210 X3.8662 Y2.7038
N5220 X3.8548 Y2.6749
N5230 X3.8441 Y2.6415
N5240 X3.8347 Y2.6032
N5250 X3.8276 Y2.5598
N5260 X3.8241 Y2.5114
N5270 X3.8253 Y2.4586
N5280 X3.8326 Y2.4023
N5290 X3.8469 Y2.3435
N5300 X3.8693 Y2.2837
N5310 X3.9002 Y2.2247
N5320 X3.9399 Y2.1682
N5330 X3.9879 Y2.1161
N5340 X4.0437 Y2.0701
N5350 X4.1062 Y2.0318
N5360 X4.1721 Y1.998
N5370 X4.2816 Y1.9471
N5380 G2 X4.3206 Y1.9043 I-.0317 J-.068
N5390 G3 X4.3482 Y1.8334 I1.244 J.4432
N5400 X4.4608 Y1.6239 I1.2931 J.5605
N5410 X4.6348 Y1.4131 I1.1413 J.7643
N5420 X4.8364 Y1.251 I.9496 J.9749
N5430 X5.0618 Y1.1335 I.7489 J1.1616
N5440 X5.3247 Y1.0586 I.4999 J1.2561
N5450 X5.5495 Y1.0392 I.2248 J1.2894
N5460 X5.5875 Y1.0397 I0. J1.3088
N5470 G1 X5.5876
N5480 G3 X6.0758 Y1.1495 I-.0371 J1.305
N5490 X6.4889 Y1.4371 I-.5303 J1.2023
N5500 X6.7641 Y1.8635 I-.9502 J.9153
N5510 X6.8374 Y2.1262 I-1.2468 J.4893
N5520 X6.8558 Y2.3425 I-1.2599 J.2163
N5530 X6.855 Y2.3888 I-1.2783 J0.
N5540 G1 Y2.389
N5550 G3 X6.8108 Y2.6851 I-1.3037 J-.0431
N5560 X6.7893 Y2.7569 I-1.2595 J-.3392 F10.
N5570 G1 X6.7846 Y2.7721 Z1.6772
N5580 X6.7807 Y2.7874 Z1.6779
N5590 X6.7775 Y2.803 Z1.6786
N5600 X6.775 Y2.8187 Z1.6793
N5610 X6.7733 Y2.8344 Z1.6799
N5620 X6.7723 Y2.8503 Z1.6806
N5630 X6.7721 Y2.8661 Z1.6813
N5640 X6.7726 Y2.882 Z1.682
N5650 X6.7786 Y2.9905 Z1.6866
N5660 X6.78 Y3.0145 F100.
N5670 X6.7805 Y3.0306
N5680 X6.7802 Y3.0468
N5690 X6.7792 Y3.063
N5700 X6.7774 Y3.0791
N5710 X6.7748 Y3.0951
N5720 X6.7714 Y3.1109
N5730 X6.7673 Y3.1266
N5740 X6.7625 Y3.142
N5750 X6.7569 Y3.1572
N5760 X6.7506 Y3.1721
N5770 X6.7436 Y3.1867
N5780 X6.7359 Y3.2009
N5790 X6.7275 Y3.2148
N5800 X6.7184 Y3.2282
N5810 X6.7088 Y3.2412
N5820 X6.6985 Y3.2537
N5830 X6.6876 Y3.2657
N5840 X6.6762 Y3.2772
N5850 X6.6642 Y3.2881
N5860 X6.6517 Y3.2984
N5870 X6.6388 Y3.3081
N5880 X6.6254 Y3.3172
N5890 X6.6115 Y3.3256
N5900 X6.5973 Y3.3334
N5910 X6.5827 Y3.3404
N5920 X6.5679 Y3.3468
N5930 X6.5442 Y3.3562
N5940 X6.5324 Y3.3612
N5950 X6.5207 Y3.3669
N5960 X6.5094 Y3.373
N5970 X6.4983 Y3.3798
N5980 X6.4876 Y3.387
N5990 X6.4773 Y3.3947
N6000 X6.4673 Y3.403
N6010 X6.4432 Y3.4234
N6020 X6.4187 Y3.4433
N6030 X6.3937 Y3.4626
N6040 X6.3683 Y3.4814
N6050 X6.3424 Y3.4997
N6060 X6.3139 Y3.5189
N6070 X6.2853 Y3.5368
N6080 X6.2564 Y3.554
N6090 X6.227 Y3.5706
N6100 X6.1973 Y3.5866
N6110 X6.1673 Y3.6018
N6120 X6.1369 Y3.6164
N6130 X6.1061 Y3.6302
N6140 X6.0751 Y3.6434
N6150 X6.072 Y3.6446
N6160 X6.041 Y3.6565
N6170 X6.0098 Y3.6677
N6180 X5.9783 Y3.6781
N6190 X5.9466 Y3.6879
N6200 X5.9147 Y3.6969
N6210 X5.8826 Y3.7053
N6220 X5.8503 Y3.7129
N6230 X5.8179 Y3.7197
N6240 X5.8144 Y3.7204
N6250 X5.7806 Y3.7263
N6260 X5.7467 Y3.7314
N6270 X5.7128 Y3.7357
N6280 X5.6787 Y3.7393
N6290 X5.6445 Y3.742
N6300 X5.6104 Y3.744
N6310 X5.5976 Y3.7449
N6320 X5.5848 Y3.7464
N6330 X5.5722 Y3.7485
N6340 X5.5596 Y3.7512
N6350 X5.5472 Y3.7545
N6360 X5.535 Y3.7584
N6370 X5.523 Y3.7629
N6380 X5.4998 Y3.7721
N6390 X5.4846 Y3.7777
N6400 X5.4692 Y3.7826
N6410 X5.4536 Y3.7868
N6420 X5.4377 Y3.7902
N6430 X5.4218 Y3.7928
N6440 X5.4057 Y3.7947
N6450 X5.3896 Y3.7958
N6460 X5.3734 Y3.7961
N6470 X5.3572 Y3.7956
N6480 X5.3411 Y3.7944
N6490 X5.325 Y3.7924
N6500 X5.3091 Y3.7896
N6510 X5.2933 Y3.786
N6520 X5.2777 Y3.7818
N6530 X5.2623 Y3.7767
N6540 X5.2472 Y3.771
N6550 X5.2324 Y3.7645
N6560 X5.2179 Y3.7573
N6570 X5.2037 Y3.7494
N6580 X5.19 Y3.7409
N6590 X5.1767 Y3.7317
N6600 X5.1638 Y3.7219
N6610 X5.1514 Y3.7114
N6620 X5.1395 Y3.7004
N6630 X5.1282 Y3.6889
N6640 X5.1173 Y3.6766
N6650 X5.1018 Y3.6583
N6660 X5.0315 Y3.5754 Z1.682 F10.
N6670 X5.021 Y3.5635 Z1.6813
N6680 X5.0099 Y3.5521 Z1.6806
N6690 X4.9983 Y3.5413 Z1.6799
N6700 X4.9862 Y3.5311 Z1.6793
N6710 X4.9736 Y3.5214 Z1.6786
N6720 X4.9606 Y3.5123 Z1.6779
N6730 X4.9472 Y3.5039 Z1.6772
N6740 X4.9334 Y3.496 Z1.6766
N6750 G3 X4.8364 Y3.439 I.6609 J-1.2343
N6760 X4.6111 Y3.2529 I.7365 J-1.1212 F6.42
N6770 X4.536 Y3.1683 I3.1123 J-2.8407
N6780 X4.4598 Y3.0644 I1.8119 J-1.4083
N6790 X4.3409 Y2.8393 I1.1598 J-.7562
N6800 X4.2646 Y2.5765 I1.2541 J-.5066
N6810 X4.2441 Y2.343 I1.3189 J-.2335
N6820 X4.2444 Y2.3138 I1.3394 J0.
N6830 X4.3067 Y1.9453 I1.3202 J.0337
N6840 X4.3316 Y1.8746 I1.2579 J.4022 F10.
N6850 G1 X4.3369 Y1.8596 Z1.6772
N6860 X4.3415 Y1.8444 Z1.6779
N6870 X4.3455 Y1.8291 Z1.6786
N6880 X4.3486 Y1.8135 Z1.6793
N6890 X4.3511 Y1.7978 Z1.6799
N6900 X4.3528 Y1.7821 Z1.6806
N6910 X4.3537 Y1.7662 Z1.6813
N6920 X4.354 Y1.7504 Z1.682
N6930 X4.3529 Y1.6417 Z1.6866
N6940 X4.3527 Y1.6189 F100.
N6950 G2 X4.3085 Y1.5512 I-.075 J.0007 F10.
N6960 G1 X4.3013 Y1.548 Z1.687
N6970 X4.2943 Y1.5448 Z1.6882
N6980 X4.2874 Y1.5417 Z1.6902
N6990 X4.2807 Y1.5387 Z1.6931
N7000 X4.2743 Y1.5358 Z1.6966
N7010 X4.2683 Y1.5331 Z1.7009
N7020 X4.2627 Y1.5306 Z1.7058
N7030 X4.2577 Y1.5283 Z1.7114
N7040 X4.2532 Y1.5263 Z1.7175
N7050 X4.2493 Y1.5245 Z1.7241
N7060 X4.246 Y1.5231 Z1.7311
N7070 X4.2435 Y1.5219 Z1.7384
N7080 X4.2416 Y1.5211 Z1.746
N7090 X4.2405 Y1.5206 Z1.7537
N7100 X4.2401 Y1.5204 Z1.7616
N7110 G0 Z1.7766
N7120 Z2.
N7130 X.2238 Y-.244
N7140 Z1.7766
N7150 G1 Z1.6812 F6.42
N7160 X.2237 Y-.2444 Z1.6737
N7170 X.2232 Y-.2454 Z1.6663
N7180 X.2225 Y-.2471 Z1.6591
N7190 X.2215 Y-.2494 Z1.6521
N7200 X.2202 Y-.2524 Z1.6453
N7210 X.2186 Y-.256 Z1.639
N7220 X.2168 Y-.2601 Z1.633
N7230 X.2148 Y-.2648 Z1.6275
N7240 X.2126 Y-.2699 Z1.6226
N7250 X.2102 Y-.2755 Z1.6182
N7260 X.2076 Y-.2814 Z1.6145
N7270 X.2049 Y-.2877 Z1.6114
N7280 X.2021 Y-.2942 Z1.609
N7290 X.1992 Y-.3009 Z1.6073
N7300 X.1964 Y-.3082 Z1.606 F10.
N7310 X.1945 Y-.3158 Z1.6046
N7320 X.1933 Y-.3236 Z1.6032
N7330 X.193 Y-.3314 Z1.6018
N7340 X.1935 Y-.3393 Z1.6004
N7350 X.1948 Y-.347 Z1.599
N7360 X.1969 Y-.3546 Z1.5977
N7370 X.1997 Y-.3619 Z1.5963
N7380 X.2034 Y-.3688 Z1.5949
N7390 X.2077 Y-.3754 Z1.5935
N7400 X.2127 Y-.3814 Z1.5921
N7410 X.2183 Y-.3869 Z1.5907
N7420 X.2245 Y-.3918 Z1.5893
N7430 X.2311 Y-.396 Z1.588
N7440 X.2381 Y-.3995 Z1.5866
N7450 X.9097 Y-.6908
N7460 X1.0094 Y-.7341 Z1.582
N7470 X1.0238 Y-.7407 Z1.5813
N7480 X1.0378 Y-.748 Z1.5806
N7490 X1.0516 Y-.756 Z1.5799
N7500 X1.0649 Y-.7646 Z1.5793
N7510 X1.0778 Y-.7739 Z1.5786
N7520 X1.0902 Y-.7837 Z1.5779
N7530 X1.1022 Y-.7941 Z1.5772
N7540 X1.1137 Y-.805 Z1.5766
N7550 X1.21 Y-.8583 F6.42
N7560 X1.3029 Y-.8993
N7570 X1.3805 Y-.9251
N7580 X1.4466 Y-.9416
N7590 X1.5557 Y-.9604
N7600 X1.6505 Y-.9701
N7610 X1.7356 Y-.9746
N7620 X1.8141 Y-.9761
N7630 X1.8885 Y-.9759
N7640 X1.9601 Y-.9746
N7650 X2.0301 Y-.9726
N7660 G3 X2.236 Y-.9648 I-.5613 J17.4336
N7670 X2.5767 Y-.9491 I-2.9813 J68.5673
N7680 G1 X2.6451 Y-.9459
N7690 X3.1268 Y-.9224
N7700 X8.778 Y-.6449
N7710 X8.8305 Y-.6411
N7720 X8.8783 Y-.633
N7730 X8.9316 Y-.6185
N7740 X8.9888 Y-.5958
N7750 X9.0476 Y-.5647
N7760 X9.1063 Y-.5257
N7770 X9.1635 Y-.4792
N7780 X9.2181 Y-.4261
N7790 X9.2693 Y-.3674
N7800 X9.3167 Y-.304
N7810 X9.36 Y-.2368
N7820 X9.3992 Y-.1666
N7830 X9.4343 Y-.0941
N7840 X9.4656 Y-.02
N7850 X9.4932 Y.0554
N7860 X9.5175 Y.1315
N7870 X9.5388 Y.2082
N7880 X9.5573 Y.2851
N7890 X9.5734 Y.3622
N7900 X9.5872 Y.4393
N7910 X9.599 Y.5163
N7920 X9.609 Y.5932
N7930 X9.6174 Y.6698
N7940 X9.6243 Y.7463
N7950 X9.63 Y.8225
N7960 X9.6346 Y.8986
N7970 X9.6381 Y.9744
N7980 X9.6408 Y1.05
N7990 X9.6426 Y1.1255
N8000 X9.6436 Y1.2007
N8010 X9.6441 Y1.2758
N8020 X9.6439 Y1.3508
N8030 X9.6433 Y1.4256
N8040 G3 X9.6408 Y1.575 I-15.3535 J-.1816
N8050 X9.6348 Y1.7985 I-21.7727 J-.4703
N8060 G1 X9.6324 Y1.8729
N8070 G2 X9.6277 Y2.0218 I47.3347 J1.5706
N8080 X9.6205 Y2.3202 I30.5038 J.8822
N8090 X9.614 Y2.7689 I50.735 J.962
N8100 X9.61 Y3.2931 I96.7723 J.9904
N8110 G1 X9.6097 Y3.368
N8120 X9.6088 Y3.5928
N8130 X9.6079 Y3.8926
N8140 X9.6078 Y3.9676
N8150 X9.607 Y3.9956
N8160 X9.6051 Y4.0206
N8170 X9.6009 Y4.0527
N8180 X9.593 Y4.0916
N8190 X9.5801 Y4.1363
N8200 X9.5607 Y4.1855
N8210 X9.5337 Y4.2372
N8220 X9.4994 Y4.2897
N8230 X9.4581 Y4.3417
N8240 X9.4104 Y4.3921
N8250 X9.3571 Y4.4402
N8260 X9.299 Y4.4853
N8270 X9.2368 Y4.5272
N8280 X9.1712 Y4.5655
N8290 X9.1029 Y4.6004
N8300 X9.0325 Y4.6317
N8310 X8.9605 Y4.6598
N8320 X8.8873 Y4.6848
N8330 X8.8131 Y4.7069
N8340 X8.7383 Y4.7263
N8350 X8.6631 Y4.7433
N8360 X8.5875 Y4.7582
N8370 X8.5118 Y4.771
N8380 X8.436 Y4.782
N8390 X8.3602 Y4.7913
N8400 X8.2845 Y4.7992
N8410 X8.2088 Y4.8058
N8420 X8.1331 Y4.8116
N8430 X8.0574 Y4.8168
N8440 X7.9818 Y4.8215
N8450 X7.9062 Y4.8257
N8460 G3 X7.7552 Y4.833 I-.8167 J-15.3756
N8470 X7.5289 Y4.8415 I-.8415 J-19.4632
N8480 X7.2275 Y4.8494 I-.8912 J-28.2125
N8490 X6.8514 Y4.8556 I-.9162 J-43.7642
N8500 X6.3255 Y4.8604 I-.9938 J-80.2461
N8510 G1 X6.2505 Y4.8609
N8520 X6.0253 Y4.862
N8530 X5.8001 Y4.8628
N8540 X5.5 Y4.8635
N8550 X5.1248 Y4.8641
N8560 X4.5998 Y4.8646
N8570 X3.6997 Y4.8649
N8580 X2.4247 Y4.865
N8590 X2.3724 Y4.8649
N8600 X2.3509 Y4.8633
N8610 X2.3222 Y4.8598
N8620 X2.2867 Y4.8533
N8630 X2.2451 Y4.8423
N8640 X2.1985 Y4.8255
N8650 X2.1485 Y4.8016
N8660 X2.0971 Y4.7703
N8670 X2.0457 Y4.732
N8680 X1.9953 Y4.6872
N8690 X1.9469 Y4.6364
N8700 X1.9012 Y4.5806
N8710 X1.8585 Y4.5204
N8720 X1.8192 Y4.4566
N8730 X1.7833 Y4.3898
N8740 X1.7509 Y4.3206
N8750 X1.7217 Y4.2496
N8760 X1.6957 Y4.1772
N8770 X1.6726 Y4.1037
N8780 X1.6522 Y4.0295
N8790 X1.6343 Y3.9546
N8800 X1.6186 Y3.8795
N8810 X1.6051 Y3.804
N8820 X1.5934 Y3.7284
N8830 X1.5834 Y3.6528
N8840 X1.5746 Y3.5771
N8850 X1.5667 Y3.5014
N8860 X1.5596 Y3.4257
N8870 X1.5532 Y3.35
N8880 X1.5474 Y3.2744
N8890 X1.5422 Y3.1987
N8900 X1.5375 Y3.1231
N8910 X1.5332 Y3.0475
N8920 G3 X1.5259 Y2.8964 I15.3107 J-.8168
N8930 X1.5174 Y2.6701 I19.3809 J-.8414
N8940 X1.5094 Y2.3688 I28.093 J-.8911
N8950 X1.5032 Y1.9927 I43.5787 J-.9162
N8960 X1.4984 Y1.4668 I79.9055 J-.9938
N8970 G1 X1.4979 Y1.3917
N8980 X1.4968 Y1.1665
N8990 X1.496 Y.9414
N9000 X1.4952 Y.6412
N9010 G3 X1.4951 Y.5662 I19.3679 J-.075
N9020 X1.4952 Y.5106 I19.368 J0.
N9030 G1 X1.4973 Y.4837
N9040 X1.5014 Y.4535
N9050 X1.5084 Y.4188
N9060 X1.5194 Y.3791
N9070 X1.5358 Y.3348
N9080 X1.5588 Y.2872
N9090 X1.5891 Y.238
N9100 X1.6266 Y.1885
N9110 X1.6707 Y.1401
N9120 X1.7208 Y.0934
N9130 X1.7761 Y.0494
N9140 X1.8361 Y.0084
N9150 X1.8998 Y-.0293
N9160 X1.9666 Y-.0634
N9170 X2.0359 Y-.094
N9180 X2.1072 Y-.1211
N9190 X2.1799 Y-.1451
N9200 X2.2538 Y-.1659
N9210 X2.3284 Y-.1839
N9220 X2.4036 Y-.1994
N9230 X2.4792 Y-.2124
N9240 X2.555 Y-.2233
N9250 X2.6309 Y-.2322
N9260 X2.7069 Y-.2395
N9270 X2.7829 Y-.2458
N9280 X2.8589 Y-.2511
N9290 X2.9349 Y-.2555
N9300 X3.0109 Y-.2592
N9310 X3.0868 Y-.2621
N9320 X3.1627 Y-.2644
N9330 X3.2385 Y-.2661
N9340 X3.3143 Y-.2672
N9350 X3.39 Y-.2679
N9360 G3 X3.4795 Y-.2682 I.0895 J14.8329
N9370 X3.5413 Y-.2681 I0. J14.8332
N9380 X3.7678 Y-.2657 I-.079 J18.7663
N9390 X4.0692 Y-.2592 I-.4426 J27.1829
N9400 X4.4452 Y-.2472 I-1.1522 J42.1415
N9410 X4.9707 Y-.2264 I-2.7971 J77.2112
N9420 G1 X5.0458 Y-.2232
N9430 X5.2708 Y-.2132
N9440 X5.4957 Y-.203
N9450 X5.7955 Y-.1891
N9460 X6.1702 Y-.1713
N9470 X6.6947 Y-.146
N9480 X7.5937 Y-.1022
N9490 X7.9659 Y-.0839
N9500 X8.0234 Y-.0782
N9510 X8.078 Y-.0682
N9520 X8.1315 Y-.0537
N9530 X8.1846 Y-.0346
N9540 X8.2373 Y-.0106
N9550 X8.2895 Y.0183
N9560 X8.341 Y.0521
N9570 X8.3915 Y.0908
N9580 X8.4405 Y.1341
N9590 X8.4877 Y.1817
N9600 X8.5328 Y.2333
N9610 X8.5756 Y.2887
N9620 X8.616 Y.3474
N9630 X8.6538 Y.409
N9640 X8.6889 Y.4732
N9650 X8.7215 Y.5395
N9660 X8.7514 Y.6078
N9670 X8.7788 Y.6776
N9680 X8.8037 Y.7488
N9690 X8.8263 Y.8211
N9700 X8.8468 Y.8943
N9710 X8.8652 Y.9682
N9720 X8.8817 Y1.0426
N9730 X8.8964 Y1.1176
N9740 X8.9095 Y1.1928
N9750 X8.9211 Y1.2683
N9760 X8.9313 Y1.344
N9770 X8.9404 Y1.4198
N9780 X8.9485 Y1.4956
N9790 X8.9556 Y1.5715
N9800 X8.9618 Y1.6473
N9810 X8.9674 Y1.7231
N9820 X8.9722 Y1.7988
N9830 X8.9765 Y1.8746
N9840 X8.9803 Y1.9502
N9850 G3 X8.9866 Y2.1014 I-14.32 J.6672
N9860 X8.9933 Y2.3278 I-19.0224 J.6842
N9870 X8.9991 Y2.6291 I-29.9195 J.7204
N9880 X9.003 Y3.0051 I-51.6397 J.7263
N9890 X9.0039 Y3.1516 I-41.891 J.3192
N9900 G1 X9.0012 Y3.2042
N9910 X8.9942 Y3.2548
N9920 X8.9827 Y3.3054
N9930 X8.9664 Y3.3563
N9940 X8.9451 Y3.4074
N9950 X8.9188 Y3.4586
N9960 X8.8874 Y3.5095
N9970 X8.8509 Y3.5597
N9980 X8.8095 Y3.6088
N9990 X8.7636 Y3.6563
N100 X8.7132 Y3.7021
N110 X8.6588 Y3.7458
N120 X8.6009 Y3.7873
N130 X8.5398 Y3.8263
N140 X8.4762 Y3.8629
N150 X8.4103 Y3.8969
N160 X8.3424 Y3.9285
N170 X8.273 Y3.9577
N180 X8.2023 Y3.9845
N190 X8.1305 Y4.0093
N200 X8.0578 Y4.0319
N210 X7.9845 Y4.0527
N220 X7.9105 Y4.0717
N230 X7.8361 Y4.0891
N240 X7.7614 Y4.1049
N250 X7.6864 Y4.1194
N260 X7.6112 Y4.1325
N270 X7.5358 Y4.1445
N280 X7.4603 Y4.1554
N290 X7.3848 Y4.1654
N300 X7.3091 Y4.1744
N310 X7.2335 Y4.1827
N320 X7.1579 Y4.1902
N330 X7.0822 Y4.197
N340 X7.0066 Y4.2032
N350 X6.931 Y4.2088
N360 X6.8554 Y4.2139
N370 X6.7798 Y4.2186
N380 G3 X6.6288 Y4.2267 I-.874 J-14.9198
N390 X6.4024 Y4.2362 I-.8976 J-18.5499
N400 X6.101 Y4.2454 I-.9456 J-26.1541
N410 X5.7248 Y4.2529 I-.9687 J-39.3018
N420 X5.1988 Y4.2588 I-1.0438 J-69.0909
N430 G1 X5.1237 Y4.2594
N440 X4.8985 Y4.2608
N450 X4.6733 Y4.2618
N460 X4.3731 Y4.2629
N470 X3.9979 Y4.2637
N480 X3.5478 Y4.2643
N490 X3.2478 Y4.2645
N500 X3.1882 Y4.2635
N510 X3.137 Y4.2583
N520 X3.0864 Y4.2486
N530 X3.0358 Y4.2344
N540 X2.9846 Y4.2152
N550 X2.9336 Y4.191
N560 X2.8825 Y4.1617
N570 X2.8319 Y4.1272
N580 X2.7822 Y4.0878
N590 X2.7336 Y4.0434
N600 X2.6867 Y3.9946
N610 X2.6417 Y3.9417
N620 X2.5989 Y3.8851
N630 X2.5585 Y3.8253
N640 X2.5206 Y3.7628
N650 X2.4851 Y3.6978
N660 X2.4522 Y3.6309
N670 X2.4217 Y3.5623
N680 X2.3934 Y3.4922
N690 X2.3674 Y3.421
N700 X2.3435 Y3.3488
N710 X2.3216 Y3.2758
N720 X2.3015 Y3.2022
N730 X2.2831 Y3.1281
N740 X2.2662 Y3.0536
N750 X2.2508 Y2.9787
N760 X2.2368 Y2.9036
N770 X2.224 Y2.8284
N780 X2.2123 Y2.753
N790 X2.2017 Y2.6775
N800 X2.192 Y2.6019
N810 X2.1831 Y2.5263
N820 X2.1751 Y2.4507
N830 X2.1677 Y2.375
N840 X2.1611 Y2.2994
N850 X2.155 Y2.2238
N860 X2.1495 Y2.1482
N870 X2.1444 Y2.0726
N880 X2.1399 Y1.997
N890 G3 X2.1319 Y1.846 I15.2919 J-.8819
N900 X2.1224 Y1.6197 I18.9648 J-.9052
N910 X2.1153 Y1.3936 I25.0645 J-.9021
N920 G1 X2.1151 Y1.3392
N930 X2.1192 Y1.2925
N940 X2.1275 Y1.2459
N950 X2.1404 Y1.1987
N960 X2.1583 Y1.1507
N970 X2.1812 Y1.1021
N980 X2.2094 Y1.0534
N990 X2.2431 Y1.0046
N1000 X2.282 Y.9563
N1010 X2.326 Y.9091
N1020 X2.3746 Y.8635
N1030 X2.4275 Y.8199
N1040 X2.4841 Y.7785
N1050 X2.5441 Y.7395
N1060 X2.6069 Y.7032
N1070 X2.6722 Y.6695
N1080 X2.7396 Y.6383
N1090 X2.8088 Y.6097
N1100 X2.8794 Y.5836
N1110 X2.9512 Y.5598
N1120 X3.024 Y.5382
N1130 X3.0976 Y.5187
N1140 X3.1718 Y.5011
N1150 X3.2465 Y.4854
N1160 X3.3216 Y.4713
N1170 X3.3969 Y.4587
N1180 X3.4725 Y.4476
N1190 X3.5483 Y.4378
N1200 X3.6241 Y.4291
N1210 X3.7 Y.4216
N1220 X3.7759 Y.415
N1230 X3.8519 Y.4094
N1240 X3.9278 Y.4046
N1250 X4.0038 Y.4006
N1260 X4.0797 Y.3972
N1270 X4.1555 Y.3945
N1280 X4.2313 Y.3924
N1290 X4.3071 Y.3908
N1300 X4.3828 Y.3896
N1310 G3 X4.5341 Y.3886 I.1726 J14.4908
N1320 G1 X4.5597
N1330 G3 X4.7607 Y.3897 I0. J17.9562
N1340 X5.0622 Y.3949 I-.2823 J25.1918
N1350 X5.4384 Y.4055 I-.8718 J37.6564
N1360 X5.8891 Y.422 I-2.113 J63.8966
N1370 X6.1142 Y.4312 I-3.848 J96.5341
N1380 G1 X6.1893 Y.4344
N1390 X6.4143 Y.4442
N1400 X6.6392 Y.4543
N1410 X6.939 Y.4682
N1420 X7.1639 Y.4787
N1430 X7.2322 Y.4832
N1440 X7.2939 Y.4915
N1450 X7.353 Y.5041
N1460 X7.4107 Y.5211
N1470 X7.4673 Y.5425
N1480 X7.5232 Y.5687
N1490 X7.5781 Y.5995
N1500 X7.6319 Y.6349
N1510 X7.6844 Y.6748
N1520 X7.7351 Y.719
N1530 X7.784 Y.7673
N1540 X7.8308 Y.8193
N1550 X7.8753 Y.8748
N1560 X7.9175 Y.9333
N1570 X7.9572 Y.9947
N1580 X7.9943 Y1.0584
N1590 X8.029 Y1.1242
N1600 X8.0612 Y1.1918
N1610 X8.0911 Y1.261
N1620 X8.1187 Y1.3315
N1630 X8.1442 Y1.403
N1640 X8.1675 Y1.4754
N1650 X8.189 Y1.5486
N1660 X8.2087 Y1.6223
N1670 X8.2267 Y1.6966
N1680 X8.2431 Y1.7712
N1690 X8.2581 Y1.8461
N1700 X8.2718 Y1.9212
N1710 X8.2843 Y1.9965
N1720 X8.2956 Y2.072
N1730 X8.306 Y2.1475
N1740 X8.3153 Y2.2231
N1750 X8.3239 Y2.2987
N1760 X8.3312 Y2.371
N1770 X8.3337 Y2.4273
N1780 X8.3316 Y2.4813
N1790 X8.3249 Y2.5348
N1800 X8.3135 Y2.5887
N1810 X8.2974 Y2.6429
N1820 X8.2762 Y2.6975
N1830 X8.25 Y2.752
N1840 X8.2189 Y2.8062
N1850 X8.1829 Y2.8596
N1860 X8.1422 Y2.9119
N1870 X8.0972 Y2.9626
N1880 X8.0481 Y3.0115
N1890 X7.9953 Y3.0583
N1900 X7.9392 Y3.1029
N1910 X7.8801 Y3.1451
N1920 X7.8183 Y3.1849
N1930 X7.7543 Y3.2223
N1940 X7.6883 Y3.2573
N1950 X7.6205 Y3.2898
N1960 X7.5514 Y3.3201
N1970 X7.481 Y3.3482
N1980 X7.4095 Y3.3742
N1990 X7.3372 Y3.3983
N2000 X7.2643 Y3.4204
N2010 X7.1907 Y3.4408
N2020 X7.1167 Y3.4596
N2030 X7.0422 Y3.4769
N2040 X6.9675 Y3.4928
N2050 X6.8925 Y3.5073
N2060 X6.8174 Y3.5207
N2070 X6.7421 Y3.533
N2080 X6.6667 Y3.5442
N2090 X6.5912 Y3.5545
N2100 X6.5156 Y3.5639
N2110 X6.4401 Y3.5726
N2120 X6.3645 Y3.5805
N2130 X6.2889 Y3.5877
N2140 X6.2133 Y3.5943
N2150 X6.1377 Y3.6004
N2160 X6.0621 Y3.606
N2170 X5.9866 Y3.611
N2180 G3 X5.8389 Y3.6197 I-.9271 J-14.4657
N2190 G2 X5.8269 Y3.6214 I.0042 J.0749
N2200 G3 X5.7982 Y3.6274 I-.2983 J-1.3481
N2210 X5.55 Y3.6512 I-.2571 J-1.3749
N2220 X5.0994 Y3.6563 I-1.3267 J-98.6301
N2230 G1 X5.0243 Y3.6569
N2240 X4.7991 Y3.6586
N2250 X4.5739 Y3.66
N2260 X4.3487 Y3.661
N2270 X4.0486 Y3.6622
N2280 X3.9778 Y3.6621
N2290 X3.9173 Y3.6584
N2300 X3.859 Y3.6503
N2310 X3.8017 Y3.6377
N2320 X3.7448 Y3.6204
N2330 X3.6882 Y3.5984
N2340 X3.6322 Y3.5716
N2350 X3.5768 Y3.5399
N2360 X3.5223 Y3.5036
N2370 X3.4693 Y3.4629
N2380 X3.4178 Y3.418
N2390 X3.3683 Y3.3691
N2400 X3.3207 Y3.3165
N2410 X3.2754 Y3.2607
N2420 X3.2325 Y3.202
N2430 X3.192 Y3.1407
N2440 X3.1539 Y3.077
N2450 X3.1182 Y3.0114
N2460 X3.0848 Y2.9441
N2470 X3.0538 Y2.8753
N2480 X3.0249 Y2.8052
N2490 X2.9982 Y2.7341
N2500 X2.9734 Y2.6621
N2510 X2.9505 Y2.5893
N2520 X2.9294 Y2.516
N2530 X2.91 Y2.4421
N2540 X2.892 Y2.3678
N2550 X2.8755 Y2.2933
N2560 X2.8604 Y2.2184
N2570 X2.8491 Y2.1561
N2580 X2.8446 Y2.1087
N2590 X2.8443 Y2.0619
N2600 X2.8482 Y2.0143
N2610 X2.8569 Y1.9654
N2620 X2.8704 Y1.9153
N2630 X2.8888 Y1.8643
N2640 X2.9125 Y1.8126
N2650 X2.9415 Y1.7608
N2660 X2.9754 Y1.7093
N2670 X3.0144 Y1.6588
N2680 X3.058 Y1.6094
N2690 X3.106 Y1.5618
N2700 X3.158 Y1.5162
N2710 X3.2137 Y1.4728
N2720 X3.2726 Y1.4318
N2730 X3.3343 Y1.3934
N2740 X3.3985 Y1.3575
N2750 X3.4648 Y1.3242
N2760 X3.533 Y1.2934
N2770 X3.6027 Y1.265
N2780 X3.6736 Y1.239
N2790 X3.7456 Y1.2152
N2800 X3.8185 Y1.1935
N2810 X3.8922 Y1.1738
N2820 X3.9663 Y1.156
N2830 X4.041 Y1.1399
N2840 X4.116 Y1.1254
N2850 X4.1913 Y1.1124
N2860 X4.2668 Y1.1008
N2870 X4.3425 Y1.0905
N2880 X4.4182 Y1.0814
N2890 X4.4941 Y1.0733
N2900 X4.57 Y1.0662
N2910 X4.6459 Y1.06
N2920 X4.7218 Y1.0547
N2930 X4.7977 Y1.0501
N2940 X4.8736 Y1.0463
N2950 X4.9494 Y1.0431
N2960 X5.0252 Y1.0404
N2970 X5.101 Y1.0384
N2980 X5.1767 Y1.0368
N2990 X5.2524 Y1.0356
N3000 G3 X5.4037 Y1.0346 I.183 J15.1286
N3010 G1 X5.4418
N3020 G3 X5.6302 Y1.0355 I0. J18.543
N3030 X5.9317 Y1.0403 I-.2603 J25.5736
N3040 X6.308 Y1.0505 I-.8225 J37.4647
N3050 X6.4584 Y1.0556 I-.6732 J21.9705
N3060 G1 X6.5275 Y1.0607
N3070 X6.5916 Y1.0696
N3080 X6.6534 Y1.0827
N3090 X6.7136 Y1.1002
N3100 X6.7727 Y1.1221
N3110 X6.8308 Y1.1485
N3120 X6.8879 Y1.1794
N3130 X6.9439 Y1.2148
N3140 X6.9982 Y1.2544
N3150 X7.051 Y1.2981
N3160 X7.1019 Y1.3458
N3170 X7.1508 Y1.397
N3180 X7.1974 Y1.4515
N3190 X7.2418 Y1.509
N3200 X7.2837 Y1.5692
N3210 X7.3232 Y1.6317
N3220 X7.3598 Y1.6953
N3230 X7.3784 Y1.7334
N3240 X7.3923 Y1.7683
N3250 X7.4036 Y1.8037
N3260 X7.4126 Y1.8413
N3270 X7.419 Y1.8816
N3280 X7.4225 Y1.9254
N3290 X7.4222 Y1.9723
N3300 X7.4171 Y2.0224
N3310 X7.4064 Y2.0751
N3320 X7.3893 Y2.1294
N3330 X7.3652 Y2.1841
N3340 X7.3335 Y2.2378
N3350 X7.2942 Y2.2891
N3360 X7.2507 Y2.3394
N3370 X7.2032 Y2.3884
N3380 X7.152 Y2.4357
N3390 X7.0974 Y2.4811
N3400 X7.0396 Y2.5243
N3410 X6.9791 Y2.5651
N3420 X6.9161 Y2.6035
N3430 X6.8509 Y2.6395
N3440 X6.8476 Y2.6413
N3450 G2 X6.81 Y2.688 I.0348 J.0664
N3460 G3 X6.4514 Y3.29 I-1.2587 J-.3421
N3470 X6.2636 Y3.439 I-.9246 J-.9724
N3480 X6.0382 Y3.5565 I-.7514 J-1.1664
N3490 X5.8233 Y3.6222 I-.5096 J-1.2832
N3500 X5.7982 Y3.6274 I-.2947 J-1.3489 F10.
N3510 X5.5747 Y3.6508 I-.2571 J-1.3749
N3520 X5.55 Y3.6512 I-.0336 J-1.3983 F6.42
N3530 X5.3018 Y3.6274 I.0089 J-1.3987
N3540 X5.0515 Y3.5523 I.2694 J-1.3532
N3550 X4.8364 Y3.439 I.5428 J-1.2906
N3560 G1 X4.7888 Y3.4097
N3570 X4.7375 Y3.3816
N3580 X4.6828 Y3.355
N3590 X4.6251 Y3.33
N3600 X4.5562 Y3.3017
N3610 X4.4877 Y3.2712
N3620 X4.4219 Y3.2385
N3630 X4.3586 Y3.2032
N3640 X4.2975 Y3.1649
N3650 X4.2386 Y3.1237
N3660 X4.1819 Y3.0793
N3670 X4.1272 Y3.0319
N3680 X4.0748 Y2.9817
N3690 X4.0245 Y2.9287
N3700 X3.9765 Y2.873
N3710 X3.9308 Y2.8149
N3720 X3.911 Y2.7869
N3730 X3.8994 Y2.7686
N3740 X3.8886 Y2.7498
N3750 X3.8775 Y2.7284
N3760 X3.8662 Y2.7038
N3770 X3.8548 Y2.6749
N3780 X3.8441 Y2.6415
N3790 X3.8347 Y2.6032
N3800 X3.8276 Y2.5598
N3810 X3.8241 Y2.5114
N3820 X3.8253 Y2.4586
N3830 X3.8326 Y2.4023
N3840 X3.8469 Y2.3435
N3850 X3.8693 Y2.2837
N3860 X3.9002 Y2.2247
N3870 X3.9399 Y2.1682
N3880 X3.9879 Y2.1161
N3890 X4.0437 Y2.0701
N3900 X4.1062 Y2.0318
N3910 X4.1721 Y1.998
N3920 X4.2816 Y1.9471
N3930 G2 X4.3206 Y1.9043 I-.0317 J-.068
N3940 G3 X4.3482 Y1.8334 I1.244 J.4432
N3950 X4.4608 Y1.6239 I1.2931 J.5605
N3960 X4.6348 Y1.4131 I1.1413 J.7643
N3970 X4.8364 Y1.251 I.9496 J.9749
N3980 X5.0618 Y1.1335 I.7489 J1.1616
N3990 X5.3247 Y1.0586 I.4999 J1.2561
N4000 X5.5495 Y1.0392 I.2248 J1.2894
N4010 X5.5875 Y1.0397 I0. J1.3088
N4020 G1 X5.5876
N4030 G3 X6.0758 Y1.1495 I-.0371 J1.305
N4040 X6.4889 Y1.4371 I-.5303 J1.2023
N4050 X6.7641 Y1.8635 I-.9502 J.9153
N4060 X6.8374 Y2.1262 I-1.2468 J.4893
N4070 X6.8558 Y2.3425 I-1.2599 J.2163
N4080 X6.855 Y2.3888 I-1.2783 J0.
N4090 G1 Y2.389
N4100 G3 X6.8108 Y2.6851 I-1.3037 J-.0431
N4110 X6.7893 Y2.7569 I-1.2595 J-.3392 F10.
N4120 G1 X6.7846 Y2.7721 Z1.5772
N4130 X6.7807 Y2.7874 Z1.5779
N4140 X6.7775 Y2.803 Z1.5786
N4150 X6.775 Y2.8187 Z1.5793
N4160 X6.7733 Y2.8344 Z1.5799
N4170 X6.7723 Y2.8503 Z1.5806
N4180 X6.7721 Y2.8661 Z1.5813
N4190 X6.7726 Y2.882 Z1.582
N4200 X6.7786 Y2.9905 Z1.5866
N4210 X6.78 Y3.0145 F100.
N4220 X6.7805 Y3.0306
N4230 X6.7802 Y3.0468
N4240 X6.7792 Y3.063
N4250 X6.7774 Y3.0791
N4260 X6.7748 Y3.0951
N4270 X6.7714 Y3.1109
N4280 X6.7673 Y3.1266
N4290 X6.7625 Y3.142
N4300 X6.7569 Y3.1572
N4310 X6.7506 Y3.1721
N4320 X6.7436 Y3.1867
N4330 X6.7359 Y3.2009
N4340 X6.7275 Y3.2148
N4350 X6.7184 Y3.2282
N4360 X6.7088 Y3.2412
N4370 X6.6985 Y3.2537
N4380 X6.6876 Y3.2657
N4390 X6.6762 Y3.2772
N4400 X6.6642 Y3.2881
N4410 X6.6517 Y3.2984
N4420 X6.6388 Y3.3081
N4430 X6.6254 Y3.3172
N4440 X6.6115 Y3.3256
N4450 X6.5973 Y3.3334
N4460 X6.5827 Y3.3404
N4470 X6.5679 Y3.3468
N4480 X6.5442 Y3.3562
N4490 X6.5324 Y3.3612
N4500 X6.5207 Y3.3669
N4510 X6.5094 Y3.373
N4520 X6.4983 Y3.3798
N4530 X6.4876 Y3.387
N4540 X6.4773 Y3.3947
N4550 X6.4673 Y3.403
N4560 X6.4432 Y3.4234
N4570 X6.4187 Y3.4433
N4580 X6.3937 Y3.4626
N4590 X6.3683 Y3.4814
N4600 X6.3424 Y3.4997
N4610 X6.3139 Y3.5189
N4620 X6.2853 Y3.5368
N4630 X6.2564 Y3.554
N4640 X6.227 Y3.5706
N4650 X6.1973 Y3.5866
N4660 X6.1673 Y3.6018
N4670 X6.1369 Y3.6164
N4680 X6.1061 Y3.6302
N4690 X6.0751 Y3.6434
N4700 X6.072 Y3.6446
N4710 X6.041 Y3.6565
N4720 X6.0098 Y3.6677
N4730 X5.9783 Y3.6781
N4740 X5.9466 Y3.6879
N4750 X5.9147 Y3.6969
N4760 X5.8826 Y3.7053
N4770 X5.8503 Y3.7129
N4780 X5.8179 Y3.7197
N4790 X5.8144 Y3.7204
N4800 X5.7806 Y3.7263
N4810 X5.7467 Y3.7314
N4820 X5.7128 Y3.7357
N4830 X5.6787 Y3.7393
N4840 X5.6445 Y3.742
N4850 X5.6104 Y3.744
N4860 X5.5976 Y3.7449
N4870 X5.5848 Y3.7464
N4880 X5.5722 Y3.7485
N4890 X5.5596 Y3.7512
N4900 X5.5472 Y3.7545
N4910 X5.535 Y3.7584
N4920 X5.523 Y3.7629
N4930 X5.4998 Y3.7721
N4940 X5.4846 Y3.7777
N4950 X5.4692 Y3.7826
N4960 X5.4536 Y3.7868
N4970 X5.4377 Y3.7902
N4980 X5.4218 Y3.7928
N4990 X5.4057 Y3.7947
N5000 X5.3896 Y3.7958
N5010 X5.3734 Y3.7961
N5020 X5.3572 Y3.7956
N5030 X5.3411 Y3.7944
N5040 X5.325 Y3.7924
N5050 X5.3091 Y3.7896
N5060 X5.2933 Y3.786
N5070 X5.2777 Y3.7818
N5080 X5.2623 Y3.7767
N5090 X5.2472 Y3.771
N5100 X5.2324 Y3.7645
N5110 X5.2179 Y3.7573
N5120 X5.2037 Y3.7494
N5130 X5.19 Y3.7409
N5140 X5.1767 Y3.7317
N5150 X5.1638 Y3.7219
N5160 X5.1514 Y3.7114
N5170 X5.1395 Y3.7004
N5180 X5.1282 Y3.6889
N5190 X5.1173 Y3.6766
N5200 X5.1018 Y3.6583
N5210 X5.0315 Y3.5754 Z1.582 F10.
N5220 X5.021 Y3.5635 Z1.5813
N5230 X5.0099 Y3.5521 Z1.5806
N5240 X4.9983 Y3.5413 Z1.5799
N5250 X4.9862 Y3.5311 Z1.5793
N5260 X4.9736 Y3.5214 Z1.5786
N5270 X4.9606 Y3.5123 Z1.5779
N5280 X4.9472 Y3.5039 Z1.5772
N5290 X4.9334 Y3.496 Z1.5766
N5300 G3 X4.8364 Y3.439 I.6609 J-1.2343
N5310 X4.6111 Y3.2529 I.7365 J-1.1212 F6.42
N5320 X4.536 Y3.1683 I3.1123 J-2.8407
N5330 X4.4598 Y3.0644 I1.8119 J-1.4083
N5340 X4.3409 Y2.8393 I1.1598 J-.7562
N5350 X4.2646 Y2.5765 I1.2541 J-.5066
N5360 X4.2441 Y2.343 I1.3189 J-.2335
N5370 X4.2444 Y2.3138 I1.3394 J0.
N5380 X4.3067 Y1.9453 I1.3202 J.0337
N5390 X4.3316 Y1.8746 I1.2579 J.4022 F10.
N5400 G1 X4.3369 Y1.8596 Z1.5772
N5410 X4.3415 Y1.8444 Z1.5779
N5420 X4.3455 Y1.8291 Z1.5786
N5430 X4.3486 Y1.8135 Z1.5793
N5440 X4.3511 Y1.7978 Z1.5799
N5450 X4.3528 Y1.7821 Z1.5806
N5460 X4.3537 Y1.7662 Z1.5813
N5470 X4.354 Y1.7504 Z1.582
N5480 X4.3529 Y1.6417 Z1.5866
N5490 X4.3527 Y1.6189 F100.
N5500 G2 X4.3085 Y1.5512 I-.075 J.0007 F10.
N5510 G1 X4.3013 Y1.548 Z1.587
N5520 X4.2943 Y1.5448 Z1.5882
N5530 X4.2874 Y1.5417 Z1.5902
N5540 X4.2807 Y1.5387 Z1.5931
N5550 X4.2743 Y1.5358 Z1.5966
N5560 X4.2683 Y1.5331 Z1.6009
N5570 X4.2627 Y1.5306 Z1.6058
N5580 X4.2577 Y1.5283 Z1.6114
N5590 X4.2532 Y1.5263 Z1.6175
N5600 X4.2493 Y1.5245 Z1.6241
N5610 X4.246 Y1.5231 Z1.6311
N5620 X4.2435 Y1.5219 Z1.6384
N5630 X4.2416 Y1.5211 Z1.646
N5640 X4.2405 Y1.5206 Z1.6537
N5650 X4.2401 Y1.5204 Z1.6616
N5660 G0 Z1.6766
N5670 Z2.
N5680 X.2238 Y-.244
N5690 Z1.6766
N5700 G1 Z1.5812 F6.42
N5710 X.2237 Y-.2444 Z1.5737
N5720 X.2232 Y-.2454 Z1.5663
N5730 X.2225 Y-.2471 Z1.5591
N5740 X.2215 Y-.2494 Z1.5521
N5750 X.2202 Y-.2524 Z1.5453
N5760 X.2186 Y-.256 Z1.539
N5770 X.2168 Y-.2601 Z1.533
N5780 X.2148 Y-.2648 Z1.5275
N5790 X.2126 Y-.2699 Z1.5226
N5800 X.2102 Y-.2755 Z1.5182
N5810 X.2076 Y-.2814 Z1.5145
N5820 X.2049 Y-.2877 Z1.5114
N5830 X.2021 Y-.2942 Z1.509
N5840 X.1992 Y-.3009 Z1.5073
N5850 X.1964 Y-.3082 Z1.506 F10.
N5860 X.1945 Y-.3158 Z1.5046
N5870 X.1933 Y-.3236 Z1.5032
N5880 X.193 Y-.3314 Z1.5018
N5890 X.1935 Y-.3393 Z1.5004
N5900 X.1948 Y-.347 Z1.499
N5910 X.1969 Y-.3546 Z1.4977
N5920 X.1997 Y-.3619 Z1.4963
N5930 X.2034 Y-.3688 Z1.4949
N5940 X.2077 Y-.3754 Z1.4935
N5950 X.2127 Y-.3814 Z1.4921
N5960 X.2183 Y-.3869 Z1.4907
N5970 X.2245 Y-.3918 Z1.4893
N5980 X.2311 Y-.396 Z1.488
N5990 X.2381 Y-.3995 Z1.4866
N6000 X.9097 Y-.6908
N6010 X1.0094 Y-.7341 Z1.482
N6020 X1.0238 Y-.7407 Z1.4813
N6030 X1.0378 Y-.748 Z1.4806
N6040 X1.0516 Y-.756 Z1.4799
N6050 X1.0649 Y-.7646 Z1.4793
N6060 X1.0778 Y-.7739 Z1.4786
N6070 X1.0902 Y-.7837 Z1.4779
N6080 X1.1022 Y-.7941 Z1.4772
N6090 X1.1137 Y-.805 Z1.4766
N6100 X1.21 Y-.8583 F6.42
N6110 X1.3029 Y-.8993
N6120 X1.3805 Y-.9251
N6130 X1.4466 Y-.9416
N6140 X1.5557 Y-.9604
N6150 X1.6505 Y-.9701
N6160 X1.7356 Y-.9746
N6170 X1.8141 Y-.9761
N6180 X1.8885 Y-.9759
N6190 X1.9601 Y-.9746
N6200 X2.0301 Y-.9726
N6210 G3 X2.236 Y-.9648 I-.5613 J17.4336
N6220 X2.5767 Y-.9491 I-2.9813 J68.5673
N6230 G1 X2.6451 Y-.9459
N6240 X3.1268 Y-.9224
N6250 X8.778 Y-.6449
N6260 X8.8305 Y-.6411
N6270 X8.8783 Y-.633
N6280 X8.9316 Y-.6185
N6290 X8.9888 Y-.5958
N6300 X9.0476 Y-.5647
N6310 X9.1063 Y-.5257
N6320 X9.1635 Y-.4792
N6330 X9.2181 Y-.4261
N6340 X9.2693 Y-.3674
N6350 X9.3167 Y-.304
N6360 X9.36 Y-.2368
N6370 X9.3992 Y-.1666
N6380 X9.4343 Y-.0941
N6390 X9.4656 Y-.02
N6400 X9.4932 Y.0554
N6410 X9.5175 Y.1315
N6420 X9.5388 Y.2082
N6430 X9.5573 Y.2851
N6440 X9.5734 Y.3622
N6450 X9.5872 Y.4393
N6460 X9.599 Y.5163
N6470 X9.609 Y.5932
N6480 X9.6174 Y.6698
N6490 X9.6243 Y.7463
N6500 X9.63 Y.8225
N6510 X9.6346 Y.8986
N6520 X9.6381 Y.9744
N6530 X9.6408 Y1.05
N6540 X9.6426 Y1.1255
N6550 X9.6436 Y1.2007
N6560 X9.6441 Y1.2758
N6570 X9.6439 Y1.3508
N6580 X9.6433 Y1.4256
N6590 G3 X9.6408 Y1.575 I-15.3535 J-.1816
N6600 X9.6348 Y1.7985 I-21.7727 J-.4703
N6610 G1 X9.6324 Y1.8729
N6620 G2 X9.6277 Y2.0218 I47.3347 J1.5706
N6630 X9.6205 Y2.3202 I30.5038 J.8822
N6640 X9.614 Y2.7689 I50.735 J.962
N6650 X9.61 Y3.2931 I96.7723 J.9904
N6660 G1 X9.6097 Y3.368
N6670 X9.6088 Y3.5928
N6680 X9.6079 Y3.8926
N6690 X9.6078 Y3.9676
N6700 X9.607 Y3.9956
N6710 X9.6051 Y4.0206
N6720 X9.6009 Y4.0527
N6730 X9.593 Y4.0916
N6740 X9.5801 Y4.1363
N6750 X9.5607 Y4.1855
N6760 X9.5337 Y4.2372
N6770 X9.4994 Y4.2897
N6780 X9.4581 Y4.3417
N6790 X9.4104 Y4.3921
N6800 X9.3571 Y4.4402
N6810 X9.299 Y4.4853
N6820 X9.2368 Y4.5272
N6830 X9.1712 Y4.5655
N6840 X9.1029 Y4.6004
N6850 X9.0325 Y4.6317
N6860 X8.9605 Y4.6598
N6870 X8.8873 Y4.6848
N6880 X8.8131 Y4.7069
N6890 X8.7383 Y4.7263
N6900 X8.6631 Y4.7433
N6910 X8.5875 Y4.7582
N6920 X8.5766 Y4.7601
N6930 G2 X8.5179 Y4.8122 I.013 J.0738
N6940 G3 X8.0663 Y5.2961 I-.7179 J-.2172
N6950 X7.841 Y5.3439 I-.2667 J-.7032
N6960 G1 X7.8034 Y5.345
N6970 X6.7147
N6980 X6.7138
N6990 G3 X6.7045 Y5.3451 I-.0093 J-.7501
N7000 X6.2887 Y5.2193 I0. J-.7502
N7010 G1 X6.238 Y5.1908
N7020 X6.1838 Y5.1638
N7030 X6.1268 Y5.1384
N7040 X6.0671 Y5.1146
N7050 X6.0053 Y5.0925
N7060 X5.9416 Y5.0721
N7070 X5.8762 Y5.0532
N7080 X5.8095 Y5.0359
N7090 X5.7416 Y5.0201
N7100 X5.6727 Y5.0056
N7110 X5.603 Y4.9924
N7120 X5.5326 Y4.9804
N7130 X5.4615 Y4.9695
N7140 X5.3899 Y4.9596
N7150 X5.3179 Y4.9505
N7160 X5.2454 Y4.9424
N7170 X5.1727 Y4.935
N7180 X5.0996 Y4.9283
N7190 X5.0264 Y4.9222
N7200 X4.9529 Y4.9167
N7210 X4.8792 Y4.9117
N7220 X4.8054 Y4.9072
N7230 G2 X4.6573 Y4.8994 I-.8001 J13.86
N7240 X4.4344 Y4.8904 I-.8279 J17.6267
N7250 X4.1364 Y4.8819 I-.8812 J25.6882
N7260 X3.7628 Y4.8751 I-.9097 J40.0165
N7270 X3.2389 Y4.87 I-.9899 J73.6273
N7280 G1 X3.164 Y4.8695
N7290 X2.9392 Y4.8683
N7300 X2.7144 Y4.8674
N7310 X2.4145 Y4.8666
N7320 X2.3696 Y4.8663
N7330 X2.347 Y4.8647
N7340 X2.3173 Y4.8611
N7350 X2.2814 Y4.8543
N7360 X2.24 Y4.8433
N7370 X2.1942 Y4.8267
N7380 X2.1456 Y4.8035
N7390 X2.0959 Y4.7729
N7400 X2.047 Y4.7343
N7410 X2.0009 Y4.6879
N7420 X1.9595 Y4.634
N7430 X1.92 Y4.5763
N7440 X1.8826 Y4.5153
N7450 X1.8477 Y4.4514
N7460 X1.8153 Y4.3851
N7470 X1.7855 Y4.3168
N7480 X1.7581 Y4.2468
N7490 X1.733 Y4.1755
N7500 X1.7102 Y4.1031
N7510 X1.6895 Y4.0299
N7520 X1.6706 Y3.956
N7530 X1.6535 Y3.8815
N7540 X1.638 Y3.8067
N7550 X1.624 Y3.7316
N7560 X1.6114 Y3.6563
N7570 X1.5999 Y3.5808
N7580 X1.5896 Y3.5052
N7590 X1.5802 Y3.4296
N7600 X1.5718 Y3.3539
N7610 X1.5642 Y3.2782
N7620 X1.5573 Y3.2025
N7630 X1.5511 Y3.1268
N7640 X1.5455 Y3.0512
N7650 X1.5405 Y2.9755
N7660 X1.5359 Y2.8999
N7670 G3 X1.5281 Y2.7488 I14.3281 J-.8171
N7680 X1.519 Y2.5224 I18.1362 J-.8418
N7690 X1.5105 Y2.221 I26.2867 J-.8914
N7700 X1.5038 Y1.8448 I40.7732 J-.9164
N7710 X1.4987 Y1.3189 I74.755 J-.9939
N7720 G1 X1.4982 Y1.2438
N7730 X1.497 Y1.0186
N7740 X1.4962 Y.7934
N7750 X1.4955 Y.5683
N7760 Y.5114
N7770 X1.4977 Y.4846
N7780 X1.5018 Y.4545
N7790 X1.5086 Y.4204
N7800 X1.5192 Y.3816
N7810 X1.5349 Y.3387
N7820 X1.5566 Y.2928
N7830 X1.5853 Y.2453
N7840 X1.6215 Y.1979
N7850 X1.6655 Y.1526
N7860 X1.717 Y.1111
N7870 X1.7734 Y.0726
N7880 X1.8335 Y.0361
N7890 X1.8967 Y.0021
N7900 X1.9625 Y-.0293
N7910 X2.0306 Y-.058
N7920 X2.1006 Y-.0841
N7930 X2.172 Y-.1076
N7940 X2.2447 Y-.1288
N7950 X2.3182 Y-.1477
N7960 X2.3925 Y-.1646
N7970 X2.4673 Y-.1795
N7980 X2.5425 Y-.1927
N7990 X2.618 Y-.2043
N8000 X2.6938 Y-.2144
N8010 X2.7696 Y-.2232
N8020 X2.8456 Y-.2307
N8030 X2.9216 Y-.2372
N8040 X2.9976 Y-.2427
N8050 X3.0736 Y-.2473
N8060 X3.1496 Y-.2511
N8070 X3.2255 Y-.2541
N8080 X3.3014 Y-.2565
N8090 X3.3772 Y-.2583
N8100 X3.453 Y-.2596
N8110 X3.5288 Y-.2603
N8120 G3 X3.632 Y-.2607 I.1032 J14.5566
N8130 X3.6801 Y-.2606 I0. J14.557
N8140 X3.9066 Y-.2585 I-.0617 J18.4163
N8150 X4.208 Y-.252 I-.4176 J26.6751
N8160 X4.5841 Y-.2402 I-1.1132 J41.3462
N8170 X5.1096 Y-.2195 I-2.7262 J75.7686
N8180 G1 X5.1846 Y-.2163
N8190 X5.4096 Y-.2064
N8200 X5.6346 Y-.1962
N8210 X5.9344 Y-.1822
N8220 X6.3091 Y-.1645
N8230 X6.8336 Y-.1392
N8240 X7.7326 Y-.0954
N8250 X7.9572 Y-.0844
N8260 X8.0152 Y-.0793
N8270 X8.0701 Y-.0699
N8280 X8.1239 Y-.056
N8290 X8.1768 Y-.0376
N8300 X8.2297 Y-.0143
N8310 X8.282 Y.0138
N8320 X8.3336 Y.0469
N8330 X8.3842 Y.0849
N8340 X8.4335 Y.1275
N8350 X8.481 Y.1745
N8360 X8.5264 Y.2256
N8370 X8.5696 Y.2805
N8380 X8.6103 Y.3387
N8390 X8.6485 Y.3999
N8400 X8.684 Y.4637
N8410 X8.7169 Y.5298
N8420 X8.7472 Y.5978
N8430 X8.7749 Y.6674
N8440 X8.8002 Y.7384
N8450 X8.8232 Y.8105
N8460 X8.844 Y.8836
N8470 X8.8626 Y.9574
N8480 X8.8794 Y1.0318
N8490 X8.8943 Y1.1067
N8500 X8.9077 Y1.1819
N8510 X8.9195 Y1.2574
N8520 X8.9299 Y1.3331
N8530 X8.9392 Y1.4088
N8540 X8.9474 Y1.4846
N8550 X8.9546 Y1.5605
N8560 X8.961 Y1.6363
N8570 X8.9666 Y1.7121
N8580 X8.9716 Y1.7879
N8590 X8.9759 Y1.8636
N8600 X8.9798 Y1.9393
N8610 X8.9832 Y2.0149
N8620 G3 X8.9888 Y2.166 I-15.8947 J.6638
N8630 X8.9948 Y2.3923 I-21.1368 J.6807
N8640 X9. Y2.6934 I-33.3075 J.7164
N8650 X9.0039 Y3.1439 I-62.4548 J.7693
N8660 G1 X9.0019 Y3.1967
N8670 X8.9955 Y3.2475
N8680 X8.9846 Y3.2982
N8690 X8.9691 Y3.3489
N8700 X8.9485 Y3.4001
N8710 X8.9229 Y3.4514
N8720 X8.8906 Y3.5051
N8730 X8.8514 Y3.5616
N8740 X8.8067 Y3.6191
N8750 X8.758 Y3.6764
N8760 X8.7069 Y3.733
N8770 X8.6548 Y3.7887
N8780 X8.5707 Y3.8769
N8790 G2 X8.55 Y3.9286 I.0543 J.0517
N8800 G1 Y4.0036
N8810 Y4.6032
N8820 G3 X8.5454 Y4.678 I-.75 J-.0082 F10.
N8830 G1 X8.544 Y4.6938 Z1.4772
N8840 X8.5434 Y4.7097 Z1.4779
N8850 X8.5435 Y4.7256 Z1.4786
N8860 X8.5443 Y4.7414 Z1.4793
N8870 X8.5459 Y4.7572 Z1.4799
N8880 X8.5482 Y4.7729 Z1.4806
N8890 X8.5513 Y4.7885 Z1.4813
N8900 X8.5551 Y4.8039 Z1.482
N8910 X8.5836 Y4.9087 Z1.4866
N8920 X8.5837 Y4.9092 F100.
N8930 G3 X8.5955 Y4.9977 I-.3257 J.0885
N8940 X8.3137 Y5.3306 I-.3375 J0.
N8950 G2 X8.2801 Y5.3366 I.223 J1.3314
N8960 G1 X8.2507 Y5.3427
N8970 X8.2213 Y5.3494
N8980 X8.1922 Y5.3567
N8990 X8.1632 Y5.3647
N9000 X8.1344 Y5.3734
N9010 X8.1089 Y5.3816
N9020 G3 X8.0605 Y5.3982 I-1.8693 J-5.3756
N9030 G1 X8.0372 Y5.4053
N9040 X8.0138 Y5.4118
N9050 X7.9901 Y5.4177
N9060 X7.9663 Y5.4228
N9070 X7.9423 Y5.4273
N9080 X7.9182 Y5.431
N9090 X7.894 Y5.4341
N9100 X7.8697 Y5.4365
N9110 X7.8518 Y5.4377
N9120 G3 X7.7948 Y5.4394 I-.0675 J-1.3588
N9130 G1 X7.6112
N9140 X7.5806 Y5.4397
N9150 X7.5501 Y5.4408
N9160 X7.5195 Y5.4425
N9170 X7.489 Y5.4449
N9180 X7.4586 Y5.448
N9190 X7.4283 Y5.4518
N9200 X6.855 Y5.5302
N9210 X6.8391 Y5.532
N9220 X6.8231 Y5.5331
N9230 X6.8071 Y5.5333
N9240 X6.7911 Y5.5329
N9250 X6.7751 Y5.5316
N9260 X6.7592 Y5.5296
N9270 X6.7434 Y5.5269
N9280 X6.7278 Y5.5234
N9290 X6.7123 Y5.5191
N9300 X6.6971 Y5.5142
N9310 X6.6821 Y5.5085
N9320 X6.6674 Y5.5021
N9330 X6.6531 Y5.495
N9340 X6.639 Y5.4873
N9350 X6.6254 Y5.4788
N9360 X6.6122 Y5.4698
N9370 X6.5994 Y5.4601
N9380 X6.5871 Y5.4499
N9390 X6.5753 Y5.439
N9400 X6.5636 Y5.4273
N9410 X6.489 Y5.3483 Z1.482 F10.
N9420 X6.4778 Y5.337 Z1.4813
N9430 X6.4661 Y5.3263 Z1.4806
N9440 X6.454 Y5.3161 Z1.4799
N9450 X6.4413 Y5.3065 Z1.4793
N9460 X6.4282 Y5.2975 Z1.4786
N9470 X6.4148 Y5.2892 Z1.4779
N9480 X6.4009 Y5.2815 Z1.4772
N9490 X6.3867 Y5.2744 Z1.4766
N9500 G3 X6.2887 Y5.2193 I.3178 J-.6795
N9510 X6.0417 Y4.9462 I.4158 J-.6244 F6.42
N9520 G1 X6.0153 Y4.9108
N9530 X5.9844 Y4.8748
N9540 X5.9491 Y4.8387
N9550 X5.9098 Y4.8029
N9560 X5.8666 Y4.7679
N9570 X5.8198 Y4.734
N9580 X5.7698 Y4.7013
N9590 X5.7169 Y4.6701
N9600 X5.6614 Y4.6405
N9610 X5.6036 Y4.6124
N9620 X5.5437 Y4.586
N9630 X5.4819 Y4.5612
N9640 X5.4185 Y4.5381
N9650 X5.3538 Y4.5164
N9660 X5.2877 Y4.4963
N9670 X5.2206 Y4.4777
N9680 X5.1525 Y4.4604
N9690 X5.0836 Y4.4444
N9700 X5.0139 Y4.4296
N9710 X4.9437 Y4.4159
N9720 X4.8728 Y4.4034
N9730 X4.8015 Y4.3918
N9740 X4.7297 Y4.3811
N9750 X4.6576 Y4.3713
N9760 X4.5852 Y4.3623
N9770 X4.5124 Y4.354
N9780 X4.4394 Y4.3465
N9790 X4.3662 Y4.3395
N9800 X4.2928 Y4.3331
N9810 X4.2192 Y4.3273
N9820 X4.1455 Y4.3219
N9830 X4.0717 Y4.317
N9840 G2 X3.9236 Y4.3084 I-.9006 J14.2124
N9850 X3.7008 Y4.298 I-.9252 J17.4993
N9860 X3.4029 Y4.2879 I-.9739 J24.2889
N9870 X3.2536 Y4.2841 I-.8958 J31.8809
N9880 G1 X3.203 Y4.2809
N9890 X3.1526 Y4.2732
N9900 X3.1015 Y4.2608
N9910 X3.0494 Y4.2434
N9920 X2.9968 Y4.2209
N9930 X2.944 Y4.1932
N9940 X2.8915 Y4.1604
N9950 X2.8397 Y4.1226
N9960 X2.7891 Y4.0801
N9970 X2.7401 Y4.0332
N9980 X2.6931 Y3.9822
N9990 X2.6481 Y3.9276
N100 X2.6055 Y3.8697
N110 X2.5653 Y3.809
N120 X2.5276 Y3.7457
N130 X2.4923 Y3.6802
N140 X2.4595 Y3.6129
N150 X2.429 Y3.544
N160 X2.4008 Y3.4738
N170 X2.3748 Y3.4025
N180 X2.3508 Y3.3303
N190 X2.3287 Y3.2573
N200 X2.3084 Y3.1837
N210 X2.2898 Y3.1097
N220 X2.2727 Y3.0352
N230 X2.2571 Y2.9604
N240 X2.2428 Y2.8854
N250 X2.2297 Y2.8102
N260 X2.2177 Y2.7348
N270 X2.2068 Y2.6594
N280 X2.1968 Y2.5838
N290 X2.1877 Y2.5083
N300 X2.1794 Y2.4326
N310 X2.1718 Y2.357
N320 X2.1649 Y2.2814
N330 X2.1586 Y2.2058
N340 X2.1528 Y2.1302
N350 X2.1476 Y2.0546
N360 X2.1428 Y1.979
N370 G3 X2.1344 Y1.828 I14.8787 J-.8979
N380 X2.1245 Y1.6017 I18.3616 J-.9204
N390 X2.1192 Y1.4509 I23.422 J-.891
N400 G1 X2.1176 Y1.388
N410 X2.12 Y1.3433
N420 X2.1264 Y1.2974
N430 X2.1376 Y1.2498
N440 X2.1539 Y1.2009
N450 X2.1755 Y1.151
N460 X2.2024 Y1.1006
N470 X2.2346 Y1.0502
N480 X2.2719 Y1.0004
N490 X2.3141 Y.9517
N500 X2.361 Y.9045
N510 X2.4121 Y.8592
N520 X2.467 Y.8161
N530 X2.5254 Y.7753
N540 X2.5868 Y.7371
N550 X2.6507 Y.7015
N560 X2.7169 Y.6685
N570 X2.7851 Y.638
N580 X2.8548 Y.6101
N590 X2.9258 Y.5845
N600 X2.9979 Y.5612
N610 X3.0709 Y.54
N620 X3.1447 Y.5209
N630 X3.219 Y.5036
N640 X3.2937 Y.4881
N650 X3.3689 Y.4742
N660 X3.4443 Y.4618
N670 X3.5199 Y.4508
N680 X3.5956 Y.4411
N690 X3.6714 Y.4325
N700 X3.7473 Y.425
N710 X3.8232 Y.4185
N720 X3.8992 Y.4129
N730 X3.9751 Y.4081
N740 X4.051 Y.404
N750 X4.1269 Y.4007
N760 X4.2028 Y.3979
N770 X4.2786 Y.3957
N780 X4.3543 Y.3941
N790 X4.4301 Y.3929
N800 G3 X4.5813 Y.3918 I.181 J14.5334
N810 G1 X4.6173
N820 G3 X4.8079 Y.3928 I0. J17.9504
N830 X5.1095 Y.3978 I-.2665 J25.0618
N840 X5.4857 Y.4082 I-.844 J37.2633
N850 X5.9364 Y.4246 I-2.0527 J62.8277
N860 X6.1615 Y.4338 I-3.7399 J94.4808
N870 G1 X6.2366 Y.4369
N880 X6.4616 Y.4467
N890 X6.6865 Y.4568
N900 X6.9864 Y.4706
N910 X7.1363 Y.4776
N920 X7.2082 Y.4813
N930 X7.2715 Y.4881
N940 X7.3314 Y.4991
N950 X7.3895 Y.5144
N960 X7.4465 Y.5342
N970 X7.5027 Y.5586
N980 X7.558 Y.5877
N990 X7.6122 Y.6214
N1000 X7.6652 Y.6597
N1010 X7.7166 Y.7024
N1020 X7.7662 Y.7491
N1030 X7.8138 Y.7998
N1040 X7.8592 Y.854
N1050 X7.9022 Y.9115
N1060 X7.9428 Y.9718
N1070 X7.9809 Y1.0347
N1080 X8.0165 Y1.0998
N1090 X8.0496 Y1.1668
N1100 X8.0804 Y1.2354
N1110 X8.1088 Y1.3054
N1120 X8.135 Y1.3766
N1130 X8.1592 Y1.4487
N1140 X8.1813 Y1.5216
N1150 X8.2016 Y1.5952
N1160 X8.2202 Y1.6692
N1170 X8.2292 Y1.7075
N1180 G2 X8.2565 Y1.75 I.073 J-.017
N1190 G3 X8.375 Y1.8635 I-.4565 J.5951
N1200 X8.5494 Y2.3138 I-.5751 J.4815
N1210 G1 X8.55 Y2.3514
N1220 Y3.9264
N1230 Y4.0014 F10.
N1240 X8.5503 Y4.0172 Z1.4772
N1250 X8.5515 Y4.033 Z1.4779
N1260 X8.5533 Y4.0488 Z1.4786
N1270 X8.5559 Y4.0645 Z1.4793
N1280 X8.5592 Y4.08 Z1.4799
N1290 X8.5633 Y4.0953 Z1.4806
N1300 X8.5681 Y4.1104 Z1.4813
N1310 X8.5736 Y4.1253 Z1.482
N1320 X8.6135 Y4.2264 Z1.4866
N1330 X8.6443 Y4.3046 F100.
N1340 X8.6498 Y4.3193
N1350 X8.6545 Y4.3343
N1360 X8.6585 Y4.3495
N1370 X8.6619 Y4.3648
N1380 X8.6645 Y4.3803
N1390 X8.6663 Y4.3959
N1400 X8.6675 Y4.4116
N1410 X8.6679 Y4.4273
N1420 X8.6676 Y4.443
N1430 X8.6666 Y4.4586
N1440 X8.6648 Y4.4742
N1450 G3 X8.6607 Y4.4988 I-.6201 J-.0915
N1460 G2 X8.6534 Y4.5446 I1.3292 J.2359
N1470 G1 X8.6499 Y4.5705
N1480 X8.647 Y4.5966
N1490 X8.6446 Y4.6226
N1500 G3 X8.6407 Y4.6741 I-4.8112 J-.3406
N1510 G1 X8.6379 Y4.6993
N1520 X8.6344 Y4.7245
N1530 X8.6301 Y4.7495
N1540 X8.6251 Y4.7744
N1550 X8.6193 Y4.7992
N1560 X8.6128 Y4.8237
N1570 X8.6056 Y4.8481
N1580 X8.5976 Y4.8722
N1590 X8.5889 Y4.896
N1600 X8.5795 Y4.9196
N1610 X8.5694 Y4.9429
N1620 X8.5585 Y4.9659
N1630 X8.547 Y4.9886
N1640 X8.5349 Y5.0109
N1650 X8.522 Y5.0328
N1660 X8.5085 Y5.0543
N1670 X8.4944 Y5.0754
N1680 X8.4796 Y5.0961
N1690 X8.4642 Y5.1163
N1700 X8.4482 Y5.1361
N1710 X8.4317 Y5.1553
N1720 X8.4145 Y5.1741
N1730 X8.3968 Y5.1923
N1740 X8.3786 Y5.21
N1750 X8.3598 Y5.2271
N1760 X8.3406 Y5.2437
N1770 X8.3208 Y5.2596
N1780 X8.3006 Y5.275
N1790 X8.2799 Y5.2897
N1800 X8.2588 Y5.3039
N1810 X8.2373 Y5.3173
N1820 X8.2153 Y5.3302
N1830 X8.193 Y5.3423
N1840 X8.1704 Y5.3538
N1850 X8.1474 Y5.3646
N1860 X8.1241 Y5.3747
N1870 X8.0992 Y5.3846
N1880 X8.077 Y5.3926
N1890 X8.0546 Y5.4001
N1900 X8.032 Y5.4069
N1910 X8.0092 Y5.413
N1920 X7.9863 Y5.4185
N1930 X7.9632 Y5.4234
N1940 X7.94 Y5.4277
N1950 X7.9167 Y5.4313
N1960 X7.8932 Y5.4342
N1970 X7.8697 Y5.4365
N1980 X7.8518 Y5.4377
N1990 G3 X7.7948 Y5.4394 I-.0675 J-1.3588
N2000 G1 X7.3116
N2010 X6.9964
N2020 X6.9651 Y5.4397
N2030 X6.9339 Y5.4408
N2040 X6.9027 Y5.4426
N2050 X6.8715 Y5.4452
N2060 X6.8404 Y5.4484
N2070 X6.8094 Y5.4524
N2080 X6.7785 Y5.4571
N2090 X6.7503 Y5.462
N2100 X6.7222 Y5.4675
N2110 X6.6942 Y5.4736
N2120 X6.6663 Y5.4803
N2130 X6.6386 Y5.4876
N2140 X6.6078 Y5.4965
N2150 G3 X6.5107 Y5.5108 I-.0971 J-.3232
N2160 X6.1846 Y5.2604 I0. J-.3375
N2170 G1 Y5.2603
N2180 X6.1845 Y5.2599
N2190 X6.1564 Y5.1549 Z1.482 F10.
N2200 X6.152 Y5.1397 Z1.4813
N2210 X6.1468 Y5.1247 Z1.4806
N2220 X6.1409 Y5.11 Z1.4799
N2230 X6.1344 Y5.0955 Z1.4793
N2240 X6.1271 Y5.0814 Z1.4786
N2250 X6.1193 Y5.0676 Z1.4779
N2260 X6.1107 Y5.0542 Z1.4772
N2270 X6.1016 Y5.0413 Z1.4766
N2280 G3 X6.0417 Y4.9462 I.6029 J-.4464
N2290 X6.0207 Y4.9035 I.6628 J-.3513 F6.42
N2300 X5.9601 Y4.6877 I.6848 J-.3088
N2310 G1 X5.95 Y4.6522
N2320 X5.936 Y4.6145
N2330 X5.9181 Y4.5752
N2340 X5.896 Y4.5347
N2350 X5.87 Y4.4936
N2360 X5.84 Y4.4524
N2370 X5.8063 Y4.4114
N2380 X5.7689 Y4.3708
N2390 X5.728 Y4.3311
N2400 X5.6839 Y4.2923
N2410 X5.6368 Y4.2548
N2420 X5.587 Y4.2185
N2430 X5.5346 Y4.1838
N2440 X5.48 Y4.1506
N2450 X5.4232 Y4.1189
N2460 X5.3646 Y4.0888
N2470 X5.3042 Y4.0603
N2480 X5.2423 Y4.0333
N2490 X5.179 Y4.0079
N2500 X5.1145 Y3.984
N2510 X5.0488 Y3.9615
N2520 X4.9822 Y3.9404
N2530 X4.9147 Y3.9206
N2540 X4.8464 Y3.9022
N2550 X4.7773 Y3.8849
N2560 X4.7077 Y3.8688
N2570 X4.6375 Y3.8537
N2580 X4.5668 Y3.8397
N2590 X4.4956 Y3.8267
N2600 X4.4241 Y3.8145
N2610 X4.3522 Y3.8033
N2620 X4.28 Y3.7928
N2630 X4.2075 Y3.7831
N2640 X4.1347 Y3.7741
N2650 G2 X3.9903 Y3.7577 I-3.4856 J30.0868
N2660 G1 X3.9243 Y3.7469
N2670 X3.8614 Y3.7321
N2680 X3.8001 Y3.7132
N2690 X3.7403 Y3.6899
N2700 X3.6816 Y3.6623
N2710 X3.6241 Y3.6303
N2720 X3.5679 Y3.5939
N2730 X3.5133 Y3.5534
N2740 X3.4604 Y3.5088
N2750 X3.4095 Y3.4606
N2760 X3.3606 Y3.4088
N2770 X3.3139 Y3.3538
N2780 X3.2696 Y3.296
N2790 X3.2277 Y3.2356
N2800 X3.1881 Y3.1729
N2810 X3.1509 Y3.1081
N2820 X3.1161 Y3.0416
N2830 X3.0835 Y2.9736
N2840 X3.0532 Y2.9042
N2850 X3.0249 Y2.8337
N2860 X2.9987 Y2.7623
N2870 X2.9744 Y2.69
N2880 X2.9519 Y2.6171
N2890 X2.9311 Y2.5436
N2900 X2.9119 Y2.4697
N2910 X2.8942 Y2.3954
N2920 X2.8779 Y2.3208
N2930 X2.8628 Y2.2459
N2940 X2.8513 Y2.1818
N2950 X2.8464 Y2.1324
N2960 X2.8459 Y2.0839
N2970 X2.8498 Y2.035
N2980 X2.8583 Y1.9851
N2990 X2.8716 Y1.9341
N3000 X2.8899 Y1.8824
N3010 X2.9133 Y1.83
N3020 X2.9419 Y1.7777
N3030 X2.9755 Y1.7257
N3040 X3.0141 Y1.6746
N3050 X3.0573 Y1.6248
N3060 X3.1049 Y1.5767
N3070 X3.1565 Y1.5305
N3080 X3.2117 Y1.4866
N3090 X3.2701 Y1.4452
N3100 X3.3315 Y1.4062
N3110 X3.3953 Y1.3697
N3120 X3.4613 Y1.3358
N3130 X3.5291 Y1.3044
N3140 X3.5985 Y1.2755
N3150 X3.6692 Y1.2489
N3160 X3.741 Y1.2245
N3170 X3.8137 Y1.2023
N3180 X3.8872 Y1.1821
N3190 X3.9612 Y1.1638
N3200 X4.0358 Y1.1472
N3210 X4.1107 Y1.1322
N3220 X4.1859 Y1.1188
N3230 X4.2613 Y1.1068
N3240 X4.3369 Y1.0961
N3250 X4.4127 Y1.0865
N3260 X4.4885 Y1.0781
N3270 X4.5644 Y1.0707
N3280 X4.6403 Y1.0642
N3290 X4.7162 Y1.0586
N3300 X4.7921 Y1.0537
N3310 X4.868 Y1.0496
N3320 X4.9438 Y1.0461
N3330 X5.0196 Y1.0433
N3340 X5.0954 Y1.041
N3350 X5.1712 Y1.0392
N3360 X5.2469 Y1.0378
N3370 G3 X5.3982 Y1.0364 I.213 J14.6759
N3380 X5.4729 Y1.0362 I.0747 J17.953
N3390 X5.6247 Y1.0369 I0. J17.9532
N3400 X5.9263 Y1.0413 I-.2092 J24.6848
N3410 X6.3026 Y1.0511 I-.7452 J36.0367
N3420 X6.4532 Y1.056 I-.8103 J26.9205
N3430 G1 X6.5227 Y1.0608
N3440 X6.5872 Y1.0694
N3450 X6.649 Y1.0822
N3460 X6.7092 Y1.0993
N3470 X6.7685 Y1.1209
N3480 X6.8266 Y1.1469
N3490 X6.8839 Y1.1775
N3500 X6.9398 Y1.2125
N3510 X6.9943 Y1.2518
N3520 X7.0474 Y1.2954
N3530 X7.1003 Y1.3441
N3540 X7.1529 Y1.3973
N3550 X7.2046 Y1.4531
N3560 X7.2552 Y1.5102
N3570 X7.3063 Y1.5691
N3580 G2 X7.3629 Y1.595 I.0566 J-.0491
N3590 G1 X7.4379
N3600 X7.8034
N3610 G3 X7.8783 Y1.5992 I-.0074 J.7999 F10.
N3620 G1 X7.8941 Y1.6005 Z1.4772
N3630 X7.91 Y1.601 Z1.4779
N3640 X7.9258 Y1.6008 Z1.4786
N3650 X7.9417 Y1.5998 Z1.4793
N3660 X7.9574 Y1.5981 Z1.4799
N3670 X7.9731 Y1.5956 Z1.4806
N3680 X7.9887 Y1.5924 Z1.4813
N3690 X8.004 Y1.5885 Z1.482
N3700 X8.1087 Y1.5592 Z1.4866
N3710 X8.1089 Y1.5591 F100.
N3720 G3 X8.1999 Y1.5466 I.091 J.325
N3730 X8.5373 Y1.8752 I0. J.3375
N3740 G1 X8.538 Y1.8892
N3750 X8.5395 Y1.9032
N3760 X8.5416 Y1.9171
N3770 X8.5445 Y1.9308
N3780 X8.5482 Y1.9443
N3790 X8.5525 Y1.9577
N3800 X8.5575 Y1.9708
N3810 G2 X8.5738 Y2.0071 I1.7027 J-.7451
N3820 G1 X8.5838 Y2.0309
N3830 X8.593 Y2.055
N3840 X8.6015 Y2.0794
N3850 X8.6092 Y2.104
N3860 X8.6162 Y2.1288
N3870 X8.6224 Y2.1538
N3880 X8.6279 Y2.1791
N3890 X8.6326 Y2.2044
N3900 X8.6365 Y2.2299
N3910 X8.6396 Y2.2555
N3920 X8.642 Y2.2812
N3930 X8.6435 Y2.307
N3940 X8.6438 Y2.3145
N3950 X8.6444 Y2.3529
N3960 X8.6443 Y4.6056
N3970 X8.6436 Y4.6314
N3980 X8.6421 Y4.6573
N3990 X8.6398 Y4.683
N4000 X8.6367 Y4.7087
N4010 X8.6328 Y4.7343
N4020 X8.6281 Y4.7598
N4030 X8.6227 Y4.7851
N4040 X8.6165 Y4.8102
N4050 X8.6095 Y4.8351
N4060 X8.6018 Y4.8598
N4070 X8.5933 Y4.8842
N4080 X8.5841 Y4.9084
N4090 X8.5741 Y4.9323
N4100 X8.5634 Y4.9558
N4110 X8.552 Y4.9791
N4120 X8.5399 Y5.0019
N4130 X8.527 Y5.0244
N4140 X8.5135 Y5.0465
N4150 X8.4994 Y5.0681
N4160 X8.4845 Y5.0893
N4170 X8.4691 Y5.1101
N4180 X8.453 Y5.1303
N4190 X8.4363 Y5.1501
N4200 X8.419 Y5.1693
N4210 X8.4011 Y5.188
N4220 X8.3826 Y5.2062
N4230 X8.3636 Y5.2237
N4240 X8.3441 Y5.2407
N4250 X8.3241 Y5.2571
N4260 X8.3035 Y5.2728
N4270 X8.2825 Y5.2879
N4280 X8.2611 Y5.3024
N4290 X8.2392 Y5.3162
N4300 X8.2169 Y5.3293
N4310 X8.1942 Y5.3417
N4320 X8.1711 Y5.3535
N4330 X8.1477 Y5.3645
N4340 X8.1239 Y5.3748
N4350 X8.0998 Y5.3844
N4360 X8.0756 Y5.3931
N4370 X8.0511 Y5.4011
N4380 X8.0265 Y5.4084
N4390 X8.0016 Y5.4149
N4400 X7.9765 Y5.4207
N4410 X7.9513 Y5.4257
N4420 X7.926 Y5.4299
N4430 X7.9005 Y5.4334
N4440 X7.8749 Y5.436
N4450 X7.8493 Y5.4379
N4460 X7.8414 Y5.4383
N4470 X7.8088 Y5.4392
N4480 X7.8008 Y5.4394
N4490 X6.7135
N4500 X6.6895 Y5.4393
N4510 X6.6655 Y5.4385
N4520 X6.6415 Y5.4371
N4530 X6.6176 Y5.4349
N4540 X6.5937 Y5.4321
N4550 X6.5699 Y5.4286
N4560 X6.5463 Y5.4245
N4570 X6.5227 Y5.4196
N4580 X6.4994 Y5.4141
N4590 X6.4761 Y5.408
N4600 X6.4531 Y5.4011
N4610 X6.4303 Y5.3937
N4620 G2 X6.3944 Y5.381 I-.5598 J1.5222
N4630 G1 X6.381 Y5.3771
N4640 X6.3673 Y5.3739
N4650 X6.3535 Y5.3714
N4660 X6.3396 Y5.3696
N4670 X6.3256 Y5.3686
N4680 X6.3116 Y5.3683
N4690 X6.2976 Y5.3687
N4700 G3 X6.2787 Y5.3692 I-.0189 J-.3369
N4710 X5.9413 Y5.0318 I0. J-.3374
N4720 X5.9472 Y4.9687 I.3374 J0.
N4730 G1 Y4.9685
N4740 X5.9473 Y4.9681
N4750 X5.9676 Y4.8614 Z1.482 F10.
N4760 X5.9702 Y4.8457 Z1.4813
N4770 X5.9721 Y4.8299 Z1.4806
N4780 X5.9732 Y4.8141 Z1.4799
N4790 X5.9736 Y4.7983 Z1.4793
N4800 X5.9732 Y4.7824 Z1.4786
N4810 X5.9721 Y4.7666 Z1.4779
N4820 X5.9702 Y4.7508 Z1.4772
N4830 X5.9676 Y4.7352 Z1.4766
N4840 G3 X5.9601 Y4.6877 I.7379 J-.1405
N4850 X5.9558 Y4.6407 I.7454 J-.093 F6.42
N4860 G1 X5.9544 Y4.6032
N4870 Y4.3782
N4880 X5.9507 Y4.3405
N4890 X5.9437 Y4.3004
N4900 X5.9331 Y4.2587
N4910 X5.9189 Y4.2154
N4920 X5.9009 Y4.1709
N4930 X5.8791 Y4.1257
N4940 X5.8536 Y4.0801
N4950 X5.8245 Y4.0347
N4960 X5.792 Y3.9896
N4970 X5.7561 Y3.9451
N4980 X5.7171 Y3.9014
N4990 X5.675 Y3.8586
N5000 X5.6302 Y3.817
N5010 X5.5827 Y3.7766
N5020 X5.5328 Y3.7375
N5030 X5.4807 Y3.7
N5040 X5.4266 Y3.6639
N5050 X5.4046 Y3.6499
N5060 G2 X5.3745 Y3.639 I-.0401 J.0634
N5070 G3 X5.3247 Y3.6314 I.1777 J-1.327
N5080 X4.9594 Y3.5097 I.2261 J-1.2881
N5090 G1 X4.8991 Y3.4809
N5100 X4.8373 Y3.4536
N5110 X4.7741 Y3.4279
N5120 X4.709 Y3.4033
N5130 X4.6384 Y3.3776
N5140 X4.5678 Y3.3503
N5150 X4.4998 Y3.3209
N5160 X4.4342 Y3.2889
N5170 X4.371 Y3.2541
N5180 X4.3099 Y3.2163
N5190 X4.2509 Y3.1753
N5200 X4.194 Y3.1312
N5210 X4.1392 Y3.0841
N5220 X4.0865 Y3.034
N5230 X4.036 Y2.9812
N5240 X3.9878 Y2.9257
N5250 X3.9418 Y2.8678
N5260 X3.9049 Y2.8172
N5270 X3.8916 Y2.7953
N5280 X3.8802 Y2.7744
N5290 X3.8693 Y2.752
N5300 X3.8585 Y2.7267
N5310 X3.8481 Y2.6979
N5320 X3.8384 Y2.6648
N5330 X3.8301 Y2.6269
N5340 X3.8242 Y2.5841
N5350 X3.8218 Y2.5368
N5360 X3.824 Y2.4853
N5370 X3.832 Y2.4303
N5380 X3.847 Y2.373
N5390 X3.8696 Y2.3147
N5400 X3.9006 Y2.257
N5410 X3.94 Y2.2018
N5420 X3.9876 Y2.1507
N5430 X4.0429 Y2.1056
N5440 X4.1043 Y2.0671
N5450 X4.1681 Y2.031
N5460 X4.234 Y1.9974
N5470 X4.2704 Y1.9803
N5480 G2 X4.3099 Y1.9358 I-.0317 J-.0679
N5490 G3 X4.3482 Y1.8334 I1.307 J.4301
N5500 X4.4608 Y1.6239 I1.2931 J.5605
N5510 X4.6348 Y1.4131 I1.1413 J.7643
N5520 X4.8364 Y1.251 I.9496 J.9749
N5530 X5.0618 Y1.1335 I.7489 J1.1616
N5540 X5.2871 Y1.0655 I.5124 J1.2914
N5550 X5.55 Y1.0388 I.271 J1.3586
N5560 X5.7002 Y1.0476 I-.0166 J1.5685
N5570 X5.8503 Y1.0743 I-.153 J1.2931
N5580 G1 X5.8506 Y1.0744
N5590 G3 X6.0382 Y1.1335 I-.3042 J1.2932
N5600 X6.156 Y1.1879 I-.7656 J1.8122
N5610 X6.382 Y1.338 I-.6418 J1.2112
N5620 X6.4889 Y1.4371 I-1.0165 J1.2044
N5630 X6.564 Y1.5217 I-1.9862 J1.8402
N5640 G1 X6.6051 Y1.5699
N5650 G2 X6.6622 Y1.5963 I.0571 J-.0486
N5660 X6.6669 Y1.5961 I0. J-.075
N5670 G1 X6.6767 Y1.5955
N5680 X6.7143 Y1.595
N5690 X7.3893
N5700 X7.4643 F10.
N5710 X7.4811 Y1.5946 Z1.4773
N5720 X7.4979 Y1.5933 Z1.478
N5730 X7.5146 Y1.5912 Z1.4787
N5740 X7.5311 Y1.5883 Z1.4794
N5750 X7.5476 Y1.5846 Z1.4801
N5760 X7.5638 Y1.58 Z1.4809
N5770 X7.5797 Y1.5747 Z1.4816
N5780 X7.5954 Y1.5685 Z1.4823
N5790 X7.6107 Y1.5616 Z1.483
N5800 X7.6257 Y1.5539 Z1.4837
N5810 X7.6403 Y1.5455 Z1.4844
N5820 X7.6544 Y1.5364 Z1.4851
N5830 X7.6681 Y1.5265 Z1.4859
N5840 X7.6812 Y1.516 Z1.4866
N5850 G2 X7.8017 Y1.2575 I-.2169 J-.2585 F100.
N5860 X7.4643 Y.9201 I-.3374 J0.
N5870 X7.4465 Y.9205 I0. J.3374
N5880 G1 X6.7939 Y.9549
N5890 G2 X6.4742 Y1.2919 I.0178 J.337
N5900 G1 X6.4743 Y1.296
N5910 X6.4748 Y1.3128 Z1.4859 F10.
N5920 X6.4763 Y1.3296 Z1.4851
N5930 X6.4786 Y1.3463 Z1.4844
N5940 X6.4817 Y1.3628 Z1.4837
N5950 X6.4856 Y1.3791 Z1.483
N5960 X6.4904 Y1.3953 Z1.4823
N5970 X6.4959 Y1.4112 Z1.4816
N5980 X6.5023 Y1.4268 Z1.4809
N5990 X6.5094 Y1.442 Z1.4801
N6000 X6.5172 Y1.4569 Z1.4794
N6010 X6.5258 Y1.4714 Z1.4787
N6020 X6.5351 Y1.4854 Z1.478
N6030 X6.5451 Y1.4989 Z1.4773
N6040 X6.5558 Y1.512 Z1.4766
N6050 G3 X6.564 Y1.5217 I-2.0531 J1.7653
N6060 G1 X6.5946 Y1.562 F6.42
N6070 G2 X6.6111 Y1.578 I.0598 J-.0452
N6080 G1 X6.6176 Y1.5826
N6090 G2 X6.6609 Y1.5964 I.0433 J-.0613
N6100 X6.6655 Y1.5962 I0. J-.0751
N6110 G1 X6.6767 Y1.5955 F10.
N6120 X6.7143 Y1.595
N6130 X6.7301 Y1.5944 Z1.4772
N6140 X6.7459 Y1.5931 Z1.4779
N6150 X6.7617 Y1.591 Z1.4786
N6160 X6.7773 Y1.5882 Z1.4793
N6170 X6.7928 Y1.5847 Z1.4799
N6180 X6.808 Y1.5804 Z1.4806
N6190 X6.8231 Y1.5754 Z1.4813
N6200 X6.8379 Y1.5697 Z1.482
N6210 X6.9384 Y1.5284 Z1.4866
N6220 X7.0061 Y1.5006 F100.
N6230 G2 X7.2154 Y1.1884 I-.1282 J-.3122
N6240 X6.8779 Y.8509 I-.3375 J0.
N6250 X6.7497 Y.8762 I0. J.3375
N6260 X6.597 Y1.0014 I.1282 J.3122
N6270 G1 X6.5606 Y1.0561
N6280 X6.5527 Y1.0672
N6290 X6.5441 Y1.0779
N6300 X6.535 Y1.0881
N6310 X6.5253 Y1.0977
N6320 X6.515 Y1.1068
N6330 X6.5042 Y1.1152
N6340 X6.493 Y1.123
N6350 X6.4813 Y1.1302
N6360 X6.4692 Y1.1366
N6370 X6.4568 Y1.1424
N6380 X6.4441 Y1.1474
N6390 X6.4311 Y1.1516
N6400 X6.4178 Y1.1551
N6410 X6.4044 Y1.1579
N6420 X6.3909 Y1.1598
N6430 X6.3773 Y1.161
N6440 X6.3636 Y1.1614
N6450 X6.3499 Y1.161
N6460 X6.3363 Y1.1598
N6470 X6.3227 Y1.1578
N6480 X6.3093 Y1.155
N6490 X6.2961 Y1.1514
N6500 X6.2831 Y1.1471
N6510 X6.2704 Y1.1421
N6520 X6.258 Y1.1363
N6530 X6.2459 Y1.1298
N6540 X6.224 Y1.1174
N6550 X6.2018 Y1.1054
N6560 X6.1968 Y1.1028
N6570 X6.1671 Y1.0882
N6580 X6.1371 Y1.074
N6590 X6.1069 Y1.0604
N6600 X6.0765 Y1.0472
N6610 X6.0716 Y1.0452
N6620 X6.0437 Y1.0345
N6630 X6.0157 Y1.0244
N6640 X5.9875 Y1.0148
N6650 X5.959 Y1.0059
N6660 X5.9304 Y.9975
N6670 X5.9016 Y.9898
N6680 X5.8719 Y.9825
N6690 X5.8402 Y.9753
N6700 X5.8084 Y.9688
N6710 X5.7765 Y.9631
N6720 X5.7444 Y.9582
N6730 X5.7093 Y.9536
N6740 X5.678 Y.9506
N6750 X5.6467 Y.9482
N6760 X5.6153 Y.9463
N6770 X5.5838 Y.9451
N6780 X5.5524 Y.9444
N6790 X5.5481
N6800 X5.5169 Y.945
N6810 X5.4858 Y.9461
N6820 X5.4547 Y.948
N6830 X5.4236 Y.9505
N6840 X5.3927 Y.9537
N6850 X5.3617 Y.9575
N6860 X5.3309 Y.9619
N6870 X5.3002 Y.967
N6880 X5.2667 Y.9734
N6890 X5.2362 Y.9802
N6900 X5.2059 Y.9876
N6910 X5.1757 Y.9957
N6920 X5.1457 Y1.0044
N6930 X5.1159 Y1.0137
N6940 X5.0863 Y1.0237
N6950 X5.0569 Y1.0343
N6960 X5.0252 Y1.0465
N6970 X4.9941 Y1.0597
N6980 X4.9633 Y1.0736
N6990 X4.9328 Y1.0881
N7000 X4.9027 Y1.1034
N7010 X4.8729 Y1.1194
N7020 X4.8435 Y1.136
N7030 X4.8145 Y1.1533
N7040 X4.7839 Y1.1726
N7050 X4.7585 Y1.1897
N7060 X4.7335 Y1.2073
N7070 X4.7088 Y1.2255
N7080 X4.6846 Y1.2442
N7090 X4.6607 Y1.2633
N7100 X4.6373 Y1.283
N7110 X4.6142 Y1.3032
N7120 X4.5916 Y1.3238
N7130 X4.5678 Y1.3466
N7140 X4.5451 Y1.3696
N7150 X4.5229 Y1.3932
N7160 X4.5013 Y1.4172
N7170 X4.4802 Y1.4416
N7180 X4.4596 Y1.4665
N7190 X4.4396 Y1.4919
N7200 X4.4202 Y1.5177
N7210 X4.4013 Y1.5439
N7220 X4.383 Y1.5706
N7230 X4.3643 Y1.5998
N7240 X4.348 Y1.6268
N7250 X4.3322 Y1.654
N7260 X4.3169 Y1.6816
N7270 X4.3023 Y1.7095
N7280 X4.2883 Y1.7377
N7290 X4.2748 Y1.7662
N7300 X4.2608 Y1.7978
N7310 G2 X4.2436 Y1.8405 I1.3561 J.5681
N7320 G1 X4.2385 Y1.8529
N7330 X4.2327 Y1.8649
N7340 X4.2262 Y1.8766
N7350 X4.2191 Y1.8879
N7360 X4.2113 Y1.8988
N7370 X4.2029 Y1.9092
N7380 X4.194 Y1.9191
N7390 X4.1845 Y1.9285
N7400 X4.1745 Y1.9374
N7410 G2 X3.8717 Y2.5852 I.5416 J.6478
N7420 X4.2345 Y3.2788 I.8444 J0.
N7430 G1 X4.24 Y3.2826
N7440 X4.2583 Y3.295
N7450 X4.2768 Y3.3068
N7460 X4.3048 Y3.3242
N7470 X4.3235 Y3.3354
N7480 X4.3424 Y3.3461
N7490 X4.3724 Y3.3626
N7500 X4.3909 Y3.3725
N7510 X4.4096 Y3.3819
N7520 X4.443 Y3.3982
N7530 X4.4605 Y3.4065
N7540 X4.4781 Y3.4143
N7550 X4.5174 Y3.4313
N7560 G2 X4.547 Y3.4434 I.3347 J-.7752
N7570 G1 X4.5971 Y3.4628
N7580 X4.6087 Y3.4672
N7590 G3 X4.7629 Y3.6888 I-.0821 J.2216
N7600 X4.7347 Y3.8007 I-.2363 J0.
N7610 G2 X4.6944 Y3.9606 I.2972 J.1599
N7620 X5.0319 Y4.2981 I.3375 J0.
N7630 X5.3291 Y4.1206 I0. J-.3375
N7640 X5.3694 Y3.9606 I-.2972 J-.16
N7650 X5.2642 Y3.7159 I-.3375 J0.
N7660 G1 X5.2641 Y3.7157
N7670 X5.2467 Y3.6993
N7680 X5.1679 Y3.6245 Z1.482 F10.
N7690 X5.1562 Y3.6138 Z1.4813
N7700 X5.1439 Y3.6037 Z1.4806
N7710 X5.1312 Y3.5942 Z1.4799
N7720 X5.1181 Y3.5853 Z1.4793
N7730 X5.1045 Y3.5771 Z1.4786
N7740 X5.0906 Y3.5694 Z1.4779
N7750 X5.0763 Y3.5625 Z1.4772
N7760 X5.0618 Y3.5562 Z1.4766
N7770 G3 X4.9594 Y3.5097 I.489 J-1.2129
N7780 X4.7989 Y3.4133 I.5914 J-1.1664 F6.42
N7790 X4.6482 Y3.2896 I.7547 J-1.0728
N7800 X4.5431 Y3.177 I1.0417 J-1.0782
N7810 X4.3933 Y2.9519 I1.0561 J-.8646
N7820 X4.327 Y2.8022 I1.1725 J-.6094
N7830 G2 X4.3266 Y2.8013 I-.0703 J.026
N7840 G3 X4.281 Y2.6522 I1.0315 J-.397
N7850 G2 X4.2808 Y2.6511 I-.0731 J.0168
N7860 G3 X4.2534 Y2.5015 I1.2235 J-.3011
N7870 X4.2438 Y2.3514 I1.4455 J-.168
N7880 X4.2692 Y2.0886 I1.3867 J.0013
N7890 X4.3073 Y1.9437 I1.3477 J.2773
N7900 X4.3323 Y1.8729 I1.3096 J.4222 F10.
N7910 G1 X4.3376 Y1.858 Z1.4772
N7920 X4.3423 Y1.8428 Z1.4779
N7930 X4.3462 Y1.8274 Z1.4786
N7940 X4.3494 Y1.8119 Z1.4793
N7950 X4.3518 Y1.7962 Z1.4799
N7960 X4.3535 Y1.7804 Z1.4806
N7970 X4.3545 Y1.7646 Z1.4813
N7980 X4.3547 Y1.7487 Z1.482
N7990 X4.3536 Y1.6401 Z1.4866
N8000 X4.3534 Y1.6176 F100.
N8010 G2 X4.0159 Y1.2834 I-.3375 J.0033
N8020 X3.6784 Y1.6209 I0. J.3375
N8030 X3.6785 Y1.6242 I.3375 J0.
N8040 X3.7157 Y1.775 I.3374 J-.0033
N8050 G1 X3.8538 Y2.0441
N8060 X4.1722 Y2.6641
N8070 X4.1821 Y2.6843
N8080 X4.1913 Y2.7047
N8090 X4.1999 Y2.7255
N8100 X4.2078 Y2.7466
N8110 G3 X4.2221 Y2.7896 I-3.0218 J1.0284
N8120 G1 X4.2296 Y2.8112
N8130 X4.2395 Y2.8376
N8140 X4.2516 Y2.869
N8150 X4.2645 Y2.9001
N8160 X4.2781 Y2.9308
N8170 X4.2924 Y2.9612
N8180 X4.3075 Y2.9913
N8190 X4.3121 Y3.
N8200 X4.327 Y3.0273
N8210 X4.3425 Y3.0542
N8220 X4.3586 Y3.0808
N8230 X4.3753 Y3.1071
N8240 X4.3925 Y3.133
N8250 X4.4102 Y3.1585
N8260 G3 X4.4415 Y3.2018 I-3.6547 J2.6789
N8270 G1 X4.454 Y3.2203
N8280 X4.4658 Y3.2393
N8290 X4.4769 Y3.2586
N8300 X4.4875 Y3.2783
N8310 X5.2612 Y4.7854
N8320 G2 X5.5614 Y4.9687 I.3002 J-.1542
N8330 X5.8753 Y4.7552 I0. J-.3375
N8340 G1 X5.8754 Y4.755
N8350 X5.8909 Y4.7158
N8360 X5.9308 Y4.6147 Z1.482 F10.
N8370 X5.9363 Y4.5998 Z1.4813
N8380 X5.9411 Y4.5847 Z1.4806
N8390 X5.9451 Y4.5693 Z1.4799
N8400 X5.9485 Y4.5538 Z1.4793
N8410 X5.9511 Y4.5382 Z1.4786
N8420 X5.9529 Y4.5224 Z1.4779
N8430 X5.954 Y4.5066 Z1.4772
N8440 X5.9544 Y4.4907 Z1.4766
N8450 Y4.3782
N8460 Y3.9371 F6.42
N8470 X5.9501 Y3.8959
N8480 X5.9424 Y3.8526
N8490 X5.9311 Y3.8076
N8500 X5.9161 Y3.761
N8510 X5.898 Y3.715
N8520 X5.8775 Y3.6716
N8530 X5.8753 Y3.6673
N8540 G2 X5.8087 Y3.6267 I-.0666 J.0344
N8550 X5.7956 Y3.6279 I0. J.075
N8560 G3 X5.6627 Y3.6463 I-.312 J-1.7637
N8570 X5.5522 Y3.6509 I-.1105 J-1.3343
N8580 X5.3634 Y3.6375 I0. J-1.3389
N8590 X5.3247 Y3.6314 I.1888 J-1.3255 F10.
N8600 G1 X5.308 Y3.6289 Z1.4773
N8610 X5.2913 Y3.6273 Z1.478
N8620 X5.2744 Y3.6265 Z1.4787
N8630 X5.2576 Y3.6266 Z1.4794
N8640 X5.2408 Y3.6275 Z1.4801
N8650 X5.2241 Y3.6293 Z1.4809
N8660 X5.2074 Y3.6318 Z1.4816
N8670 X5.191 Y3.6352 Z1.4823
N8680 X5.1747 Y3.6394 Z1.483
N8690 X5.1586 Y3.6445 Z1.4837
N8700 X5.1428 Y3.6503 Z1.4844
N8710 X5.1273 Y3.6569 Z1.4851
N8720 X5.1122 Y3.6642 Z1.4859
N8730 X5.0975 Y3.6723 Z1.4866
N8740 G2 X4.9298 Y3.964 I.1698 J.2917 F100.
N8750 X5.187 Y4.2918 I.3375 J0.
N8760 G1 X5.5366 Y4.3774
N8770 G2 X5.6169 Y4.3871 I.0803 J-.3278
N8780 X5.8754 Y4.2666 I0. J-.3375
N8790 G1 X5.8859 Y4.2534 Z1.4859 F10.
N8800 X5.8958 Y4.2397 Z1.4851
N8810 X5.9049 Y4.2256 Z1.4844
N8820 X5.9133 Y4.211 Z1.4837
N8830 X5.921 Y4.1961 Z1.483
N8840 X5.9279 Y4.1807 Z1.4823
N8850 X5.934 Y4.165 Z1.4816
N8860 X5.9394 Y4.1491 Z1.4809
N8870 X5.944 Y4.1329 Z1.4801
N8880 X5.9477 Y4.1165 Z1.4794
N8890 X5.9506 Y4.0999 Z1.4787
N8900 X5.9527 Y4.0832 Z1.478
N8910 X5.954 Y4.0664 Z1.4773
N8920 X5.9544 Y4.0496 Z1.4766
N8930 Y3.9371
N8940 Y3.6858 F6.42
N8950 G2 X5.8794 Y3.6108 I-.075 J0.
N8960 X5.8613 Y3.613 I0. J.075
N8970 G3 X5.7982 Y3.6274 I-.4192 J-1.6887
N8980 X5.7241 Y3.639 I-.3146 J-1.7632 F10.
N8990 G1 X5.7085 Y3.6415 Z1.4772
N9000 X5.6929 Y3.6448 Z1.4779
N9010 X5.6776 Y3.6487 Z1.4786
N9020 X5.6624 Y3.6534 Z1.4793
N9030 X5.6475 Y3.6588 Z1.4799
N9040 X5.6328 Y3.6649 Z1.4806
N9050 X5.6185 Y3.6716 Z1.4813
N9060 X5.6045 Y3.6791 Z1.482
N9070 X5.5097 Y3.7322 Z1.4866
N9080 X5.4889 Y3.7438 F100.
N9090 G2 X5.4505 Y3.8093 I.0367 J.0655 F10.
N9100 X5.4791 Y3.8681 I.0751 J0.
N9110 G1 X5.4853 Y3.873 Z1.487
N9120 X5.4913 Y3.8778 Z1.4882
N9130 X5.4973 Y3.8825 Z1.4902
N9140 X5.503 Y3.887 Z1.4931
N9150 X5.5085 Y3.8914 Z1.4966
N9160 X5.5137 Y3.8954 Z1.5009
N9170 X5.5185 Y3.8992 Z1.5058
N9180 X5.5228 Y3.9027 Z1.5114
N9190 X5.5267 Y3.9057 Z1.5175
N9200 X5.5301 Y3.9084 Z1.5241
N9210 X5.5329 Y3.9106 Z1.5311
N9220 X5.5351 Y3.9123 Z1.5384
N9230 X5.5367 Y3.9136 Z1.546
N9240 X5.5376 Y3.9143 Z1.5537
N9250 X5.538 Y3.9146 Z1.5616
N9260 G0 Z1.5766
N9270 Z2.
N9280 X.2238 Y-.244
N9290 Z1.5766
N9300 G1 Z1.4812 F6.42
N9310 X.2237 Y-.2444 Z1.4737
N9320 X.2232 Y-.2454 Z1.4663
N9330 X.2225 Y-.2471 Z1.4591
N9340 X.2215 Y-.2494 Z1.4521
N9350 X.2202 Y-.2524 Z1.4453
N9360 X.2186 Y-.256 Z1.439
N9370 X.2168 Y-.2601 Z1.433
N9380 X.2148 Y-.2648 Z1.4275
N9390 X.2126 Y-.2699 Z1.4226
N9400 X.2102 Y-.2755 Z1.4182
N9410 X.2076 Y-.2814 Z1.4145
N9420 X.2049 Y-.2877 Z1.4114
N9430 X.2021 Y-.2942 Z1.409
N9440 X.1992 Y-.3009 Z1.4073
N9450 X.1964 Y-.3082 Z1.406 F10.
N9460 X.1945 Y-.3158 Z1.4046
N9470 X.1933 Y-.3236 Z1.4032
N9480 X.193 Y-.3314 Z1.4018
N9490 X.1935 Y-.3393 Z1.4004
N9500 X.1948 Y-.347 Z1.399
N9510 X.1969 Y-.3546 Z1.3977
N9520 X.1997 Y-.3619 Z1.3963
N9530 X.2034 Y-.3688 Z1.3949
N9540 X.2077 Y-.3754 Z1.3935
N9550 X.2127 Y-.3814 Z1.3921
N9560 X.2183 Y-.3869 Z1.3907
N9570 X.2245 Y-.3918 Z1.3893
N9580 X.2311 Y-.396 Z1.388
N9590 X.2381 Y-.3995 Z1.3866
N9600 X.9097 Y-.6908
N9610 X1.0094 Y-.7341 Z1.382
N9620 X1.0238 Y-.7407 Z1.3813
N9630 X1.0378 Y-.748 Z1.3806
N9640 X1.0516 Y-.756 Z1.3799
N9650 X1.0649 Y-.7646 Z1.3793
N9660 X1.0778 Y-.7739 Z1.3786
N9670 X1.0902 Y-.7837 Z1.3779
N9680 X1.1022 Y-.7941 Z1.3772
N9690 X1.1137 Y-.805 Z1.3766
N9700 X1.21 Y-.8583 F6.42
N9710 X1.3029 Y-.8993
N9720 X1.3805 Y-.9251
N9730 X1.4466 Y-.9416
N9740 X1.5557 Y-.9604
N9750 X1.6505 Y-.9701
N9760 X1.7356 Y-.9746
N9770 X1.8141 Y-.9761
N9780 X1.8885 Y-.9759
N9790 X1.9601 Y-.9746
N9800 X2.0301 Y-.9726
N9810 G3 X2.236 Y-.9648 I-.5613 J17.4336
N9820 X2.5767 Y-.9491 I-2.9813 J68.5673
N9830 G1 X2.6451 Y-.9459
N9840 X3.1268 Y-.9224
N9850 X8.778 Y-.6449
N9860 X8.8305 Y-.6411
N9870 X8.8783 Y-.633
N9880 X8.9316 Y-.6185
N9890 X8.9888 Y-.5958
N9900 X9.0476 Y-.5647
N9910 X9.1063 Y-.5257
N9920 X9.1635 Y-.4792
N9930 X9.2181 Y-.4261
N9940 X9.2693 Y-.3674
N9950 X9.3167 Y-.304
N9960 X9.36 Y-.2368
N9970 X9.3992 Y-.1666
N9980 X9.4343 Y-.0941
N9990 X9.4656 Y-.02
N100 X9.4932 Y.0554
N110 X9.5175 Y.1315
N120 X9.5388 Y.2082
N130 X9.5573 Y.2851
N140 X9.5734 Y.3622
N150 X9.5872 Y.4393
N160 X9.599 Y.5163
N170 X9.609 Y.5932
N180 X9.6174 Y.6698
N190 X9.6243 Y.7463
N200 X9.63 Y.8225
N210 X9.6346 Y.8986
N220 X9.6381 Y.9744
N230 X9.6408 Y1.05
N240 X9.6426 Y1.1255
N250 X9.6436 Y1.2007
N260 X9.6441 Y1.2758
N270 X9.6439 Y1.3508
N280 X9.6433 Y1.4256
N290 G3 X9.6408 Y1.575 I-15.3535 J-.1816
N300 X9.6348 Y1.7985 I-21.7727 J-.4703
N310 G1 X9.6324 Y1.8729
N320 G2 X9.6277 Y2.0218 I47.3347 J1.5706
N330 X9.6205 Y2.3202 I30.5038 J.8822
N340 X9.614 Y2.7689 I50.735 J.962
N350 X9.61 Y3.2931 I96.7723 J.9904
N360 G1 X9.6097 Y3.368
N370 X9.6088 Y3.5928
N380 X9.6079 Y3.8926
N390 X9.6078 Y3.9676
N400 X9.607 Y3.9956
N410 X9.6051 Y4.0206
N420 X9.6009 Y4.0527
N430 X9.593 Y4.0916
N440 X9.5801 Y4.1363
N450 X9.5607 Y4.1855
N460 X9.5337 Y4.2372
N470 X9.4994 Y4.2897
N480 X9.4581 Y4.3417
N490 X9.4104 Y4.3921
N500 X9.3571 Y4.4402
N510 X9.299 Y4.4853
N520 X9.2368 Y4.5272
N530 X9.1712 Y4.5655
N540 X9.1029 Y4.6004
N550 X9.0325 Y4.6317
N560 X8.9605 Y4.6598
N570 X8.8873 Y4.6848
N580 X8.8131 Y4.7069
N590 X8.7383 Y4.7263
N600 X8.6631 Y4.7433
N610 X8.5875 Y4.7582
N620 X8.5766 Y4.7601
N630 G2 X8.5179 Y4.8122 I.013 J.0738
N640 G3 X8.0663 Y5.2961 I-.7179 J-.2172
N650 X7.841 Y5.3439 I-.2667 J-.7032
N660 G1 X7.8034 Y5.345
N670 X6.7147
N680 X6.7138
N690 G3 X6.7045 Y5.3451 I-.0093 J-.7501
N700 X6.2887 Y5.2193 I0. J-.7502
N710 G1 X6.238 Y5.1908
N720 X6.1838 Y5.1638
N730 X6.1268 Y5.1384
N740 X6.0671 Y5.1146
N750 X6.0053 Y5.0925
N760 X5.9416 Y5.0721
N770 X5.8762 Y5.0532
N780 X5.8095 Y5.0359
N790 X5.7416 Y5.0201
N800 X5.6727 Y5.0056
N810 X5.603 Y4.9924
N820 X5.5326 Y4.9804
N830 X5.4615 Y4.9695
N840 X5.3899 Y4.9596
N850 X5.3179 Y4.9505
N860 X5.2454 Y4.9424
N870 X5.1727 Y4.935
N880 X5.0996 Y4.9283
N890 X5.0264 Y4.9222
N900 X4.9529 Y4.9167
N910 X4.8792 Y4.9117
N920 X4.8054 Y4.9072
N930 G2 X4.6573 Y4.8994 I-.8001 J13.86
N940 X4.4344 Y4.8904 I-.8279 J17.6267
N950 X4.1364 Y4.8819 I-.8812 J25.6882
N960 X3.7628 Y4.8751 I-.9097 J40.0165
N970 X3.2389 Y4.87 I-.9899 J73.6273
N980 G1 X3.164 Y4.8695
N990 X2.9392 Y4.8683
N1000 X2.7144 Y4.8674
N1010 X2.4145 Y4.8666
N1020 X2.3696 Y4.8663
N1030 X2.347 Y4.8647
N1040 X2.3173 Y4.8611
N1050 X2.2814 Y4.8543
N1060 X2.24 Y4.8433
N1070 X2.1942 Y4.8267
N1080 X2.1456 Y4.8035
N1090 X2.0959 Y4.7729
N1100 X2.047 Y4.7343
N1110 X2.0009 Y4.6879
N1120 X1.9595 Y4.634
N1130 X1.92 Y4.5763
N1140 X1.8826 Y4.5153
N1150 X1.8477 Y4.4514
N1160 X1.8153 Y4.3851
N1170 X1.7855 Y4.3168
N1180 X1.7581 Y4.2468
N1190 X1.733 Y4.1755
