%
O0666(JIG_BOTTOM)
(DATE=DD-MM-YY - 24-04-17 TIME=HH:MM - 15:54)
(MATERIAL - ALUMINUM INCH - 2024)
( T239 |  1/2 FLAT ENDMILL | H239 ) (WILL CHANGE TO MATCH MACHINE)
( T5 |  1/4 SPOTDRILL | H5 )
( T107 |  17/64 DRILL | H107 )
( T88 |  NO. 9 DRILL | H88 )
( T232 |  1/8 FLAT ENDMILL | H232 )
N100 G20
N102 G0 G17 G40 G49 G80 G90
N104 T239 M6
N106 G0 G90 G54 X-.55 Y1.6121 A0. S1069 M3
N108 G43 H239 Z2. M8
N110 Z.2
N112 G1 Z-.075 F6.42
N114 X5.0244
N116 Y1.2897
N118 X-.3
N120 Y.9673
N122 X5.0244
N124 Y.6449
N126 X-.3
N128 Y.3225
N130 X5.0244
N132 Y.0001
N134 X-.55
N136 G0 Z.175
N138 Y1.6121
N140 Z.125
N142 G1 Z-.15
N144 X5.0244
N146 Y1.2897
N148 X-.3
N150 Y.9673
N152 X5.0244
N154 Y.6449
N156 X-.3
N158 Y.3225
N160 X5.0244
N162 Y.0001
N164 X-.55
N166 G0 Z.1
N168 Y1.6121
N170 Z.05
N172 G1 Z-.2
N174 X5.0244
N176 Y1.2897
N178 X-.3
N180 Y.9673
N182 X5.0244
N184 Y.6449
N186 X-.3
N188 Y.3225
N190 X5.0244
N192 Y.0001
N194 X-.55
N196 G0 Z.05
N198 Y1.6121
N200 Z0.
N202 G1 Z-.25
N204 X5.0244
N206 Y1.2897
N208 X-.3
N210 Y.9673
N212 X5.0244
N214 Y.6449
N216 X-.3
N218 Y.3225
N220 X5.0244
N222 Y.0001
N224 X-.55
N226 G0 Z2.
N228 Y4.7243
N230 Z.2
N232 G1 Z-.075
N234 X5.0244
N236 Y4.4019
N238 X-.3
N240 Y4.0795
N242 X5.0244
N244 Y3.7571
N246 X-.3
N248 Y3.4347
N250 X5.0244
N252 Y3.1123
N254 X-.55
N256 G0 Z.175
N258 Y4.7243
N260 Z.125
N262 G1 Z-.15
N264 X5.0244
N266 Y4.4019
N268 X-.3
N270 Y4.0795
N272 X5.0244
N274 Y3.7571
N276 X-.3
N278 Y3.4347
N280 X5.0244
N282 Y3.1123
N284 X-.55
N286 G0 Z.1
N288 Y4.7243
N290 Z.05
N292 G1 Z-.2
N294 X5.0244
N296 Y4.4019
N298 X-.3
N300 Y4.0795
N302 X5.0244
N304 Y3.7571
N306 X-.3
N308 Y3.4347
N310 X5.0244
N312 Y3.1123
N314 X-.55
N316 G0 Z.05
N318 Y4.7243
N320 Z0.
N322 G1 Z-.25
N324 X5.0244
N326 Y4.4019
N328 X-.3
N330 Y4.0795
N332 X5.0244
N334 Y3.7571
N336 X-.3
N338 Y3.4347
N340 X5.0244
N342 Y3.1123
N344 X-.55
N346 G0 Z2.
N348 M5
N350 G91 G28 Z0. M9 (CHANGE G28 TO G55?)
N352 A0.
N354 M01
N356 T5 M6
N358 G0 G90 G54 X2.3622 Y4.1122 A0. S1069 M3
N360 G43 H5 Z2. M8
N362 G98 G81 Z-.27 R-.15 F6.42
N364 X3.0319 Y3.979
N366 X3.5996 Y3.5996
N368 X2.3622 Y.6122
N370 X1.6925 Y.7454
N372 X1.1248 Y1.1248
N374 G80
N376 M5
N378 G91 G28 Z0. M9
N380 A0.
N382 M01
N384 T107 M6
N386 G0 G90 G54 X2.3622 Y4.1122 A0. S1006 M3
N388 G43 H107 Z2. M8
N390 G98 G83 Z-.9648 R.1 Q.1 F4.19
N392 Y.6122
N394 G80
N396 M5
N398 G91 G28 Z0. M9
N400 A0.
N402 M01
N404 T88 M6
N406 G0 G90 G54 X3.5996 Y3.5996 A0. S1364 M3
N408 G43 H88 Z2. M8
N410 G98 G83 Z-.9439 R.975 Q.1 F4.15
N412 X1.1248 Y1.1248
N414 G80
N416 M5
N418 G91 G28 Z0. M9
N420 A0.
N422 M01
N424 T232 M6
N426 G0 G90 G54 X1.7042 Y.7454 A0. S4278 M3
N428 G43 H232 Z2. M8
N430 Z.2
N432 G1 Z-.975 F6.16
N434 G3 X1.6928 Y.7713 I-.0351 J0.
N436 G1 X1.6925
N438 G3 X1.6671 Y.7505 I0. J-.0259
N440 X1.6666 Y.7454 I.0254 J-.0051
N442 X1.6925 Y.7195 I.0259 J0.
N444 X1.7165 Y.7355 I0. J.0259
N446 X1.7184 Y.7454 I-.024 J.0099
N448 X1.6928 Y.7713 I-.0259 J0.
N450 G1 Z-.775
N452 G0 Z2.
N454 X3.0436 Y3.979
N456 Z.2
N458 G1 Z-.975
N460 G3 X3.0322 Y4.0049 I-.0351 J0.
N462 G1 X3.0319
N464 G3 X3.006 Y3.979 I0. J-.0259
N466 X3.0103 Y3.9646 I.0259 J0.
N468 X3.0319 Y3.953 I.0216 J.0144
N470 X3.0579 Y3.979 I0. J.026
N472 X3.0559 Y3.9889 I-.026 J0.
N474 X3.0502 Y3.9973 I-.024 J-.0099
N476 X3.0322 Y4.0049 I-.0183 J-.0183
N478 G1 Z-.775
N480 G0 Z2.
N482 X1.6573 Y.7524
N484 Z.2
N486 G1 Z-.975
N488 G3 X1.6566 Y.7454 I.0352 J-.007
N490 X1.6925 Y.7095 I.0359 J0.
N492 X1.7257 Y.7317 I0. J.0359
N494 X1.7284 Y.7454 I-.0332 J.0137
N496 X1.6925 Y.7813 I-.0359 J0.
N498 X1.6573 Y.7524 I0. J-.0359
N500 G1 Z-.775
N502 G0 Z2.
N504 X3.002 Y3.959
N506 Z.2
N508 G1 Z-.975
N510 G3 X3.0319 Y3.943 I.0299 J.02
N512 X3.0679 Y3.979 I0. J.036
N514 X3.0651 Y3.9927 I-.036 J0.
N516 X3.0573 Y4.0044 I-.0332 J-.0137
N518 X3.0319 Y4.0149 I-.0254 J-.0254
N520 X2.996 Y3.979 I0. J-.0359
N522 X3.002 Y3.959 I.0359 J0.
N524 G1 Z-.775
N526 G0 Z2.
N528 M5
N530 G91 G28 Z0. M9
N532 A0.
N534 M01
(FLIP PART)
N536 T239 M6
N538 G0 G90 G54 X2.4047 Y2.3622 A0. S1069 M3
N540 G43 H239 Z2. M8
N542 Z1.75
N544 G3 X2.264 Y2.5029 I-.1407 J0. F6.42
N546 X2.1234 Y2.3622 I0. J-.1407
N548 X2.4515 Y2.0341 I.3281 J0.
N550 X2.7797 Y2.3622 I0. J.3281
N552 X2.264 Y2.8779 I-.5157 J0.
N554 X2.2454 Y2.8775 I0. J-.5157
N556 X1.8304 Y2.3622 I.1124 J-.5153
N558 X2.3578 Y1.8348 I.5274 J0.
N560 X2.8852 Y2.3622 I0. J.5274
N562 X2.3578 Y2.8896 I-.5274 J0.
N564 X2.2454 Y2.8775 I0. J-.5274
N566 G1 Z1.95
N568 G0 Z2.
N570 X2.3578 Y2.8996
N572 Z1.75
N574 G3 X1.8204 Y2.3622 I0. J-.5374
N576 X2.3578 Y1.8248 I.5374 J0.
N578 X2.8952 Y2.3622 I0. J.5374
N580 X2.3578 Y2.8996 I-.5374 J0.
N582 G1 Z1.95
N584 G0 Z2.
N586 M5
N588 G91 G28 Z0. M9
N590 G28 X0. Y0. A0.
N592 M30
%
